/* XPM */
static char *d15b3161fc5943da8ce7401cfd0b87636HotAbKsJO1KCVEG[] = {
/* columns rows colors chars-per-pixel */
"447 458 256 2 ",
"   c #090403",
".  c #0E0E0E",
"X  c #150C09",
"o  c #16120E",
"O  c #191513",
"+  c #1D1A16",
"@  c #1E1C19",
"#  c #2D1209",
"$  c #221A16",
"%  c #271B18",
"&  c #241C1A",
"*  c #341E15",
"=  c #361D17",
"-  c #27211B",
";  c #2B221D",
":  c #352116",
">  c #392216",
",  c #392910",
"<  c #37271A",
"1  c #3C251A",
"2  c #192926",
"3  c #2D2423",
"4  c #292625",
"5  c #312624",
"6  c #332A26",
"7  c #352C2B",
"8  c #382B28",
"9  c #38312B",
"0  c #3B312D",
"q  c #343034",
"w  c #3D3433",
"e  c #3B3539",
"r  c #522A0D",
"t  c #43261B",
"y  c #492718",
"u  c #442A1B",
"i  c #4B2C1C",
"p  c #5A2415",
"a  c #532C1A",
"s  c #49361B",
"d  c #4C341C",
"f  c #53341D",
"g  c #563B1E",
"h  c #462C23",
"j  c #493527",
"k  c #543D22",
"l  c #563827",
"z  c #5B3C23",
"x  c #56332B",
"c  c #413634",
"v  c #423936",
"b  c #473936",
"n  c #443C3B",
"m  c #493E3C",
"M  c #663A29",
"N  c #6E3B2E",
"B  c #26433C",
"V  c #5A411E",
"C  c #5C4325",
"Z  c #5A4529",
"A  c #46413C",
"S  c #4B413E",
"D  c #584736",
"F  c #5B4C3B",
"G  c #5E503D",
"H  c #63442A",
"J  c #674928",
"K  c #644B2C",
"L  c #74482D",
"P  c #66512B",
"I  c #6C532D",
"U  c #74562D",
"Y  c #654937",
"T  c #634C34",
"R  c #784937",
"E  c #6B5433",
"W  c #64533C",
"Q  c #695538",
"!  c #775737",
"~  c #745A33",
"^  c #7B5C33",
"/  c #7A612E",
"(  c #7B623A",
")  c #3E3843",
"_  c #473B44",
"`  c #533E47",
"'  c #653E40",
"]  c #34504A",
"[  c #4C4443",
"{  c #4B4746",
"}  c #514644",
"|  c #564946",
" . c #544C4A",
".. c #594E4D",
"X. c #59514C",
"o. c #505253",
"O. c #5D5452",
"+. c #5B5856",
"@. c #664B46",
"#. c #734C4B",
"$. c #645443",
"%. c #695948",
"&. c #775846",
"*. c #615655",
"=. c #625956",
"-. c #645C5A",
";. c #6A5C59",
":. c #765A54",
">. c #7A6647",
",. c #6B6257",
"<. c #6A615E",
"1. c #746956",
"2. c #776858",
"3. c #606464",
"4. c #6C6462",
"5. c #6C6866",
"6. c #746966",
"7. c #746C6B",
"8. c #7D7362",
"9. c #76716D",
"0. c #7A716E",
"q. c #6C7573",
"w. c #7C7573",
"e. c #7D7976",
"r. c #864F2E",
"t. c #844B39",
"y. c #865839",
"u. c #95583B",
"i. c #A65E3D",
"p. c #83653B",
"a. c #87653A",
"s. c #8C6B3D",
"d. c #92693D",
"f. c #93713E",
"g. c #8B4C43",
"h. c #875646",
"j. c #8C5B4B",
"k. c #965B47",
"l. c #8A5B53",
"z. c #945D53",
"x. c #9B5C56",
"c. c #8B6D43",
"v. c #856A48",
"b. c #936D42",
"n. c #996549",
"m. c #8A7247",
"M. c #8C724B",
"N. c #937245",
"B. c #94744A",
"V. c #9A764A",
"C. c #9A7848",
"Z. c #9C7A4B",
"A. c #876955",
"S. c #986657",
"D. c #877457",
"F. c #8D7B5C",
"G. c #977A56",
"H. c #A5684B",
"J. c #A4764C",
"K. c #A76A56",
"L. c #A97558",
"P. c #B4785B",
"I. c #926B69",
"U. c #827463",
"Y. c #8D7C64",
"T. c #867868",
"R. c #8B7D6B",
"E. c #947C65",
"W. c #827976",
"Q. c #877C79",
"!. c #847C7A",
"~. c #A97766",
"^. c #AF776D",
"/. c #B67A67",
"(. c #C27C6A",
"). c #6B827B",
"_. c #9D814E",
"`. c #9A835A",
"'. c #A48454",
"]. c #A68859",
"[. c #AB8C5B",
"{. c #B08658",
"}. c #AD915B",
"|. c #B3945C",
" X c #B6975C",
".X c #8F816D",
"XX c #948264",
"oX c #94836B",
"OX c #9B8868",
"+X c #8A8279",
"@X c #928473",
"#X c #9B8B74",
"$X c #948978",
"%X c #9B8D7B",
"&X c #9C917C",
"*X c #A68A66",
"=X c #BA8469",
"-X c #AB9367",
";X c #B69866",
":X c #A68975",
">X c #B98775",
",X c #A79679",
"<X c #B69978",
"1X c #B9A16E",
"2X c #BBA476",
"3X c #C88763",
"4X c #C4896A",
"5X c #CA916F",
"6X c #C68B76",
"7X c #CA9477",
"8X c #D4997B",
"9X c #C6AA78",
"0X c #CEB17C",
"qX c #9E7886",
"wX c #748E89",
"eX c #8B8482",
"rX c #8C8886",
"tX c #938A86",
"yX c #938C8A",
"uX c #9C9483",
"iX c #99938B",
"pX c #909392",
"aX c #9B9695",
"sX c #A49784",
"dX c #B5908A",
"fX c #A49B99",
"gX c #B1A493",
"hX c #9CA3A2",
"jX c #AAA5A5",
"kX c #B4ABA9",
"lX c #B8B4B2",
"zX c #C99785",
"xX c #CA938D",
"cX c #D59B85",
"vX c #D49D9A",
"bX c #CCAC8C",
"nX c #D9A488",
"mX c #D5B887",
"MX c #D9A894",
"NX c #E5AF93",
"BX c #E4AA96",
"VX c #CEB3A8",
"CX c #C5B9B6",
"ZX c #EDB8A9",
"AX c #E7CA96",
"SX c #D6C2A4",
"DX c #F5C7B3",
"FX c #BCC3C3",
"GX c #D3CAC7",
"HX c #EED9CF",
"JX c #F5E8DA",
"KX c #F2E9EA",
"LX c #F5EBE9",
"PX c #FAF3EC",
"IX c #FCF5F3",
"UX c #FDF9F7",
/* pixels */
". . . . . . . . . . . . . . . . . . . . . . . . . . . . . . . . . . . . . . . . . . . . . . . . . . . . . . . . . . . . . . . . . . . . . . . . . . . . . . . . . . . . . . . . . . . . . . . . . . . . . . . . . . . . . . . . . . . . . . . . . . . . . . . . . . . . . . . . . . . . . . . . . . . . . . . . . . . . . . . . . . . . . . . . . . . . . . . . . . . . . . . . . . . . . . . . . . . . . . . . . . . . . . . . . . . . . . . . . . . . . . . . . . . . . . . . . . . . . . . . . . . . . . . . . . . . . . . . . . . . . . . . . . . . . . . . . . . . . . . . . . . . . . . . . . . . . . . . . . . . . . . . . . . . . . . . . . . . . . . . . . . . . . . . . . . . . . . . . . . . . . . . . . . . . . . . . . . . . . . . . . . . . . . . . . . . . . . . . . . . . . . . . . . . . . . . . . . . . . . . . . . . . . . . . . . . . . . . . . . . . . . . . . . . . . . . . . . . . . . . . . . . . . . ",
". . . . . . . . . . . . . . . . . . . . . . . . . . . . . . . . . . . . . . . . . . . . . . . . . . . . . . . . . . . . . . . . . . . . . . . . . . . . . . . . . . . . . . . . . . . . . . . . . . . . . . . . . . . . . . . . . . . . . . . . . . . . . . . . . . . . . . . . . . . . . . . . . . . . . . . . . . . . . . . . . . . . . . . . . . . . . . . . . . . . . . . . . . . . . . . . . . . . . . . . . . . . . . . . . . . . . . . . . . . . . . . . . . . . . . . . . . . . . . . . . . . . . . . . . . . . . . . . . . . . . . . . . . . . . . . . . . . . . . . . . . . . . . . . . . . . . . . . . . . . . . . . . . . . . . . . . . . . . . . . . . . . . . . . . . . . . . . . . . . . . . . . . . . . . . . . . . . . . . . . . . . . . . . . . . . . . . . . . . . . . . . . . . . . . . . . . . . . . . . . . . . . . . . . . . . . . . . . . . . . . . . . . . . . . . . . . . . . . . . . . . . . . . . ",
". . . . . . . . . . . . . . . . . . . . . . . . . . . . . . . . . . . . . . . . . . . . . . . . . . . . . . . . . . . . . . . . . . . . . . . . . . . . . . . . . . . . . . . . . . . . . . . . . . . . . . . . . . . . . . . . . . . . . . . . . . . . . . . . . . . . . . . . . . . . . . . . . . . . . . . . . . . . . . . . . . . . . . . . . . . . . . . . . . . . . . . . . . . . . . . . . . . . . . . . . . . . . . . . . . . . . . . . . . . . . . . . . . . . . . . . . . . . . . . . . . . . . . . . . . . . . . . . . . . . . . . . . . . . . . . . . . . . . . . . . . . . . . . . . . . . . . . . . . . . . . . . . . . . . . . . . . . . . . . . . . . . . . . . . . . . . . . . . . . . . . . . . . . . . . . . . . . . . . . . . . . . . . . . . . . . . . . . . . . . . . . . . . . . . . . . . . . . . . . . . . . . . . . . . . . . . . . . . . . . . . . . . . . . . . . . . . . . . . . . . . . . . . . ",
". . . . . . . . . . . . . . . . . . . . . . . . . . . . . . . . . . . . . . . . . . . . . . . . . . . . . . . . . . . . . . . . . . . . . . . . . . . . . . . . . . . . . . . . . . . . . . . . . . . . . . . . . . . . . . . . . . . . . . . . . . . . . . . . . . . . . . . . . . . . . . . . . . . . . . . . . . . . . . . . . . . . . . . . . . . . . . . . . . . . . . . . . . . . . . . . . . . . . . . . . . . . . . . . . . . . . . . . . . . . . . . . . . . . . . . . . . . . . . . . . . . . . . . . . . . . . . . . . . . . . . . . . . . . . . . . . . . . . . . . . . . . . . . . . . . . . . . . . . . . . . . . . . . . . . . . . . . . . . . . . . . . . . . . . . . . . . . . . . . . . . . . . . . . . . . . . . . . . . . . . . . . . . . . . . . . . . . . . . . . . . . . . . . . . . . . . . . . . . . . . . . . . . . . . . . . . . . . . . . . . . . . . . . . . . . . . . . . . . . . . . . . . . . ",
". . . . . . . . . . . . . . . . . . . . . . . . . . . . . . . . . . . . . . . . . . . . . . . . . . . . . . . . . . . . . . . . . . . . . . . . . . . . . . . . . . . . . . . . . . . . . . . . . . . . . . . . . . . . . . . . . . . . . . . . . . . . . . . . . . . . . . . . . . . . . . . . . . . . . . . . . . . . . . . . . . . . . . . . . . . . . . . . . . . . . . . . . . . . . . . . . . . . . . . . . . . . . . . . . . . . . . . . . . . . . . . . . . . . . . . . . . . . . . . . . . . . . . . . . . . . . . . . . o . . . . . . . . . . . . . . . . . . . . . . . . . . . . . . . . . . . . . . . . . . . . . . . . . . . . . . . . . . . . . . . . . . . . . . . . . . . . . . . . . . . . . . . . . . . . . . . . . . . . . . . . . . . . . . . . . . . . . . . . . . . . . . . . . . . . . . . . . . . . . . . . . . . . . . . . . . . . . . . . . . . . . . . . . . . . . . . . . . . . . . . . . . . . . ",
"V.V.n.n.n.n.n.n.k.k.k.k.n.n.n.n.n.n.n.n.n.n.n.n.n.n.n.n.n.n.n.n.n.n.V.J.L.L.L.J.'.].{.{.[.[.[.[.-X-X-X-X-X-X,X,X,X,X,X,X,XsXsXsXsXsXuXuXuXuXsXuXuXuXuXuXsXsXsXsXsXsXsXsXsXsXsXsX2XgX2X2XgX2X9X9X9X9X9X0X0X0X0X0X0X0X0X0XmXmXmXmXmXmXmXmXmXmXmXmXmXmXmXmXmXmXmXmXmXmXmXmXmXmXmXmXmXmXAXAXmXmXmXAXmXmXmXmXAXAXmXmXmXmXAXmXmXmXmXmXmXmXmXmXmXmXmXmX0X9X9X9X<X;X;X-X-X[.].`.B.B.m.c.p.^ ~ ~ E I K K Z C C C k k k k k d d d d d d d d d d d k k g k C C K K E E ~ ^ p.v.c.c.B.B.G.].-X-X;X;X9X9X0X0XmXmXmXmXAXAXAXAXAXAXAXAXAXAXAXAXAXAXAXAXDXAXAXAXAXAXAXAXAXAXAXAXAXAXAXmXmXmXmXmX0X9X9X9X2X2X2X2X<X<X,X,X,X,X,X,X,X,X,X:XOXOXOXOXOXOXOXOXOXOX*X*X*X*X*X*X-X[.[.[.[.[.*X*X}.}.{.].'.J.Z.V.N.M.m.c.c.c.c.c.c.v.p.( ( ( ~ I P Z Z C V k k s s s s s s s d d d g g k z Z K I E ~ ( p.c.B.Z.Z._.`.`.].[.-X-X;X;X;X1X1X1X<X<X<X,X,X,X,X,X,X,X,X,X,XsXsXdXdXdXsXsX,X,X,X,X#X,X,X,X,X,X,X,X,X#X#X#X#XOXOXOXOX#X#X,X,XsXsXgXgXgXgXgXgXgX",
"V.V.V.n.n.n.n.n.n.n.k.k.n.n.n.n.n.n.n.n.n.n.n.n.n.n.n.n.n.n.n.n.n.n.V.J.L.L.L.J.'.].].].[.[.[.[.-X-X-X-X-X,X,X,X,X,X,X,X,XsXsXsXsXsXsXsXuXuXuXuXuXuXuXuXsXsXsXsXsXsXsXsXsXsXsXsXgXgXgXgXgXgX9X9X9X9X9X0X0X0X0X0X0X0X0X0XmXmXmXmXmXmXmXmXmXmXmXmXmXmXmXmXmXmXmXmXmXmXmXmXmXmXmXmXmXmXmXmXmXmXAXAXmXmXmXmXAXmXmXmXmXmXmXmXmXmXmXmXmXmXmXmXmXmXmXmX0X9X9X9X<X;X;X-X-X[.].`.B.B.m.c.p.^ ~ ~ E I K K Z C C C k k k k k d d d d d d d d d d d k k k k C Z K E E ~ ~ ^ p.v.c.c.B.B.G.].-X-X;X;X9X9X0X0XmXmXmXmXAXAXAXAXAXAXAXAXAXAXAXAXAXAXAXDXDXAXAXAXAXAXAXAXAXAXAXAXAXAXmXmXmXmXmX0X0X9X2X2X2X1X2X<X,X,X,X,X,X,X,X,X,X:X:X#XOXOXOXOXOXOXOXOXOXOXOXOX*X*X*X*X-X[.[.[.[.[.[.[.[.[.{.].J.J.Z.V.N.M.m.c.c.c.c.c.c.v.( ( ( ( ~ E P P Z Z Z V C k s s s s s s d d d d g k z Z K I E ~ ( p.c.B.B.Z._._._.`.].[.-X-X;X;X;X<X<X;X<X,X,X,X,X,X,X,X,X,X,X,X,XsXsXsXsXsX,X,X,X,X,X#X#X,X,X,X,X,X,X#X#X#XOXOXOXOXOXOX#X#X#X,X,X,XsXgXgXgXgXgXgX",
"V.V.V.n.n.n.n.n.n.n.k.k.n.n.n.n.n.n.n.n.n.n.n.n.n.n.n.n.n.n.n.n.n.n.V.J.L.L.L.J.'.].].].[.[.[.[.-X-X-X-X-X,X,X,X,X,X,X,X,XsXsXsXsXsXuXsXuXuXuXuXuXuXuXuXsXsXsXsXsXsXsXsXsXsXsXsXgXgXgXgXgX2X9X9X9X9X9X0X0X0X0X0X0X0X0X0XmXmXmXmXmXmXmXmXmXmXmXmXmXmXmXmXmXmXmXmXmXmXmXmXmXmXmXmXmXmXmXmXmXmXAXAXmXmXmXmXAXAXmXmXmXmXmXmXmXmXmXmXmXmXmXmXmXmXmX0X9X9X9X9X<X;X;X-X-X[.].`.B.B.m.c.p.^ ~ ~ E I K K Z C C C k k k k d d d d d d d d d d d k k k k Z Z K E E ~ ! ! ^ p.v.c.m.B.B.G.].-X-X;X;X9X9X0X0XmXmXmXmXAXAXAXAXAXAXAXAXAXAXAXAXAXAXAXDXDXAXAXAXAXAXAXAXAXAXAXAXmXmXmXmXmX0X0X9X9X2X2X2X1X<X<X<X,X,X,X,X,X,X,X-X:X:X#XOXOXOXOXOXOXOXOXOXOXOXOXOX*X*X*X*X-X[.[.[.[.[.].].].].'.J.Z.Z.G.V.N.M.m.m.m.c.c.c.c.v.( ( ( ( ( ~ E E P P Z Z Z C C g s s s s d d d d g k z Z K I E ~ ( p.c.N.N.B.Z._._._.'.].[.-X-X;X;X;X;X;X-X-X-X,X,X-X-X*X:X,X,X,X,X,XsXsX,X,X,X,X,X,X,X#X#X#X#X#X#X#X#X#X#XOXOXOXXXXXXXXXOXOX#X#X,X,X,XsXgXgXgXgXgX",
"V.V.n.n.n.c.n.n.n.n.k.k.n.n.n.n.n.n.n.n.n.n.n.n.n.n.n.n.n.n.n.n.n.n.V.J.L.L.L.J.'.].[.[.[.[.[.[.-X-X-X-X-X,X,X,X,X,X,X,X,XsXsXsXsXsXuXuXuXuXsXuXuXuXuXuXsXsXsXsXsXsXsXsXgXsXsXgXgXgXgXgXgX2X9X9X9X9X9X0X0X0X0X0X0X0X0X0XmXmXmXmXmXmXmXmXmXmXmXmXmXmXmXmXmXmXmXmXmXmXmXmXmXmXmXmXmXmXmXmXAXAXAXAXAXmXmXmXmXmXmXmXmXmXmXmXmXmXmXmXmXmXmX0X0X0X0X9X9X9X9X2X;X;X-X-X[.[.]._.B.B.m.c.p.^ ~ ~ E I K K Z C C C k k k k d d d d d d d d d d d k k k C Z K T E Q ~ ! ^ ^ p.v.c.m.B.B.G.].-X;X;X;X9X9X0X0XmXmXmXmXAXAXAXAXAXAXAXAXAXAXAXAXAXAXAXAXAXAXAXAXAXAXAXAXAXAXAXAXmXmXmXmX0X0X9X9X9X1X2X1X1X;X<X,X,X,X,X,X:X:X:X:X:XOXOXOXXXXXXXXXOXOXOXOXOXOXOXOX*X*X*X*X*X*X[.[.[.[.].].].'.L.J.Z.V.V.B.N.M.m.m.m.c.c.c.v.v.p.( ( ( ( ! ~ E P P K Z Z Z C k s s s s d d d d f k k Z K E E ~ ( p.s.N.N.N.B.Z.Z._.`.'.].[.-X-X;X;X-X-X-X-X,X-X:X:X:X:X#X#X,X,X,X,XsXsX,X,X,X,X,X,X,X#X#X#X#X#X#X#XOXOXOXXXXXXXXXXXXXXXXXXX#X#X#X,X,X,XdXdXgXsXgX",
"V.V.n.n.b.c.n.n.k.k.k.k.n.n.n.n.n.n.n.n.n.n.n.n.n.n.n.n.n.n.n.n.n.n.n.J.J.L.J.J.'.'.].].[.[.[.[.-X-X-X-X-X,X,X,X,X,X,X,X,X,XsXsXsXsXuXuXuXuXuXuXuXuXuXuXsXsXsXsXsXsXsXsXsXsX2X2XgXgX2X2XgX2X2X9X9X9X9X9X9X0X0X0X0X0X0X0XmXmXmXmXmXmXmXmXmXmXmXmXmXmXmXmXmXmXmXmXmXmXmXmXmXmXmXmXmXmXmXmXmXmXmXmXmXmXmXmXmXmXmXmXmXmXmXmXmXmXmXmXmXmX0X0X0X9X0X9X9X9X9X2X;X;X-X-X[.].'.Z.V.B.N.c.p.^ ~ ~ E I P K Z Z Z C C k k k k d d s d d k k d d k k k Z Z Z T T E Q ~ ! ^ ^ p.v.c.m.B.G.'.].-X-X;X;X9X9X0X0XmXmXmXmXmXAXAXAXAXAXAXAXAXAXAXAXAXAXAXAXAXAXAXAXAXAXAXAXAXAXAXmXmXmXmXmX0X9X9X9X1X1X1X;X-X-X,X,X,X,X,X,X:X:XOXOXOXOXOXXXXXXXXXXXXXOXOXOXOXOXOXOX*X*X*X*X*X[.[.[.].].'.'.'.'.L.J.V.V.N.N.N.B.m.m.m.M.c.c.c.v.v.v.v.>.( ( ~ Q E P K Z Z Z Z V g s s s d d d d f k k C K E E ~ ^ p.s.c.N.N.B.Z._._.'.].].[.-X-X;X-X-X-X,X-X-X*XOXOX:XOXOX#X#X,X,X,XsXsXsX,X,X,X,X,X,X#X#X#X#X#XoXoXOXOXXXXXXXY.Y.Y.Y.Y.XXXXOX#X#X,X,X,XsXdXgXgXgX",
"V.b.n.b.n.k.k.k.k.k.k.k.k.n.n.n.n.n.n.n.n.n.n.n.n.n.n.n.n.n.n.n.n.n.n.J.J.L.L.L.'.].].].'.[.[.[.-X-X-X-X-X-X,X,X,X,X,X,X,X,XsXsXsXsXuXuXuXuXuXuXuXuXuXuXuXuXsXsXsXsXsXsXsXsXsXsX2XgX2X2XgX2X2X2X9X9X9X9X9X0X0X0X0X0X0X0XmXmXmXmXmXmXmXmXmXmXmXmXmXmXmXmXmXmXmXmXmXmXmXmXmXmXmXmXmXmXmXmXmXmXmXmXmXmXmXmXmXmXmXmXmXmXmXmXmXmXmXmXmXmX0X0X9X9X9X9X9X9X2X<X;X;X-X-X].].Z.G.B.B.N.c.p.^ ~ ~ E I P K Z Z Z C C k k k k s d d s d k k k k k k k Z Z Z T T E Q ~ ~ ! ^ ( p.c.m.B.G.'.[.-X-X;X;X9X9X9X0X0XmXmXmXmXAXAXAXAXAXAXAXAXAXAXAXAXAXAXAXAXAXAXAXAXAXAXAXAXAXmXmXmXmXmXmX0X9X9X1X1X;X;X;X-X-X-X-X,X,X:X:XOXOXOXOXOXOXOXXXXXXXXXXXOXOXOXOXOXXXOXOX*X*X*X*X].].].].].'.'.L.J.J.J.J.V.N.b.N.B.B.m.m.m.M.M.M.c.v.v.c.v.v.>.( ( ~ Q E Q K K Z Z Z C k d s s s s s d g k C Z K E I ~ p.s.c.N.N.B.Z._._.'.].[.[.-X-X;X;X-X-X-X-X:XOXOXOXOXOXOXOX#X,X,X,X,X,X,X,X,X,X,X,X#X#X#X#X#X#X#X#XOXOXOXXXY.F.F.Y.F.F.Y.XXOXOX#X#X,X,XsXsXgXgXgX",
"b.b.n.n.c.y.k.k.k.k.k.k.k.n.n.n.n.n.n.n.n.n.n.n.n.n.n.n.n.n.n.n.n.n.V.J.J.J.L.L.'.'.].].[.[.[.[.-X-X-X-X-X-X,X,X,X,X,X,X,X,XsXsXsXsXuXuXuXuXuXuXuXuXuXuXuXuXsXsXsXsXsXsXsXsXsXsX2XgX2X2XgX2X2X2X9X9X9X9X9X9X0X0X0X0X0X0XmXmXmXmXmXmXmXmXmXmXmXmXmXmXmXmXmXmXmXmXmXmXmXmXmXmXmXmXmXmXmXmXmXmXmXmXmXmXmXmXmXmXmXmXmXmXmXmXmXmXmXmXmXmX0X0X9X9X9X9X9X9X2X;X;X;X-X-X].].Z.V.B.B.N.c.p.^ ~ ~ E I I K K Z Z C C k k k d s d d k k k k k k d k C Z Z Z T P E Q ~ ~ ~ ^ ( v.v.m.G.G.'.*X-X;X;X<X9X9X9X9X0XmXmXmXmXAXAXAXAXAXAXAXAXAXAXAXAXAXAXAXAXAXAXAXAXAXAXAXAXAXmXmXmXmXmX0X9X9X9X1X1X;X-X-X-X*X*X*X*X*XOXOXOXOXOXOXOXOXXXXXXXXXXXXXOXOXOXXXOXXXOXOXOXOX].].].'.].'.'.J.J.J.J.Z.Z.Z.N.N.N.N.N.N.M.M.M.B.B.B.m.m.c.c.v.c.v.>.>.( ~ Q E E Q K Z Z C C k g s s s s d g k C Z K I I ~ ( s.c.N.N.B.Z._._.].].].[.-X-X;X;X-X-X-X-X*XOXOXOXOXOXOXOX#X#X,X,X,X,X,X,X,X,X,X,X,X#X#X#X#X#X#X#XOXOXOXXXY.F.F.F.F.F.F.Y.XXXX#X#X,X,X,X,X,XsXsX",
"n.n.n.n.c.k.k.k.k.k.k.k.k.n.n.n.n.n.n.n.n.n.n.n.n.n.n.n.n.n.n.n.n.n.V.J.J.J.J.J.J.'.].].[.[.[.[.-X-X-X-X-X-X,X,X,X,X,X,X,X,X&XuXuXuXuXuXuXuXuXuXuXuXsXuXsXuXsXsXsXsXsXsXsXsXsXsX2X2XgXgXgX2X2X2X9X9X9X9X9X9X0X0X0X0X0X0XmXmX0X0XmXmXmXmXmXmXmXmXmXmXmXmXmXmXmXmXmXmXmXmXmXmXmXmXmXmXmXmXmXmXmXmXmXmXmXmXmXmXmXmXmXmXmXmXmXmXmXmXmXmX0X9X0X9X9X9X9X1X;X;X;X;X-X-X].].G.V.B.B.N.c.p.^ ~ ~ E E I K K Z Z C C C k k d s k d k k k k k k d k C Z Z Z K K E E E ~ ~ ! ( p.c.m.G.G.'.*X-X;X;X;X9X9X9X9X0XmXmXmXmXAXAXAXAXAXAXAXAXAXAXAXAXAXAXAXAXAXAXAXAXAXAXAXAXmXmXmXmXmX0X9X9X9X1X1X;X-X-X[.*XOXOXOXOXOXOXOXOXOXOXOXOXXXXXXXXXXXXXXXXXXXOXOXOXXXOXOXXX`.`.`.`.'.'.'.J.J.J.Z.Z.Z.Z.V.N.b.b.N.N.N.N.M.M.B.G.G.B.m.m.m.M.m.v.v.>.>.( ( Q Q E Q P Z C C C g s s s s s g k C C Z K I ~ ( s.c.N.N.B.Z._._.].].].[.-X-X-X-X-X-X-X-X*XOXOXOXOXOXOXOX#X#X#X#X,X,X,X,X,X,X,X,X#X#XoX#X#X#XOXOXOXOXXXXXY.F.D.D.D.D.D.F.XXXXOX#X#X,X,X,X,X,X,X",
"n.c.c.c.y.y.y.y.y.y.h.k.k.n.n.n.n.n.n.n.n.n.n.n.n.n.n.n.n.n.n.n.n.n.n.V.J.J.J.J.J.'.].].].[.].[.[.[.-X-X-X-X,X,X,X,X,X,X,X&X&XuXuXuXuXuXuXuXsXuXuXuXuXuXuXuXsXsXsXsXsXsXsXsXsXsX2X2X2X2X2X2X2X2X2X2X9X9X9X9X9X9X0X0X0X0X0X0XmXmXmXmXmXmXmXmXmXmXmXmXmXmXmXmXmXmXmXmXmXmXmXmXmXmXmXmXmXmXmXmXmXmXmXmXmXmXmXmXmXmXmXmXmXmXmXmXmXmXmXmX0X9X0X9X9X9X9X1X<X;X;X;X-X-X[.].G.V.B.B.N.c.p.^ ~ ~ E E E K K Z Z Z C k k g d d d d d d d d d d d k C C Z Z K K K E E ~ ! ~ ^ p.c.m.G.G.'.*X-X;X;X;X9X9X9X9X0XmXmXmXmXmXAXAXAXAXAXAXAXAXAXAXAXAXAXAXAXAXAXAXAXAXAXmXmXmXmXmX0X9X9X9X9X1X;X;X-X[.].].`.`.OXOXOXOXXXXXOXXXOXXXXXXXXXXXXXXXXXXXXXXXXXXXOXOXXXXX`.`.`.`.`.'.'.J.J.Z.Z.Z.Z.Z.V.V.b.b.b.N.N.N.N.N.B.V.G.G.G.B.G.B.M.m.m.m.v.>.>.( ( ~ E E P P Z Z C s s s s s s g k C C Z K I ~ ( p.c.m.m.B.Z._.`.].].].[.-X-X-X-X-X-X-X-X*XOXOXOXOXOXOXOX#X#X#X#X,X,X,X,X,X,X,X#X#XoXOXOXoXoXOXOXOXoXoXY.F.D.D.D.D.D.D.D.F.XXXXOX#X#X,X,X,X,X,X",
"a.a.k.k.y.y.y.y.y.y.h.k.n.n.n.n.n.n.n.n.n.n.n.n.n.n.n.n.n.n.n.n.n.n.n.n.V.J.J.J.J.'.].].'.].].[.[.[.[.-X-X-X-X-X,X,X,X,X,X&X&XuXuXuXuXuXuXuXsXuXuXuXuXuXsXsXsXsXsXsXsXsXsXsXsXsX2X2X2X2X2X2X2X2X2X2X9X9X9X9X0X0X0X0X0X0X0X0XmXmXmXmXmXmXmXmXmXmXmXmXmXmXmXmXmXmXmXmXmXmXmXmXmXmXmXmXmXmXmXmXmXmXmXmXmXmXmXmXmXmXmXmXmXmXmXmXmX0XmX0X0X9X9X9X9X9X9X1X<X;X;X;X-X-X[.].G.V.B.B.N.c.p.^ ~ ~ E I E K K H Z Z C k k k g d d d d d d d d d d k C C C Z K K K E E ~ ~ ~ ^ ( v.m.B.G.'.[.-X;X;X;X1X9X9X9X0XmXmXmXmXmXmXAXAXAXAXAXAXAXAXAXAXAXAXAXAXAXAXAXAXAXAXmXmXmXmXmX0X9X9X9X1X1X;X-X}.].`.`.`.`.OXOXXXXX`.`.`.F.E.E.F.F.F.E.E.E.XXXXXXXXXXXXXXXXXXXX`.G.G.G.G.G.J.J.Z.Z.Z.Z.Z.Z.Z.V.N.b.b.N.N.N.N.V.Z.J.Z.G.G.G.G.G.M.M.m.M.v.v.>.>.( ( ~ E E P P Z C s s s s s s g k C C C K I ~ ( s.m.N.m.B.Z._.`.`.`.].].-X-X-X-X-X-X-X-X*XOXOXOXOXOXOXOX#X#X#X#X,X,X,X,X,X,X,X#X#XOXOXOXOXoXoXoXoXoXXXY.F.D.D.D.D.D.D.D.F.XXXXOX#X#X,X,X,X,X,X",
"y.y.y.y.y.y.y.y.y.y.y.k.n.n.n.n.n.n.n.n.n.n.n.n.n.n.n.n.n.n.n.n.n.n.V.n.n.J.J.J.J.'.].].'.].].[.[.[.[.-X-X-X-X,X,X,X,X,X,X&X&XuXuXsXuXuXuXuXsXsXuXuXuXuXsXsXsXsXsXsXsXsXsXsXsXsXsXsX2X2X2X2X2X2X2X2X9X9X9X9X0X0X0X0X0X0X0X0X0XmXmXmXmXmXmXmXmXmXmXmXmXmXmXmXmXmXmXmXmXmXmXmXmXmXmXmXmXmXmXmXmXmXmXmXmXmXmXmXmXmXmXmXmXmXmXmXmX0XmX0X0X9X9X9X9X9X9X1X<X;X;X;X-X-X[.].'.G.V.B.B.c.v.^ ~ ~ E E E K K H Z Z C C C k g g g k k k k k k d g k C C C Z K K K E E E ~ ~ ^ ^ p.c.B.B.Z.'.-X-X-X;X1X1X9X9X9X0X0XmXmXmXmXAXAXAXAXAXAXAXAXAXAXAXAXAXAXAXAXAXAXAXmXmXmXmXmX0X9X9X9X2X1X;X-X-X-X].`.`.`.`.`.XXE.F.F.F.F.F.F.F.F.F.F.F.E.XXXXXXXXXXXXOXXXXXXXXX`.G.G.G.G.G.Z.Z.Z.Z.Z.Z.Z.Z.Z.V.N.b.b.N.N.N.B.Z.'.'.'.`.`.`.`.G.G.B.M.m.m.v.v.v.>.( ( ~ E E P Z Z k s s s s s g k C C C K I ( ( s.c.N.m.B.Z._.`.`.`.`.].-X-X-X-X-X-X-X-X*X*XOXOXOXOXOXOX#X#X#X#X,X,X,X,X,X,X,X#X#XOXOXOXoXoXoXoXoXoXXXY.F.D.D.D.D.D.D.D.F.Y.XXoX#X#X#X,X,X,X,X",
"y.y.y.a.y.y.y.y.y.y.h.k.n.n.n.n.n.n.n.n.n.n.n.n.n.n.n.n.n.n.n.n.n.n.n.n.n.J.J.J.J.'.'.'.].].].[.[.[.[.-X-X-X-X-X,X,X,X,X&X&X&XuXuXuXuXuXuXuXuXuXuXuXuXuXuXsXsXsXsXsXsXsXsXsXsX,XsX2X2X2X2X2X2X2X2X9X9X9X9X9X9X0X0X0X0X0X0X0X0X0XmXmXmXmXmXmXmXmXmXmXmXmXmXmXmXmXmXmXmXmXmXmXmXmXmXmXmXmXmXmXmXmXmXmXmXmXmXmXmXmXmXmXmXmXmXmX0X0X0X0X0X9X9X9X9X9X2X1X<X;X;X;X-X-X[.].'.G.V.B.B.c.v.( ^ ~ ~ E E K K H Z Z C C C k g g g k k k k k k d g k C C C Z C C K K E E ~ ~ ^ ^ p.v.m.B.G.'.].[.[.-X1X1X9X9X9X9X0XmXmXmXmXAXAXAXAXAXAXAXAXAXAXAXAXAXAXAXAXAXAXmXmXmXmXmXmX0X9X9X2X1X1X;X-X[.].`.`.`.`.G.F.F.F.F.F.F.F.G.F.F.F.F.F.F.E.E.`.`.XXXXXXOXOXXX`.`.G.G.G.G.B.B.V.V.V.V.Z.Z.Z.Z.Z.V.N.b.c.N.N.N.V.'.'.'.'.].`.`.`.G.G.B.G.M.M.m.m.v.v.>.( ( ~ E E P Z k s s s s s g k C C Z K I ( ( s.s.m.m.m.B._._.`.`.].[.[.-X-X-X-X-X-X-X:X*XOXOXOXOXOXOX#X:X#X,X,X,X,X,X,X&X#X#X#XoXoXoXoXoXoXoXoXXXY.Y.F.D.D.D.D.D.D.D.F.Y.XXXXOX#X#X#X,X,X,X",
"y.y.y.y.y.y.y.y.y.y.y.h.n.n.n.n.n.n.n.n.n.n.n.n.n.n.n.n.n.n.n.n.n.n.N.V.n.n.J.J.J.J.'.'.].].].[.[.[.[.-X-X-X-X-X,X,X,X,X,X&X&XuXuXuXuXuXuXuXuXuXuXuXuXuXsXsXsXsXsXsXsXsXsXsXsX,XsX2X2X2X2X2X2X2X2X2X9X9X9X9X9X0X0X0X0X0X0X0X0X0XmXmXmXmXmXmXmXmXmXmXmXmXmXmXmXmXmXmXmXmXmXmXmXmXmXmXmXmXmXmXmXmXmXmXmXmXmXmXmXmXmXmXmXmXmXmX0X0X0X0X0X9X9X9X9X9X2X1X<X;X;X;X-X-X[.].'.Z.V.V.B.c.v.p.^ ^ ~ ~ E E I J H C C C C C g g g k g g k k k k k k C C C C Z Z K K E I E ~ ~ ^ ( v.m.B.B.`.].[.[.-X;X1X9X9X9X9X0X0XmXmXmXmXmXAXAXAXAXAXAXAXAXAXAXAXAXAXAXAXmXmXmXmXmXmXbX0X9X9X2X1X;X-X[.].`._._.G.G.G.G.G.D.D.D.F.F.F.D.D.D.F.F.F.E.XXXXXXXXXXOXOXOXOXXX`.G.G.G.M.B.M.B.V.V.V.V.V.V.V.V.V.N.b.c.b.N.B.V.'.].].].].].`.`.G.G.G.B.M.M.m.m.m.v.>.>.( ( ~ Q E K Z k s s s s g C C C Z K I ( ( s.s.m.m.m.B.Z._.`.`.`.].[.-X-X-X-X-X-X,X*X:X#XOXOXOXOXOX#X#X#X,X,X,X,X,X,X#X#X#X#XoXoXoXoXoXoXoXoXXXY.Y.Y.F.D.D.D.D.D.D.F.Y.Y.XXoX#X#X#X&X,X,X",
"y.y.y.y.y.y.y.y.y.y.y.k.n.n.n.n.n.n.n.n.n.n.n.n.n.n.n.n.n.n.n.n.n.n.n.n.n.n.V.J.J.J.'.'.].].].].[.[.[.-X-X-X-X,X,X,X,X,X,X,X&XuXuXuXuXuXuXuXuXuXuXuXsXsXuXuXsXsXsXsXsXsXsXsX,X,X,X,X2X2X2X2X2X2X2X2X2X9X9X9X9X9X9X0X0X0X0X0X0X0XmXmXmXmXmXmXmXmXmXmXmXmXmXmXmXmXmXmXmXmXmXmXmXmXmXmXmXmXmXmXmXmXmXmXmXmXmXmXmXmXmXmXmXmXmX0X0X0X0X0X9X9X9X9X9X9X1X;X;X;X;X-X-X-X[.].'.Z.V.V.B.c.v.p.( ^ ! ~ ~ E I I K H C C Z C k g k k k k k k k k k k C C C C C C Z K K I E ~ ~ ~ ( a.m.B.B.`.].[.[.-X;X1X1X9X9X9X9X0X0XmXmXmXmXAXAXAXAXAXAXAXAXAXAXAXAXAXAXmXmXmXmXmXmX0X0X9X9X2X1X;X-X-X].`._._.B.M.M.M.D.D.D.D.D.D.D.D.D.D.D.D.F.F.F.XXXXXXXXXXXXOXXXXXXXG.G.F.G.M.M.M.N.B.B.B.V.V.V.V.V.N.N.b.s.b.N.B.V.'.].].[.].].`.`.`.G.B.G.B.M.M.m.m.v.v.>.>.( ( ( Q Q Z C g s s s g C C C Z K I ( ( p.s.s.c.m.M.B._.`._.`.].].*X*X*X-X-X-X-X*X:X#X#X#XOXOXOX#X#X#X#X,X,X,X#X#X#X#X#X#XoXXXXXoXoXoXoXXXE.Y.Y.Y.Y.F.D.D.D.D.D.F.F.Y.Y.XXoX#X#X#X&X,X",
"y.y.y.y.y.y.y.y.y.y.h.k.n.n.n.n.n.n.n.n.n.n.n.n.n.n.n.n.n.n.n.n.n.n.n.V.n.n.V.V.J.J.J.'.'.'.].].[.[.[.-X-X-X-X,X,X,X,X,X,X&X&XuXuXuXuXuXuXuXuXuXuXuXsXsXuXuXsXsXsXsXsXsXsXsX,X,X,X,X2X2X2X2X2X2X2X2X2X2X9X9X9X9X9X9X0X0X0X0X0X0XmXmXmXmXmXmXmXmXmXmXmXmXmXmXmXmXmXmXmXmXmXmXmXmXmXmXmXmXmXmXmXmXmXmXmXmXmXmXmXmXmXmX0X0X0X0X0X0X0X0X0X9X9X9X9X9X9X;X;X;X;X-X-X[.[.].'.Z.Z.V.B.N.c.p.p.( ^ ~ ~ ~ I I P K H H C Z C C C C C C C k C C C C C C C C C C C K K K I ~ ~ ~ ^ p.c.m.B.G.].].[.}.;X;X1X1X9X9X9X0X0X0XmXmXmXmXAXAXAXmXAXAXAXAXAXAXAXAXmXmXmXmXmXmX0X0X9X9X9X1X;X;X-X[.`._._.B.M.M.m.M.M.D.A.A.D.D.D.D.D.D.D.D.D.F.F.E.XXXXXXXXXXOXOXOXXXF.G.G.G.M.M.m.M.B.N.N.N.N.B.B.B.N.b.c.c.c.N.B.V.'.].].].[.].'.].`.`.G.G.G.M.M.m.m.v.v.>.>.>.( ( ~ E P C g s s s g C C C Z K I ( ( p.p.s.c.m.M.B._.`._.`.`.`.].*X*X*X-X*X*X*X:X:X#X:X:XOX#X#X#X#X,X,X,X#X#X#X#X#X#X#XoXXXXXXXXXXXXXXXE.Y.Y.Y.Y.Y.D.D.D.D.D.D.F.Y.Y.XXoXoX#X#X#X,X",
"y.y.y.y.y.y.y.y.y.y.y.k.k.n.n.n.n.n.n.n.n.n.n.n.n.n.n.n.n.n.n.n.n.n.n.N.n.V.V.V.Z.L.L.'.'.'.'.].[.[.[.-X-X-X-X,X,X,X,X,X,X,X,XuXuXuXuXuXuXuXuXuXuXuXuXuXsXsXsXsXsXsXsXsXsXsXsX,X,X,X2X2X2X2X2X2X2X2X2X2X9X9X9X9X9X9X0X0X0X0XmXmXmXmXmXmXmXmXmXmXmXmXmXmXmXmXmXmXmXmXmXmXmXmXmXmXmXmXmXmXmXmXmXmXmXmXmXmXmXmXmXmXmXmX0X0X0X0X0X0X0X0X0X9X9X9X9X9X9X;X;X;X-X}.-X[.[.'.'.Z.Z.V.B.N.c.p.p.p.( ^ ~ ~ E I I K K H H Z C C C C C C C k k k k k C C C C C C C Z K K I E ~ ~ ^ p.c.m.B.G.'.].[.[.;X;X;X1X9X9X9X0X0X0XmXmXmXmXAXAXmXmXAXAXAXAXAXAXAXAXmXmXmXmXmX0X0X9X9X9X2X1X;X-X[.].`._._.M.m.m.M.M.A.A.D.M.D.A.v.A.A.D.D.D.D.F.F.E.XXXXXXOXOXOXOXOXXX`.G.G.G.G.B.m.c.c.b.b.b.N.N.N.N.N.b.c.s.c.N.V.V.'.].].[.[.].].].].`.`.G.G.G.M.M.m.m.v.v.>.>.>.>.( ~ Q Z C s s s g k C C Z K I ( ( ( p.s.s.m.M.B._._.G.`.`.`.`.*X*X*X*X*X*X*X:X:X:X:X:XOXOX:X#X#X,X,X,X#X#X#X#X#X#X#XoXXXXXoXoXXXXXXXE.Y.Y.Y.Y.Y.D.D.D.D.D.D.F.Y.Y.XXXXoX#X#X#X,X",
"y.y.y.y.y.y.y.y.y.y.h.k.k.k.n.n.n.n.n.n.n.n.n.n.n.n.n.n.n.n.n.n.n.n.n.V.n.V.V.V.J.L.J.'.'.'.'.].].[.[.-X-X-X-X,X,X,X,X,X,X,XuXuXuXuXuXuXuXuXuXuXuXuXuXuXuXuXsXsXsXsXsXsXsXsXsX,X,X2X2X2X2X2X2X2X2X2X2X9X2X9X9X9X9X0X0X0X0X0X0X0XmXmXmXmXmXmXmXmXmXmXmXmXmXmXmXmXmXmXmXmXmXmXmXmXmXmXmXmXmXmXmXmXmXmXmXmXmXmXmXmXmXmX0X0X0X0X0X0X0X0X0X9X9X9X9X9X9X5X;X;X;X}.-X}.[.].'._.Z.V.B.B.c.a.p.p.p.^ ~ ~ ~ I I I P K K H Z C C C C C z z k k C C C C C C C C C Z K K K I ~ ~ ~ ( v.c.B.B.`.].[.-X-X;X;X;X1X9X9X9X0X0X0XmXmXmXAXmXmXmXmXAXAXAXAXAXmXmXmXmXmXmXmX0X9X9X9X2X<X;X-X[.[.`._.Z.B.M.m.m.v.v.v.>.v.v.v.>.>.>.2.A.D.D.D.F.F.`.XXXXOXOXXXXXOXOXXXG.G.F.G.M.M.m.c.c.c.c.c.N.N.N.B.B.b.c.c.b.N.B.G.'.].].*X*X].*X*X].`.`.`.G.M.M.m.m.m.m.v.>.>.>.>.>.( Q P Z g s d g k C C Z P E ( ( ( ( p.s.m.m.M.B._._.G._.`.`.`.*XOX*X*X*X*X:X:X#X#X#X#X#X#X#X,X,X,X,X,X,X#X#X#X#XOXoXXXXXoXXXXXXXXXXXY.Y.Y.Y.Y.F.F.F.D.D.D.F.Y.Y.XXXX#X#X#X#X&X",
"y.y.y.y.y.y.y.y.y.y.h.h.k.n.n.n.n.n.n.n.n.n.n.n.n.n.n.n.n.n.n.n.n.n.n.V.n.V.V.V.Z.J.J.'.'.'.'.].].].].-X-X-X-X,X,X,X,X&X&X&X&XuXuXuXuXuXuXuXuXuXuXuXuXuXuXuXsXsXsXsXsXsXsXsXsX,X2X2X2X2X2X2X2X2X2X2X2X2X2X9X9X9X9X0X0X0X0X0X0X0XmXmXmXmXmXmXmXmXmXmXmXmXmXmXmXmXmXmXmXmXmXmXmXmXmXmXmXmXmXmXmXmXmXmXmXmXmXmXmXmXmXmXmX0X0X0X0X0X0X0X0X9X9X9X9X9X9X1X1X;X;X;X}.-X[.[.].`.Z.V.V.B.m.a.v.p.p.( ^ ~ ~ I I I I I K K C Z Z C C C z z k k C C C C C C C C z Z K K I I I ~ ~ ^ p.v.c.B.G.`.].[.[.-X;X;X1X1X9X9X0X0X0XmXmXmXmXAXmXmXmXmXAXAXmXmXmXmXmXmXmXmX0X9X9X9X9X<X;X;X[.].`._.Z.B.M.m.v.v.>.>.>.>.>.>.>.>.>.>.2.A.D.D.D.D.F.`.XXXXOXOXXXXXXXOXXXG.G.F.G.M.M.m.c.c.c.c.c.N.N.N.b.b.b.c.c.c.N.B.G.'.].].*X*X].*X*X].`.`.`.G.M.M.M.m.M.m.v.v.v.>.>.>.>.( Q Z C g g C k C C Z P E ( ( ( ( p.s.c.m.M.B.G.G.G.`.`.`.`.*XOX*X*X*X*X:X#X#X#X#X#X#X#X#X,X,X,X,X,X#X#X#X#XOXXXXXXXXXXXXXXXXXXXXXY.Y.Y.Y.Y.Y.F.F.D.D.D.F.Y.Y.Y.XX#X#X#X#X&X",
"y.y.y.y.y.y.y.y.y.y.h.h.k.k.n.n.n.n.n.n.n.n.n.n.n.n.n.n.n.n.n.n.n.n.n.V.n.V.V.V.Z.J.J.J.'.'.'.].].].].*X-X-X-X,X,X,X,X&X&X&X&XuXuXuXuXuXuXuXuXuXuXuXuXuXuXuXsXsXsXsXsXsXsXsXsX,X2X2X2X2X2X2X2X2X2X2X2X2X2X2X9X9X9X0X0X0X0X0X0X0XmXmXbXbXmXmXmXmXmXmXmXmXmXmXmXmXmXmXmXmXmXmXmXmXmXmXmXmXmXmXmXmXmXmXmXmXmXmXmXmXmXmXmXmXmXmX0X0X0X0X0X9X9X9X9X9X9X1X1X1X;X;X-X-X-X[.].`.`.G.V.B.B.c.c.v.a.p.( ~ ~ U I I I I E K K C Z Z Z C C C C C C C C C C C C C z Z K K J P I U ~ ~ ( p.c.m.B._.'.].[.[.-X-X;X1X9X9X9X0X0X0XmXmXAXAXAXAXmXmXmXAXmXmXmXmXmXmXmX0X9X9X9X2X<X;X;X-X].'._.Z.B.M.m.c.>.>.>.>.>.>.>.>.>.>.>.>.2.A.D.D.D.D.F.F.XXXXXXOXOXXXXXXX`.G.G.F.G.M.m.m.c.c.c.c.c.N.B.c.c.M.c.c.c.c.N.B.V.'.].].*X*X*X*X*X].`.`.`.`.F.M.G.m.M.m.m.m.v.v.>.>.>.( Q K C k C C C C C Z P E ~ ( ( ( p.s.c.m.M.B._.G.B.G._.`.`.`.OX*X*X*X*X*X#X#X#X#X#X#X#X#X,X,X#X#X#X#X#X#XOXoXXXXXXXXXXXXXXXY.Y.Y.Y.Y.Y.Y.Y.Y.Y.Y.Y.Y.F.Y.Y.Y.XXXX#X#X#X#X#X",
"y.y.y.y.y.y.y.y.y.h.k.k.c.c.n.n.n.n.n.n.n.n.n.n.n.n.n.n.n.n.n.n.n.n.n.n.n.n.V.V.Z.J.J.J.J._.'.'.`.`.`.*X-X-X-X:X:X#X,X&X&X&X&X&XuXuXuXuXuXuXuXuXuXuXuXuXuXuXsXsXsXsXsXsXsXsX,X,X2X2X2X,X2X2X2X2X2X2X9X9X2X2X9X9X9X9X9X9X0X0X0X0XmXmXmXmXmXmXmXmXmXmXmXmXmXmXmXmXmXmXmXmXmXmXmXmXmXmXmXmXmXmXmXmXmXmXmXmXmXmXmXmXmXmXmXmXmXmX0X0X0X0X0X9X9X9X9X9X2X1X1X1X;X;X;X-X-X-X].].`.`.G.G.B.m.c.v.v.p.( ~ ~ ~ ~ E E ~ E E K K K K K Z C C C C C C C C k k k k k Z Z K J P P I ~ ~ ^ p.a.m.B.Z.`.'.].[.}.}.;X;X1X9X9X0X0X0X0XmXmXmXmXmXmXmXmXmXmXmXmXmXmX0X0X9X9X9X9X<X;X-X-X[.].`.G.B.M.m.c.v.( ( >.>.>.>.>.>.>.>.>.2.2.A.D.D.D.F.F.F.F.XXXXOXXXXXOXOXXXG.G.G.M.M.m.m.c.c.c.c.c.c.c.c.c.c.c.c.c.c.N.N.V.G.].].[.*X*X*X*X].`.`.`.`.G.G.G.M.M.M.m.v.v.v.v.>.>.>.( P Z C C C C C C Z K E ~ ( ( ( p.p.s.m.m.M.B.B.B.G.G.`.`.`.OX*X*X*X*X:X#X#X,X#X#X#X#X#X,X,X,X#X#X#X#XoXoXoXXXXXXXXXXXXXY.Y.E.XXY.Y.Y.Y.Y.Y.Y.Y.Y.Y.Y.F.Y.Y.XXoXoX#X#X#X#X",
"y.y.y.y.y.y.y.y.h.h.k.k.k.k.k.k.n.n.n.n.n.n.n.n.n.n.n.n.n.n.n.n.n.b.b.n.N.n.V.V.J.J.J.J.J.Z.'.'.].].].*X-X-X-X:X:X,X#X#X&X&X&X&XuXuXuXuXuXuXuXuXuXuXuXuXuXuXsXsXsXsXsXsXsXsXsX,X,X2X,X,X2X2X2X2X2X2X9X9X9X9X9X9X9X9X9X9X0X0X0X0XmXmXmXmXmXmXmXmXmXmXmXmXmXmXmXmXmXmXmXmXmXmXmXmXmXmXmXmXmXmXmXmXbXbXmXmXmXmXmXmXmXmXbXmXmX0XmXbXbX9X9X9X9X2X9X9X2X1X2X2X1X<X;X-X-X-X*X].`.`.G.G.G.B.c.c.v.p.p.( ~ ~ ~ U I ~ ~ ~ E K J K K H C C C C C C C C k g k g k C Z Z H J K I E ~ ~ ( v.c.M.B._.`.'.].[.|.;X;X;X9X9X0X0X0XmXmXmXmXmXmXmXmXmXmXmXmXmXmXmX0X9X9X9X9X<X<X;X-X-X[.].`.B.B.m.c.v.( ( ( ( >.>.>.>.>.>.>.>.>.2.D.D.D.F.F.F.F.F.XXXXOXXXXXOXOXXXG.G.G.M.M.M.c.c.c.c.c.c.c.c.c.c.c.c.c.s.c.m.B.B.G.`.].*X*X*X*X*X*X`.`.`.`.`.G.M.M.M.M.m.M.M.M.M.M.v.>.( E Z C C C C C Z Z P E ~ ( ( ( ( p.p.c.m.M.G.B.G.G.G.G.`.OX*X*X*X*X*X:X#X#X,X,X,X#X,X#X#X#X,X#X#XoXOXOXoXoXoXoXXXXXXXXXXXXXXXXXXXXXY.Y.Y.Y.Y.Y.Y.Y.Y.Y.Y.E.oXoX@X#X#X#X#X",
"y.y.y.y.y.y.y.y.y.h.k.k.k.k.k.n.n.n.n.n.n.n.n.n.n.n.n.n.n.n.b.b.n.n.b.b.N.N.N.N.V.J.J.J.Z.Z._.'.].].].*X-X-X-X:X#X#X#X#X&X&X&XuXuXuXuXuXuXuXuXuXuXuXuXuXuXuXsXsXsXsXsXsXsXsXsX,XsX2X2X2X2X2X2X2X2X2X9X9X9X9X9X9X9X0X0X0X0X0XmXmX0X0XmXmXmXmXmXmXmXmXmXmXmXmXmXmXmXmXmXmXmXmXmXmXmXmXmXmXmXmXmXmXbXbXmXmXmXmXmXmXbX0XmXmXmXmXbXbXbX9X9X9X9X9X9X2X2X1X<X<X-X-X*X*X].].].].`.G.G.G.B.B.c.c.c.v.v.( ^ ^ ~ ~ ~ ( ( ~ E K J J J K H C C C C C C k g g k g k C Z Z Z C K K I ~ ~ ^ p.v.m.B.G._._.].[.}.;X;X;X1X9X9X0X0X0XmXmXmXmXmXmXmXmXmXmXmXmXmXbX0X9X9X9X2X<X;X;X-X[.].`.G.B.m.c.v.( ( ( ( ( ( >.>.>.>.>.>.>.>.D.D.D.D.D.F.F.F.F.`.XXXXXXXXOXOXXXG.G.F.G.M.M.c.c.c.c.c.c.c.c.c.c.c.c.c.p.c.c.m.B.G.`.].*X*X*X*X*X].`.`.`.`.`.G.M.M.M.M.M.M.M.M.D.M.v.>.>.E Z C C C C C Z Z P I E ~ ( ( ( ( p.c.m.M.G.M.G.G.G.G.`.OX*X*X*X*X*X,X,X,X,X,X,X,X,X,X#X#X#X#X#XOXOXoXoXoXoXoXoXoXoXoXXXXXXXXXY.Y.Y.Y.Y.Y.Y.Y.Y.Y.Y.Y.E.R.oXoXoX@X@X#X#X",
"y.y.y.y.y.y.y.! y.h.h.h.j.j.k.n.n.n.n.n.n.b.n.n.n.n.n.n.b.b.b.b.n.n.n.n.b.N.N.b.V.J.J.J.Z.Z._.'.].].].*X-X-X-X:X#X#X#X#X&X&X&XuXuXuXuXuXuXuXuXuXuXuXuXuXuXuXsXsXsXsXsXsXsXsX,X,XsX2X2X2X2X2X2X2X2X2X9X9X9X9X9X9X9X0X0X0X0X0XmXmX0X0XmXmXmXmXmXmXmXmXmXmXmXmXmXmXmXmXmXmXmXmXmXmXmXmXmXmXmXmXmXmXmXmXmXmXmXmXmXmXbXbXbXbXbXbXbXbXbX9X2X2X2X2X<X<X-X-X,X<X<X-X-X*X*X`.`.`.G.G.G.B.B.B.B.m.c.v.v.( ( ( ( ~ ~ ( ( ~ I P K K K J H H C C Z C C C g g k k k C C Z Z Z H H I E ~ ! ( v.c.M.B.G._.'.].[.|.-X;X;X9X9X0X0X0XmXmXmXmXmXmXmXmXmXmXmXmX0X0X9X9X9X<X<X;X;X-X[.].].`.G.M.c.v.p.( ( ! ( ( ( >.>.>.>.>.>.>.D.D.D.D.D.D.F.F.F.F.`.XXOXOXOXOXOXXXG.F.G.G.G.M.m.m.c.c.c.c.c.c.c.v.v.v.v.a.a.c.m.B.G.`.`.].`.`.`.`.`.].`.`.`.`.`.G.G.M.m.M.M.M.M.D.M.v.>.>.Q P K C Z K C Z D P I E ~ ( ( ( ( p.c.m.M.G.M.G.G.G.`.`.OXOX*X*X*X:X,X,X,X,X,X,X,X,X,X#X#X#XoXOXOXoXoXoXXXoXoXoXoXoXoXoXXXXXXXY.Y.Y.Y.Y.Y.Y.Y.Y.Y.oXoX.X.XoXoX@XoX@X@X#X",
"y.y.y.y.y.y.! ! y.y.h.h.h.h.k.k.k.n.n.n.n.n.n.n.n.n.n.n.n.c.n.n.n.n.n.n.b.b.b.b.N.V.J.J.Z.Z._.'.].].`.*X*X-X*X:X,X,X#X#X&X&X&XuXuXuXuXuXuXuXuXuXuXuXuXuXuXuXsXsXsXsXsXsXsXsXsX,X,X2X2X2X2X2X2X2X2X2X9X9X9X9X9X9X9X0X0X0XmXmXmXmX0X0XmXmXbXmXmXmXmXmXmXmXmXmXmXmXmXmXmXmXmXmXmXmXmXmXmXmXmXmXmXmXmXmXmXmXmXmXmXmXbX9X9XzX9XbXbXzXzXgX,X,X,X,X*XOXOXXX`.`.F.G.M.M.M.v.G.`.G.G.M.M.M.M.M.M.v.v.v.>.( ( >.( ( ( >.! I I K I I J H H C C Z Z C z g g k k k k C C Z Z C J K I ~ ~ ( p.v.m.B.B.Z._.].].[.|.;X;X1X9X9X0X0X0XmX0X0XmXmXmXmX0X0X0X0X9X9X9X9X2X<X;X;X;X-X[.].].`.Z.M.c.p.( ( ! ( ~ ~ ~ Q ( >.>.>.>.>.A.D.D.D.D.D.D.D.D.F.`.XXOXOXXXXXXX`.G.G.F.G.G.M.M.c.c.c.c.c.c.c.c.c.c.v.v.v.c.m.m.B.G.G.`.`.`.`.`.`.`.`.`.`.`.`.`.G.G.G.M.M.M.M.M.M.M.v.>.>.~ P P K K K K Z K P P I ~ ( ( ( ( p.c.m.m.M.G.G.G.G.G.`.OXOXOXOX*X:X:X,X,X#X#X#X#X,X,X#X#X#XOXoXoXoXoXXXXXoXoXoXoXoXoXXXXXXXXXE.Y.Y.Y.Y.Y.Y.Y.Y.Y.oXoX.X.XoXoXoXoX@XoX@X",
"! ! ! ! y.y.! ! ! y.y.h.h.h.h.h.j.j.j.j.n.n.k.k.k.k.k.k.k.k.v.n.n.n.n.b.n.b.b.b.N.V.V.J.Z.Z._._.`.].`.*XOX*X*X:X,X,X#X#X&X&X&XuXuXuXuXuXuXuXuXuXuXuXuXuXuXuXsXsXuXuXsXsXsX,X,X,X,X,X,X,X<X<X2X2X2X2X2X2X2X2X9X9X9X0X0X0X0X0X0X0X0X0XmXmXmXmXmXmXmXmXmXmXmXmXmXmXmXmXmXmXmXmXmXmXmXmXmXmXmXmXmXmXbX0XmX9X9XmX9XbX9X2XbXbXbXbX<X-X,XbX,X*XOXD.#XY.Y.>.A.>.Q >.Q >.>.Q &.>.>.&.>.>.A.D.>.D.F.F.>.F.F.>.>.>.( ( ( ~ ~ E E K K K K H H K Z Z C z z g g k k k C C C Z C C K I E ~ ~ ( v.c.m.B.B.Z.'.].[.}.-X;X;X9X9X9X9X0X0X0X0X0X0X0X0X0X9X9X9X9X9X9X2X<X<X;X;X-X-X].].`.G.G.M.m.v.( ( ( ( >.( ( ( >.>.>.>.>.>.A.D.D.D.D.D.D.D.D.F.F.XXOXOXXXXXXX`.G.G.G.G.G.G.M.c.c.c.s.a.a.a.c.c.c.c.c.c.c.m.m.M.G.G.G.G.G.`.`.`.`.`.`.`.`.`.G.F.G.G.M.M.M.M.M.M.M.v.>.( ~ E P K K K K K K K P I E ~ / ( ( >.v.m.m.M.M.G.G.G.G.`.`.OXOXOXOX:X:X#X#X:X#X#X#X#X#X#X#XOXOXOXoXoXoXXXXXoXoXoXoXoXoXoXoXoXoXY.Y.Y.Y.Y.Y.Y.Y.Y.Y..XoXoXoXoXoXoX@X#X@X#X",
"! ! ! ! R R R R R ! y.y.y.y.h.h.h.h.h.h.h.h.h.h.j.h.h.h.y.y.y.h.k.n.n.b.n.d.d.b.b.b.N.V.Z.Z.Z._._.`.`.].OX*X-X,X,X,X#X#X#X&X&XuXuXuXuXuXuXuXuXuXuXuXuXuXuXuXuXuXuXuXsXsXsX,X,X,X,X,X,X,X<X<X2X2X2X2X2X2X2X2X9X9X9X0X0X0X0X0X0X0XmXmXmXmXbXmXmXmXmXmXmXmXmXmXmXmXmXmXmXmXmXmXmXmXmXmXmXmX0XbXmX2X9XmX2X<X2X9X2X9X<X*X`.G.F.,X:X>.&.A.F.>.A.>.2.2.T.2.%.Y &.%.$.%.%.$.&.2.>.:.$.$.$.$.1.Y &.E.F.&.&.D.>.>.! ! ( ~ ~ ~ ~ E K K K K K K K Z C z g g g g k k C k C C C C H K I ~ ~ ( ( v.m.B.B.Z._.].[.[.-X;X;X1X9X9X9X9X9X9X9X9X9X9X9X9X9X9X9X9X2X2X;X;X;X;X-X-X].].`.`.G.M.M.c.v.( ( ( >.( ( ( ( >.>.>.>.>.>.D.D.D.D.D.D.D.D.D.F.F.F.XX`.`.XX`.`.F.G.G.G.G.G.M.m.c.c.s.a.a.a.a.v.v.c.c.c.c.c.m.m.M.G.G.G.G.`.`.`.`.`.`.`.G.F.G.M.M.D.M.M.M.M.M.M.v.>.>.( ~ E P P K K K D K K K P I E / ( ( >.v.m.M.M.M.M.G.G.G.G.`.OXOXOXOX*X*X#X#X#X#X#X#X#XOX#XOXOXXXoXoXoXXXXXXXoXoXoXoXOXXXoXoXoXoXE.Y.Y.Y.Y.Y.Y.Y.Y.Y..XoX@X@XoXoXoX#X#X@X#X",
"! ! ! ! R R R R ! R y.y.y.y.y.h.h.h.h.h.h.h.h.h.h.h.h.h.y.y.y.y.y.h.c.c.b.d.d.d.b.b.b.N.V.Z.Z.Z._.`.`.`.*X*X*X-X,X,X#X#X#X&X&XuXuXuXuXuXuXuXuXuXuXuXuXuXuXuXuXuXuXuXsXsXsX,X,X,X,X,X,X,X<X<X2X2X2X2X2X2X2X2X9X9X9X0X0X0X0X0X0X0XmXmXmXmXbXmXmXmXmXmXmXmXmXmXmXmXmXmXmXmXmXmXmXmXmXmXbXmXmXbXbXbXbX2XbXbX2X-X`.-X-X*X*XOXD.W D W W D $.2.@XT.$.$.$.D D $.D D Y F F Y Y F D D %.$.F D j D :.U.2.&.%.&.A.A.>.v.A.>.>.>.! E E T K K K K K K C C k g k g g g g g g C C C C K I E ~ ~ ( p.c.M.B.B.Z.`.].[.}.-X;X;X;X;X9X9X9X9X9X9X9X9X9X9X9X9X1X<X<X<X;X;X-X-X-X*X].`.`.G.M.M.m.v.v.( ( ( ( ( ( ( >.>.>.>.>.>.2.2.D.D.D.D.D.D.D.D.D.F.F.`.`.`.XX`.`.F.G.G.G.F.G.G.B.c.c.s.a.a.a.p.p.p.a.a.v.v.c.c.c.m.M.M.G.G.G.G.G.G.`.`.G.G.M.M.D.D.D.D.M.M.M.v.v.>.>.( ( ~ E P P P P K D D Z K P P I ~ / ( ( >.c.M.M.M.M.F.G.G.`.`.OXOXOXOX*X#X#X#X#X#X#X#XOXOXOXOXXXoXoXoXoXXXoXoXOXOXOXOXOXoXoXoXoXoXoXoXE.Y.Y.Y.Y.Y.Y.XXoXoX#X$X$X#X#X#X#X#X#X",
"! ! ! R ! R ! ! ! ! ! y.y.y.y.y.h.h.h.h.h.h.h.h.h.h.h.h.y.y.y.y.y.y.y.h.v.a.d.d.d.b.b.b.N.V.G.G.G._.`.`.OXOX*X:X,X#X#X#X#X&X&XuXuXuXuXuXuXuXuXuXuXuXuXuXuXuXuXuXuXuXsXsXsXsX,X,X,X2X,X,X2X2X2X1X2X2X2X2X2X2X9X9X9X9X9X9X0X0X0X0X0X0XmXmXmXmXmXmXmXmXmXmXmXmXmXmXmXmXmXmXmXmXmXmXmXmXmXbXbXbXbXbXbX,X<X2X,XOXOXOXOXD.D.>.>.A.&.%.%.%.F j 1 8 j | 1.D S %.T.T.F D D F $.F b b S $.2.R.8.%.D $.2.$.W %.&.&.&.>.>.! Q ! ! ! E E K K K K K K Z C z z V g k g g g g g V C C C P I ~ ~ ( ( v.m.M.B.Z._.].[.[.-X;X;X<X;X;X;X9X9X9X9X9X9X9X9X2X<X<X;X;X;X;X-X-X-X*X].`.`.G.G.M.c.v.v.v.>.( ( >.>.>.>.>.>.>.>.>.>.>.2.D.D.D.D.D.D.D.D.D.D.F.F.F.`.F.`.`.F.G.G.G.G.G.G.B.c.c.s.a.a.a.p.p.p.p.p.p.p.p.p.v.v.m.m.M.D.G.G.G.G.G.F.G.D.M.M.D.G.G.G.M.M.v.>.>.>.>.( ( ~ E P P Z P K D D Z Z P P P I ~ / ( ( v.m.M.M.G.G.G.F.F.`.XXOXOXOX#X#X#X#X#X#X#X#XOXOXOXoXoXoXoXoXOXOXOXOXOXOXoXoXoXoXoXoXoXoXoXY.Y.Y.XXY.Y.Y.Y.R.oX@X#X%X%X#X#X#X#X#X#X",
"! ! ! ! R R R R ! ! ! ! y.y.y.y.h.h.h.h.h.h.h.h.h.h.h.y.y.y.y.y.y.y.y.y.y.a.d.d.s.s.b.b.N.B.G.G.G.`.`.`.`.*X*X:X,X#X#X#X#X#X&XuXuXuXuXuXuXuXuXuXuXuXuXuXuXuXuXuXuXuXsXsXsX,X,X,X,X,X,X,X2X2X<X1X2X2X2X2X2X2X9X9X9X9X9X9X0X0X0X0X0X0XmXmXmXbXmXmXmXmXmXmXmXmXmXmXmXmXmXmXmXmXbXbXbXbX2X,X2XVXbX,XD.>.Q &.>.>.>.%.Q $.W W 1.U.,.%.F b j S F $.| %.X.| b 8 : < $.T.8.R.8.%.F F %.| b j j | D : < D $.D 1.%.F F W $.%.>.&.! ~ Q E E K K K K Z Z C C V V k k k k k g V C C K K I ~ ~ ( ( v.m.M.B.Z._.`.].[.[.-X;X;X;X;X;X;X;X9X9X7X;X;X;X;X;X;X;X;X-X-X-X-X].].`.`.G.B.M.M.m.v.v.>.( ( ( >.>.>.>.( >.>.>.>.>.>.2.D.D.D.D.D.D.D.D.D.D.F.F.F.F.G.F.F.F.`.G.G.G.G.G.B.c.c.c.a.a.a.p.p.p.p.p.p.( ( ( ( >.>.>.v.M.D.D.D.D.D.M.D.M.M.M.M.M.M.M.M.m.>.>.>.>.>.( ( E E P K Z K K K K K K P P P P I E ( ( >.v.v.m.M.G.G.F.F.F.XXXXOXOXOX#X#X#XoXOXOXOXOXXXoXoXoXoXoXoXOXOXoXoXoXoXoXoXoXoXoXoXoXoXoXE..XR.R.R.R.R.R..X@X@X#X%X%X%X$X$X$X$X%X",
"R R ! R R R R R ! ! R R ! ! ! ! y.y.y.y.y.y.y.y.y.y.y.y.y.y.! ! ! ! ! y.y.y.a.a.s.s.c.b.N.N.V.G.G._.`.`.`.*X*X:X,X#X#X#X#X&X&XuXuXuXuXuXuXuXuXuXuXuXuXuXuXuXuXuXuXuXuXsXsXsX,X,XsX,X<X<X2X<X2X1X2X2X1X1X1X2X2X9X9X9X9X9X9X9X0X0X0X0XmXmXmXmXmXmXmXmXmXmXmXmXmXmXmXmXmXmXmXmXmXbXbXbXbXsXOXY.Q W >.E.%.%.>.2.1.1.2.2.$.$.$.$.F :.1.| *.| F D X.X.X.X.2.,.8.Q.2.8.8.1.%.X.S b b | 1.T.;.,.1.,.F j : j | $.$.%.l D D %.>.>.>.>.! E I I K K K K Z C C V k k k k k k V C C K P E ~ ~ ( ( c.M.M.B.Z.Z._.].].[.[.-X-X-X-X-X;X;X;X;X;X;X;X;X;X;X;X-X-X-X[.[.].].`.`._.B.M.M.m.v.>.( ( ( ( ( ( >.>.>.>.>.>.>.>.>.>.2.D.D.D.D.D.F.D.D.D.D.F.F.F.F.F.F.G.F.G.G.G.G.G.M.B.c.c.c.a.a.a.p.p.( ( ( ( ^ ( ^ ( >.>.>.>.>.v.M.M.M.v.M.m.m.m.m.v.v.v.v.m.v.>.>.>.>.( ( ~ E P P Z Z K Z K K K K P P P P I I ~ ( ( v.v.v.M.M.G.G.F.F.F.XXXXOXOXOXOXOXOXOXOXOXXXXXoXoXoXoXoXoXoXoXoXoXoXoXoXoXoXoXoXoXoXoXoXoX.XR.R.R.R.R.R..X@X#X$X%X%X%X$X$X%X$X%X",
"L L I I L R R R R R R R R R R R R ! ! ! y.! ! ! ! R ! R ! ! R R ! R ! ! y.y.y.a.a.d.s.b.b.N.B.G.G._.`.`.`.*X*X:X,X,X,X#X#X&X&XuXuXuXuXuXuXuXuXuXuXuXuXuXuXuXuXuXuXuXuXsXsXsX,X,XsX,X<X<X2X<X<X1X1X1X1X1X1X2X2X9X9X9X9X9X9X9X0X0X0X0X0X0XmXmXmXmXmXmXmXmXmXmXmXmXbXbXbXbXbXbXmXmXbXdXoXsXsXD.%.2.2.%.%.1.2.U.2.2.2.2.R.%.D $.$.b c S 0 S *.1.0.2.9.+XgXsX+X1.,.S | | S S b 0 c b b S O.F b c S | F b 8 8 j S j b < j Y %.>.>.>.! K K K I K K K Z C C k k k k k k V C C K P E ~ ~ ( ( c.m.M.B.B.Z._.`.'.].[.[.[.[.[.[.-X-X-X;X;X-X-X-X-X-X-X-X-X[.].].].`.`._.B.M.m.m.v.( ( ( ( ( ( ( ( ( >.>.>.>.>.>.>.2.2.D.D.D.D.D.F.F.F.F.F.F.F.F.F.F.F.F.F.F.G.G.G.G.G.G.G.B.c.c.a.p.p.p.( ^ ^ ^ ^ ~ ~ ~ ! ( ( ( ( ( >.>.>.>.>.>.>.>.>.>.>.>.>.>.>.>.( ( ( ( ( ~ E E P Z Z Z K K K K K K K K P P P P E ~ ( ( >.v.v.M.M.G.F.F.F.F.F.XXXXXXXXXXXXXXXXXXXXXXoXoXoXoXOXOXoXoXoXoXoXoXoXoX#XoX#X@X@XoXoXoXoX.X.XR.R.R.R.oX@X#X$X%X%X%X%X%X%X%X%X",
"L L L L L L L L R R R R R R R R R R R R R R R R R R R R R R R R R R R R ! ! ^ y.a.a.s.b.b.N.B.B.G.G.`.`.`.*X*X:X,X#X,X#X#X&X&XuXuXuXuXuXuXuXuXuXuXuXuXuXuXuXuXuXuXuXuXuXsXsX,X,X,X,X,X<X,X<X<X2X1X1X1X2X2X2X2X9X9X9X9X9X9X9X0X0X0X0X0X0XmXmXmXmXmXmXmXmXmXmXmXmXbXbXbXbXbXbXbX<X*XE.D.U.2.%.:.:.%.$.@.| F F b %.T.Q.T.;...S c < % ; S X.X.S 8.0.+X+X1.X.S c < 0 S S 9 v w 6 ; 3 8 9 n S S v 0 0 c 8 6 % % 8 8 j < < : < j Z Q &.Q T K K K K K K C C k k k g g k V C C K P E E ~ ( ( s.m.M.B.B.B.Z._.'.'.].[.[.[.[.[.[.-X-X-X-X-X-X-X-X-X-X-X[.].].'.`.`.G.Z.B.M.m.c.>.( ( ( ( ( ( ( ( ( ( >.>.>.>.>.2.2.2.D.D.D.D.D.D.F.F.F.F.F.F.F.F.F.F.F.F.F.G.F.G.G.G.G.G.B.m.c.a.p.p.p.^ ^ ^ U ~ U ~ E Q ~ ~ Q ~ ~ ( ( >.>.>.>.>.>.>.>.>.>.>.>.>.( ( ( ( ~ Q E E P P K Z Z Z Z K K Z K K K P J P P I E ~ ( ( >.>.v.M.D.D.D.F.F.F.F.`.Y.Y.Y.Y.Y.E.XXXXXXoXoXoXOXOXoXoXoXoX#X#X#XoXoX#XoX@XoXoXoXoXoXoX.X.X.X.X.X.XoX@X#X%X%X%X%X%X%X%X$X%X",
"L L L L L J L L L L L L L L L L R L R R R R R R R R R L L L L L L L R ! ! ! ^ ^ p.a.s.c.b.N.B.B.G.G.`.`.`.OX*X:X,X#X#X#X#X&X&X&XuXuXuXuXuXuXuXuXuXuXuXuXuXuXuXuXuXuXuXuXsXsX,X,X,X,X,X<X<X<X<X2X2X1X1X1X2X2X2X9X9X9X9X9X9X9X9X9X0X0X0X0X0X0X0X0XmXmXmXmXmXmXmXmXbXbXMXbX<XdXE.>.D.:XR.2.@.b F %.<.;.:.2.:.D D X.| j 8 S | *.| S X.| b 6 6 =.X.S T.F X.*.*.=.} b c S w v b n S <.-.w 0 S [ m w 0 c v b v c 0 0 8 6 : % - < j Z D $.%.T E P Z T T T K C C g g g V C C Z K P I ~ ~ ( ( p.c.m.M.B.B.B.Z._.`.].].].[.[.[.[.[.[.[.-X-X-X[.[.[.[.].].].`.`.G.G.G.B.M.m.c.v.>.( ( ( ( ( ( ( ( ( ( >.>.>.>.>.v.D.D.D.D.D.D.D.F.F.F.F.F.F.G.G.G.G.F.G.G.D.G.G.F.G.G.G.G.B.m.c.v.p.p.( ^ ^ ~ U I I I I E E Q Q Q Q Q Q ~ ~ ( ( ( ( ( ( >.>.>.>.>.( ~ ~ Q Q E E P P Z Z K K K K D D Z K K K K K J P I E ! ( >.>.>.>.v.M.D.D.D.F.F.F.F.F.F.F.Y.Y.XXXXXXXXoXoXoXoXoXoXoXoXoXoX#X#XoXoX#XoX@X@XoXoXoXoXoXoXoXoXoXoXoX@X#X$X%X%X%X%X%X%X%X%X&X",
"J J H H M M H L L L L L L L L L L L L L L L L L L L L J L J J J L L L R ! ! ^ ^ ^ p.a.s.c.c.B.B.B.G._.`.`.OXOX*X:X,X#X#X#X&X&X&XuXuXuXuXuXuXuXuXuXuXuXuXuXuXuXuXuXuXuXuXsX,X,X,X,X,X,X,X<X<X<X2X2X1X1X2X2X2X2X9X9X9X9X9X9X9X9X9X0X0X0X0X0X0X0X0X0X0XmXmXbXbXmXmXbXbX,XdXdX:XE.#XY.Y %.@.| S | | %.$.$.8.8.$.,.%.$.%.S S 0 c X.| X.c b =.S F c 0 0 c b b b b 6.*.S v 0 0 v n 8 3 ; 6 3 0 w 0 8 c n 0 3 5 5 5 5 5 < : $ % - : < 0 b D T Q Q T T T T K K Z C C C C C C H K P I ~ ~ ( ( ( p.c.m.N.B.B.Z.G._.`.].].].].[.[.[.[.].].].].].].].].'.].`.G.G.B.B.M.M.m.c.v.( ( ( >.( ( ( ( ( ( ( >.>.>.>.>.v.v.D.D.D.D.D.D.D.F.F.F.F.F.F.G.G.G.G.F.G.G.G.G.G.G.G.G.G.M.B.c.c.v.p.p.( ^ ^ ~ U I I I I P P P E E E E E E E Q ~ ( ( ( ~ ( ( ( ( ( ~ Q Q E Q P P P K C Z K H Z Z Z Z Z Z K K K J J P I E ~ ( ( >.>.>.>.v.D.D.D.G.F.G.F.F.F.F.Y.Y.Y.XXXXoXoXoXoXoXoXoXoXoXoXoX#X#X#XoXoXoX@XoXoX@XoXoXoXoX@X@X@X@X@X#X%X%X&X&X&X&X&X&XuX&XuX",
"H H H H M M H H H H H H L L L L L L L L L L L L L H H H H H H H H H J L U ! ! ^ ^ y.a.s.c.c.m.B.B.G._.`.`.OXOXOX#X:X#X#X#X&X&X&XuXuXuXuXuXuXuXuXuXuXuXuXuXuXuXuXuXuXuXuXsX,X,X,X,X,X,X,X<X<X<X2X1X1X1X2X2X2X2X9X9X9X9X9X9X9X0X0X0X0X0X0X0X0X0X0X0XmXmXmXbXbXbXbXdX,X:X:XE.A.%.2.R.E.R.R.R.R.6.;.....| S S | 8 S ..$.S %.| b = $ c D b 8 F j b %.F =.,.%.| S b b 0 5 % 8 b } S S v 8 [ 0 5 0 7 ; 3 0 3 7 c n 6 8 8 8 6 : : - - : < j k W %.W W W D T Z Z Z C C C K C H K P I U ~ ( ( ( ( c.m.m.B.B.B.Z.G._.`.'.'.].].].].].].].'.'.`.`.`.`._.`.Z.B.B.B.B.M.M.M.c.v.v.>.>.>.>.( ( ( ( >.>.>.>.>.>.>.v.D.D.D.D.D.D.D.D.F.F.F.F.F.F.F.F.F.G.F.G.G.G.G.G.G.G.G.G.G.m.c.c.v.p.p.( ^ ^ ~ U I I I P K K D K P P P P P P E Q Q Q Q Q Q Q Q Q Q Q E P K Z Z Z K Z Z Z C H Z Z Z Z Z Z K K K K P P I E ~ ( ( >.>.>.>.v.D.D.D.D.G.G.F.F.F.F.F.Y.Y.XXXXXXoXoXoXoXoXoXoXoX#XoX#X#X#X#X#X#X#X#X#X#X#X#X#X#X#X#X#X#X#X%X&X&X&X&X&XuXuXuXsXuXsX",
"H H M M M M M M H M M M H M H H H H H H H H H H H H H H H H H H H H J J L U ! ! ! ^ y.a.c.c.c.B.B.B.G.`.`.`.OXOXOX#X#X#X#X&X&X&XuXuXuXuXuXuXuXuXuXuXuXuXuXuXuXuXuXuXuXuXsXsX,X,X,X,X,X,X<X<X<X2X1X1X1X2X2X2X2X2X9X9X9X9X9X9X9X9X0X0X0X0X0X0X0X0XmXmXmXmXmXbXgX,X#XE.E.D.A.A.@X2.:.:.D D D D 8 c D | D S j 8 S 8 8 b ; < : S %.| | b S b b ; S j X : : 6 0 b | X.| c 0 9 8 8 5 0 m } c O.-.O.w n m v  .m 0 5 0 w b S | b 8 < : : - : s D F F W W W W D K K Z Z C K C H K P I U ~ ~ ( ( ( p.c.m.m.B.B.B.B.Z._._.`.'.'.`.`.`.'.`._._.G.G.G.G.G.G.G.B.B.B.B.M.m.m.c.v.v.>.>.>.( ( ( ( ( >.>.>.>.>.>.v.v.D.D.D.D.D.D.D.D.F.F.F.F.F.F.F.F.F.F.F.G.G.G.G.G.G.M.M.M.B.m.c.v.v.p.p.( ^ ^ ~ U U I I K K K Z Z D D D D P P K P Q Q E Q Q Q E E Q E D Z Z Z D Z Z Z C Z Z Z C C Z Z Z C C K K K P I I E ! ( ( >.>.>.>.v.A.D.D.D.D.G.F.F.F.F.F.Y.Y.XXXXXXoXoXoXoXoX#X#X#X#X#X#X#X#X#X#X#X#X#X#X#X#X#X#X#X%X%X#X#X%X%X&XsXuX&XuXuXsXsXsXsXsX",
"z z z z z z z z M M M M M M M M M M M M M M M M M M H H Z Z Z M H H H H J I U U ! ^ ^ a.c.c.c.B.B.B.G.`.`.`.OXOXOX#X#X#X#X#X&X&XuXuXuXuXuXuXuXuXuXuXuXuX&X&XuXuXuXuXuXuXuX,X,X,X,X,X,X,X<X<X<X<X1X1X1X1X2X2X2X2X9X9X9X9X9X9X0X0X0X0XbXbXmXmXmXmXbXbXbXbXgXgXsXsXsXsX%X$XR.2.8.R.$XR.%.%.| S S c F D D S b S % : < ; b j b c 8 b S %.b | S F X.F 8 F 8 *.,.| O.b c S 0 8 8 w [ c 0 5  .0 % O 7 c [ S 7 w v m 8 c b 0 b b j 0 0 0 8 < < b D b D W %.>.T P P K K K K K J J P I I ~ ~ ( ( ( ( v.v.c.m.M.B.B.B.G.G.G.G.`.G.G.G.Z.G.G.B.B.B.B.B.B.Z.B.B.B.B.M.M.m.m.c.v.v.>.>.>.>.>.>.>.>.>.>.>.>.>.>.v.v.D.D.D.D.D.D.D.D.F.F.F.F.F.F.F.F.F.F.F.G.G.G.G.M.M.M.B.B.B.m.c.c.v.v.p.( ^ ^ ^ U U I I K K Z Z Z Z Z D D D D D D P K Q K Q K P P P T Z Z Z Z Z Z Z C C C C C C C Z Z Z C C K K P P I E Q ! ( ( >.>.>.v.v.A.D.D.D.D.F.F.F.F.F.F.Y.Y.XXXXOXoXoX#X#XoXoXoX#X#X#X#X#X#X#X#X#X#X#X#X#X#X$X%X%X%X%X%X%X%X&XuXuXuXuXuXuXuXsXuXuXsX",
"z z z z k k z z z z z z z z z z z z z z M M z z z z z z z z z z z z C H H I U U U ^ ^ p.p.c.c.m.B.B.G.`.`.`.OXOXOX#X#X#X#X#X&X&XuXuXuXuXuXuXuXuXuXuXuXuX&X&XuXuXuXuXuXuXuX,X,X,X,X,X,X,X<X<X<X<X1X1X1X1X1X2X2X2X9X9X9X9X9X9X0X0XbXbXbXbXbXbXmXbXmXbXgXgX,XsX#XoXoXT.U.Q.T.;.S D | D ;.2.6.%.| S S j b S b j D c 8 j = : j b F | b b S j X.;.b S 2.S 2.,.| b | S m b 8 | O.c ; 0  .-.[ 5 % 0  .S 0 3 0 7 % $ 8 n S m c 0 8 < c j c 0 $ < 8 8 b F %.%.W P P P P K K K P I I I I I U ~ ^ ( ( ( v.v.c.c.m.m.B.B.B.B.G.G.G.B.V.V.B.B.B.B.B.B.B.B.B.B.B.B.M.M.m.m.m.c.v.v.>.>.>.>.>.>.>.>.>.>.>.>.>.>.v.v.v.v.v.D.D.D.D.D.F.F.F.F.F.F.F.F.F.F.F.G.G.D.M.M.M.M.M.M.m.m.c.c.v.v.p.( ^ ^ ^ U U I I K K Z Z Z Z Z Z Z Z Z Z Z Z Z K K K K K K D Z Z Z Z Z Z Z Z C C C C C C C C C C C C K K J P I E Q ! ( >.>.>.>.>.v.D.D.M.M.D.D.F.F.F.F.F.Y.XXXXOX#XoX#X#X#XoXoX#X#X#X#X#X#X#X#X#X#X#X#X#X#X#X$X%X%X%X%X%X%XuX&XsXsXuXuXuXuXuXuXuXuXsX",
"f f k k f f k k k k k k k k k z z z z z z z z z z k z z z z z z z z z C H J I U U ~ ^ ^ p.v.m.m.B.B.G.`.`.`.OXOXOX#X#X#X#X#X&X&XuXuXuXuX%X%XuXuXuXuXuXuX&X&XuXuXuXuXuXuXuX,X,X,X,X,X,X,X<X<X<X2X<X1X1X1X1X2X2X2X9X9X9X9X9X9X0X0XbXbXbXbXbXbXbXbXbXbXgXgXgXgX@XU.:.%.| j j S X.| | | b b c c | $.$.%.b b D %.2.<.| 8 b 8 j 8 j 0 % $ : j < ; j A F O.S F X.;.| S m b b c 8 % 8 m n 3 3 ..*.c % % % 7 8 8 0 0 8 v b 0 c c 8 6 - : ; ; $ - < < j S | | Q Q Q Q Q E I I I I I I I I I ~ ~ ^ ! >.>.>.v.v.v.c.m.m.B.B.B.B.B.B.B.B.B.B.B.N.N.N.B.B.B.B.B.B.m.m.m.m.m.c.v.v.v.v.v.v.v.v.v.>.>.>.>.>.>.v.v.>.D.D.D.D.D.D.D.F.F.F.F.F.`.`.`.`.`.`.G.G.G.G.G.M.B.B.M.M.m.c.c.c.v.v.p.p.^ ^ ^ U U U I P K Z Z Z Z Z Z Z Z Z Z Z Z Z Z Z Z Z Z Z Z Z Z Z Z Z Z Z C C C C k C C C C C C Z C K P P P I E Q ! ( >.>.>.v.>.v.D.D.M.M.D.D.F.F.F.F.F.Y.XXOXoX#X#X#X#X#X#XoX#X#X#X#X#X#X#X#X#X#X%X%X%X%X%X%X%X%X%X%XsX,XsXsXsXsXuXuXsXsXsXsXuXuXsX",
"f f f d d d f f f f f f f f f f k k k k k k k k k g k k g g k k k z z z H H P U U U ^ ^ ( v.c.m.M.B._.`.`.`.OXOXOX#X#X#X#X#X%X%X%XuXuXuX&X&XuXuXuXuXuXuX&X&XuXuXuXuXuXuXuX,X,X,X,X<X<X,X<X<X<X2X1X1X1X1X1X2X2X2X9X9X9X0XbX9X0X9X9XbXbXbXbXbX<X<X<X<XF.F.8.8.8.2.2.2...} S | %.S S S c 0 S ,.%.%.b S D S b j b b S | j < < % $ : % < - $ < 8 ; < < j b S S b S 8 8 b 0 0 8 % % 3 [ 4.} c 5 3 0 ; % % 8 0 0 w 0 w 5 $ % % O o o % ; ; - - ; < c c b D %.Q Q Q Q Q E E E I I I E I I E ~ ! ^ ( >.>.( p.v.v.v.c.c.m.m.N.N.N.N.m.N.m.B.B.N.N.N.N.B.B.B.B.M.m.m.m.m.c.v.v.v.v.v.v.v.v.v.v.v.>.>.>.>.v.v.v.v.v.D.D.D.D.D.F.F.F.F.F.E.F.`.`.`.`.`.G.G.G.G.M.B.B.M.M.m.c.c.c.p.p.p.p.p.^ ^ U U U I P J H Z Z C Z C C C C C C C Z Z Z Z Z Z Z Z Z Z Z Z Z Z Z C C C C g k C C C C C Z C C P P P I E ~ ! ( >.>.>.>.>.v.M.M.D.D.D.D.F.F.F.F.Y.XXOXOXoXoXoX#X#XoX#XoX#X#X#X#X#X#X#X#X#X#X%X%X%X%X%X%X&X&X%X%XsXsXuXuXsXsXuXuXuXuXuXuXuXuXsX",
"f f f f d d d d d d d d f d f f k k l l k k k k f f f f f f g g l l z Z H H J E ~ ~ ~ ^ ( v.c.m.M.B._.`.`.`.OXOXOXOX#X#X#X#X%X%X&X&X&X&X&X&XuXuXuXuXuXuXuXuXuXuXuXuXuXuXuX,X,X,X,X<X<X<X<X<X<X<X<X;X1X1X2X2X2X2X9X9X9X0X0X9X9X9X9XbXVXVXbXVXbXbX,XsXsX@X2.%.%.,.%.S } b 0 5 $ o ; S O.| b j c b b 0 S 8 6 8 8 c 0 < 8 < < < < < < < < < < ; - ; < 6 F X.0.<.;.W.0.W.O.} c c m m } *. .v 6 7 3 % % ; b 5 0 8 0 ; 6 $ % m F 8 < ; % ; % 6 8 6 < 6 6 8 W %.%.Q P Q ( E I E E ( H E ~ ~ ! ! ^ ! ! ( ( ( ( >.v.v.c.c.c.m.m.m.m.m.m.m.m.m.N.N.N.B.B.B.B.B.m.m.m.m.m.m.c.m.v.v.v.m.M.M.M.m.M.M.v.v.v.v.v.v.v.v.D.D.D.D.D.F.F.F.E.F.E.`.`.`.`.`.`.`.G.G.G.G.B.M.B.B.m.c.s.s.s.p.p.p.p.p.^ ^ U U I P J K Z Z k k k k k k C C Z Z Z Z Z Z Z Z Z Z Z Z Z Z Z Z Z C k k g k g k C Z C C C K P P I I E ~ ~ ( ( >.>.>.>.v.M.D.D.D.D.D.F.F.F.F.Y.XXXXOXoXoXoXoX#X#X#X#X#X#X#X#X#X#X#X#X#X#X%X%X%X%X%X%X&X&X&X,XsXsXsXsXsXsXsXsXsXsXuXuXsXsXsX",
"i i i i i i i i d d i d d d d d j j h h i d d d d d d d d d d d k k z Z H H K E ~ ~ ~ ^ ( v.c.m.m.B._.`.`.`.OXOXOXOX#X#X#X#X%X%X&X&X%X%X&X&XuXuXuXuXuXuXuXuXuXuXuXuXuXuXuX,X,X,X,X<X<X<X<X<X<X<X<X;X1X1X2X2X2X2X2X9X0X9X<X<X9XbXbXbXbXVXgXsX,XgXsXT.$X<.X.=.=.| S v v v v 0 v 5 ; 8 6 8 c 0 8 8 6 < b S S c < 8 j b j b F $.F A 8 ; : < 8 8 < : - % 0 c b 0 S S 0 5 | ..O.m [ [ n 7 $ % % 5 ; % % 6 | } S 8 c 8 0 6 ..S 9 % 5 < ; % - 6 0 b 6 ; < < 8 D %.>.Q ( >.~ ~ ( ~ E ~ >.! K ! ! ( ( ( ( ( ( ( ( v.v.v.v.c.c.c.c.m.m.m.m.m.m.m.m.N.N.B.B.m.M.m.m.m.m.m.m.m.m.m.m.M.M.M.M.M.M.M.D.M.M.D.D.D.D.v.v.D.D.D.D.F.F.F.E.E.E.E.`.F.G.`.`.`.`.G.G.G.M.B.B.B.B.m.c.c.a.c.p.p.a.p.p.^ ^ U U I P J H Z Z k k k k k k k k Z Z Z Z Z Z k k j k k k k k k s g g g g d g g g g C C C C K P P I I E E Q ~ ( >.>.>.>.v.v.v.D.D.D.D.F.F.F.Y.E.XXXXXXoXOXoXoX@X@X#X#X#X#X#X#X#X#X#X#X#X#X%X%X%X%X&X&X,X,XsXsXsXsXsXsXsXsXsXsXsXsXsXsXsXsXsX",
"i i y y y y i i i i i i i i i i i i i i i i i i i i d d d d d d f k z Z H H K E ~ ~ ~ ^ ( v.c.m.m.B.`.`.`.`.OXOXOXOX#X#X#X#X%X%X&X&X%X%X&X&XuXuXuXuXuXuXuXuXuXuXuXuXuXuXuX,X,X,X,X<X<X<X<X<X<X<X<X;X;X1X2X2X2X2X2X9X9XbXbXbXbXbXbXSXVXgXsX&XsXsX%XT.;.S S | X.<.,.} S b 0 8 < ; 6 8 b v 0 0 8 ; O $ : 8 8 6 j 8 j S D D S b j h 8 < < < - % j 8 < < < 8 0 S 0 8 0 c 8 8 8 ; 8 0 5 O O % 3 3 ; % 5 w 0 S b v % 8 0 S 0 6 ; ; % % ; ; $ O % 6 8 < ; ; - 8 D %.%.>.>.>.v.E >.~ G.E >.~ ! ! ( ( ( ( ( ( ( ( ( v.v.a.c.c.c.c.m.m.m.m.m.m.c.c.N.N.N.N.m.m.m.m.M.M.M.M.M.M.M.M.M.D.D.D.D.D.D.D.D.D.D.D.D.D.D.D.D.D.D.D.F.F.E.XXXXXXXX`.`.`.`.`.`.`.G.G.G.G.G.B.B.B.B.c.s.a.s.s.a.a.a.p.( ^ ^ U U I J H H z k k k k k k j k k k k k k k j j j j j j j j s s s s s s s s g g g g V C C K P P I I E E Q ~ ( ( >.>.>.>.>.D.D.D.D.D.F.F.F.Y.E.XXOXOXOXOXoXoX@X@X#X#X#X#X#X#X#X#X#X#X#X#X%X&X,X,X,X,XsXsXsXsXsXsXsXsXsXsXsXsXsXsXsXsXsXsXsX",
"y y y y y y y y y y y u y y u u y y i i i i i i i i i i i i i d d f k z Z H K I E U ~ ( ( v.c.m.m.M.G.`.`.`.OXOXOXOX#X#X#X#X#X%X%X&X&X&X&X&XuXuXuXuXuXuXuXuXuXuXuXuXuXuXuX,X,X,X,X,X,X,X<X<X<X<X<X;X1X1X2X2X2X2X9X9X9X9X9XbXbXbXbXgXgXgXVXsXR.2.8.;.b b b c ; 9 b S 9 w v v v b b v S S v S | F S b S S D $.T.<.,.8.$.@.D x b b j j j j b b j j b S b c = c } 8 m S 0 5 % 8 % % 3 w 5 5 5 5 ; % 8 n 8 8 O ; < 8 % 6 5 8 9 8 ; % $ % 0 % O ; < 6 ; % : : 1 j W 2.D.>.>.( E F.m.M.~ v.^ ( ( ( ( ( ( ( ( ( ( p.p.p.a.c.c.c.c.c.c.c.m.m.c.c.N.N.N.N.B.B.M.M.M.m.M.M.M.M.G.G.G.G.G.G.G.G.G.G.D.F.F.D.D.D.F.D.D.D.D.D.F.E.E.XXXXXX`.`.`.`.`.`.`.G.G.G.G.G.B.B.B.B.B.m.c.s.s.s.a.a.a.p.y.^ ^ U U I J H H z z k k g d d d s d d j j j j j j s s s s s s s s s s s s s s s s g C k C C K P I I I I E E Q ~ ( >.>.>.>.>.v.D.D.D.D.F.F.Y.E.XXXXXXXXXXoXoXoX#X#X#X#X#X#X#X#X#X#X#X#X#X%X%X&X,X,X,X,X,X,XsXsXsXsXsXsXsXsXsXsXsXsXsXsXsXsXsX",
"y y y y y y u u u u u u u u u u y y y y u y u u u y i i i i i i d d k z Z H J I E ~ ~ / ( ( c.m.m.B.G.`.`.OXOXOXOXOX#X#X#X#X#X$X%X%X%X%X&X&XuXuXuXuX&X&X&X&XuXuXuXuXuXuXuX&X,X,X,X,X,X,X<X<X<X<X1X1X1X1X1X1X2X2X9X9X9X9XzXgXgXbXgX,XgX8.1.$XfXT.8.+X8.| b c b c F c F X.%.X.*.*.X.X.S S S X.,.*.| S *.*.| b F | b 8 b D F @.Y D x j u 1 1 1 S D j 8 m D h m | h c 5 % O $ % % $ % 5 % 8 } =. .S 0 8 5 $ ; b ; $ ; c $ 8 c 0 0 n n 0 ; 5 % % O < 6 $ ; < : # D %.>.>.>.D.>.OXv.v.~ ( ( ( ( ( ( ( ( ( ( ( p.p.p.p.a.c.c.c.c.c.c.m.m.m.c.N.N.N.B.B.B.B.B.B.B.B.B.G.G.G.G.F.G.G.G.G.G.G.G.G.F.F.F.F.F.F.F.F.D.D.D.F.E.E.XXXXXXXXXX`.`.`.`.`.`.`.G.G.G.G.B.B.B.B.B.N.c.s.s.s.a.a.p.p./ ^ ^ U U J J J H z z l k f d d d s d d s s s s < < u u s s s s s s s s s s s s s k k C C C C Z K I P P I I E E ~ ! ( >.>.>.>.v.v.D.D.F.F.F.E.E.XXXXXXXXoXoXoX#X#X#X#X#X#X#X#X#X#X#X#X#X#X%X&X,X,X,XsX,XsXsXsXsXsXsXsXsXsXsXsXsXsXsXsXsXuXuXsX",
"u y y y y y u u u u u u u u u u u u u u u u u u u u i i i i i i d d k z z H J P I U ~ / ( ( c.m.m.B._.`.`.OXOXOXOXOX#X#X#X#X#X$X%X%X%X%X&X&XuXuX&X&X&X&X&X&XuXuXuXuXuXuXuX&X,X,X,X,X,X,X<X<X<X<X1X1X1X1X1X1X1X1X1X9XbX2X<XdXsXbXgX&X2.U.2.$.j 8 j b S X.X.X.S S X.1.%.F c 8 8 8 6 < j S S b b b b b 8 c j < b j j m 1 h x Y Y Y Y Y D $.Y x 1 = = h = c c c % O $ o % 8 8 5 % 8 0 8 8 8 5 5 ; 8 0 v 0 ; % 6 8 5 6 8 [ [ v ; 8 8 8 ; % ; % $ ; < < $ 5 0 8 % < Z W >.>.XX<Xv.v.( M.~ ( ( ( ( ( ( ( ( p.p.p.p.a.a.c.c.c.c.m.c.m.m.m.N.N.B.B.B.Z.Z.Z.Z.Z.Z.Z.Z.G.`.`.`.`.`.G.G.G.G.F.F.F.F.F.F.F.F.F.F.F.F.D.D.F.F.XXXXXXXXXXXXXX`.`.`.`.`.`.`.G.G.G.G.B.B.B.B.B.N.c.s.s.s.a.a.p.p./ ^ ^ U U I J J H z z k f d i i d i s s u u u < < < , , < < < u u u s s s s s s s k k C C C C Z K I P P P P I E Q ~ ! >.>.>.>.v.v.D.D.F.F.F.E.E.XXXXE.E.oXoXoX#X#X#X#X#X#X#X#X#X#X#X#X#X&X&X,X,XsXsX,X,XsXsXsXsXsXsXsXsXsXsXsXsXuXuXsXsXuXuXsX",
"u y y y y y u u u u u u u u u u u u u u u u u u u u y y i i i i i d k z z H J I I U ~ / ( p.c.m.m.B._.`.`.OXOXOXOXOX#X#X#X#X#X$X%X%X%X%X%X%X&X&X$X$X&X&X&X&XuXuXuXuXuXuXuX&X,X,X,X,X,X,X<X,X<X<X1X1X1X1X1X1X;X1X2X2X2XbXbXgXgXgXgXgX@XR.8.2.| b F =.b F b 8 | %.X.S c 8 < ; 8 8 6 : % < : $ < 8 0 b D D b j 8 1 h x D x x l x Y Q @.Y l j x l D @.m b 5 5 8 5 0 8 c m m 8 % % 8 0 8 0 0 w c 6 8 8 8 5 ; 5 8 % 8 b S c c 8 ; ; ; 8 c 8 0 8 5 % % % % 8 m b : < 1 Z %.D.OXXXG.( m.m.c.c.s.p.p.p.p.p.p.p.a.c.c.c.c.m.m.B.B.B.B.B.B.B.B.B.B.Z.Z._._._._._._._._.`.`.`.`.`.`.`.`.G.G.`.`.`.`.`.`.F.F.F.F.F.F.F.F.F.F.XXXXXXXXXXXXXX`.`.`.`.`.G.`.G.G.G.G.B.B.B.B.B.B.N.c.s.s.a.a.p.p.^ ^ ^ U U I J J H M z k f d i i d s u u u u < , < < < , , , < < , s s s s s d d s k Z C C C C Z K P P P P K I E E ~ ~ ( >.>.>.>.v.D.D.F.F.F.E.E.XXXXE.E.oXoXoXoX#X#X#X#X#X#X#X#X#X#X%X%X,X,X,X,XsXsXsXsXsXsXsXsXsXsXsXsXsXsXsXsXuXuXsXsXuXuXsX",
"u u y y y y u u u u u u u u y y u u u u u u u u u u y y i i i i i d k z C H J P I U ~ ( ( p.c.m.m.B._.`.`.OXOXOXOX#X#X#X#X#X#X$X%X%X%X%X%X%X&X&X$X$XuX&X&X&XuXuXuXuXuXuXsX,X,X,X,X,X,X,X,X,X<X<X;X1X1X1X1X1X1X2XbXbX2X2XgXVX&XgXgXsX8.,.X.*.0 c b 0 8 ; X o F D 8 b % - < 6 6 6 < : 8 : % : ; ; ; : % 8 j h j m x l Y Y Y Y Y M M M Y #.&.Y x x x x h 8 b h % 8 ; c m 8 5 5 c 0 c S b c 0 8 8 8 0 0 0 8 ; % 8 b S c m S v 8 v 8 8 0 6 8 5 ; 6 8 b | 0 | S ; 8 < < D D.D.v.D.v.v.c.B.c.c.c.v.p.p.p.p.a.c.c.c.c.m.m.B.B.B.B.B.B.B.B.B.Z.Z.Z.Z._._._._._._._._.`.`.`.`.`.`.`.`.`.`.`.`.`.`.`.`.`.`.XXF.F.F.F.F.E.XXXXXXXXXXXXXXXX`.`.`.G.`.`.`.G.G.G.G.Z.B.B.B.B.B.N.c.s.s.a.a.p.p.^ ^ ^ U U L L L H M z k f d d d d u u , , , , , < < < , , , < < < , u s s s d d s k C C C Z C K K K K K P K K E Q Q ~ ( >.>.>.>.>.v.D.F.F.F.XXXXXXoXE.E.XXoXoXoX#X#X#X#X#X#X#X#X#X#X%X%X,X,X,X,XsXsXsXsXsXsXsXsXsXsXsXsXsXsXsXsXsXsXsXsXuXuXsX",
"u u y u y y u u u u u u u u y y u y u u u u u u u u y y i i i i i l l z H H J I ~ ~ ^ ( ( s.c.m.m.B._.`.`.OXOXOXOX#X#X#X#X#X#X$X%X%X%X%X%X%XuXuXuXuXuXuX%X%XuXuXuXuXuXuX&X,X,X,X,X,X,X,X,X,X,X;X;X;X1X-X2X;X-XmX2X,XgXSXsXVXkX$X.X8.8.=.<.,.8.0.Q.8.W.W.T.0.X.} S S S b c 0 < < ; ; ; - - - : < 8 8 8 1 h j x l D Y Y N Y &.l.l.l.j.j.j.l.l.l.#.@.x x h h c b ..*...c | b b c m O.0 % ; 8 c 8 8 0 0 8 ; 0 8 b 8 c 6 6 c 0 5 S c 0 X.b 8 6 ; c c < b 8 n 0 0 8 c b | 1.%.F.OXG.M.B.N.c.M.m.m.c.c.c.c.c.c.c.c.m.m.B.B.B.B.B.B.V.Z.Z.Z.G.Z._._._.'._._._._._.`.`.`.`.`.`.`.`.`.`.`.`.`.`.`.`.`.XXXXXXXXE.E.E.E.XXXXXXXXXXXXXXXX`.`.`.`.G.G.`.`.`.G.G.G.G.B.B.B.B.B.N.c.c.s.p.p.a.p.y.^ U U I J J J H M z z f f d d d d u t , , < , , < < , < < u u u u s s s s s d k k C Z C K K K K K P P P P P E Q ~ ~ ( >.>.>.>.v.D.D.D.F.F.XXXXoXXXXXXXXXoX#X#X#X#X#X#X#X#X#X$X%X%X%X&X&X&XuXsXsXsXsXsXsXsXsXsXsXsXsXsXsXsXsXsXsXsXsXsXuXuXuX",
"u u u u y y u u u u u u u u y y y y y u u u y u u u y i i i i i f k z C H H J I ~ ^ ( ( p.s.c.m.m.B.G.`.`.OXOXOXOXOX#X#X#X#X#X$X%X%X$X%X%X%XuXuXuXuXuXuX%XuXuXuXuXuXuXuX&X,X,X,X,X,X,X,X,X,X-X;X;X;X1XmX-XbXgXOXgXgXfXVXHXGXCXkXfX+XT.<.,.*.X.S | X.< % - 8 } O.| < 5 0 m S 0 6 ; ; ; - - : < 1 h h h j l x x Y Y #.&.#.&.h.A.S.S.S.z.j.j.j.N N N x @.m m | m D S b 8 m | %.| S b % ; 6 9 c 8 8 0 0 % | 5 8 m 0 b 8 b S } S c 8 % 0 S b 8 8 8 8 ; b O 8 5 8 ; 5 8 b F F D.F.M.B.N.N.m.M.m.m.m.m.m.m.m.m.m.m.M.B.B.B.B.G.Z.Z.Z.Z._._._._.'.'.'.'.'.'.`.`.`.`.`.`.`.`.`.`.`.`.OX`.`.`.XX`.`.XXXXXXXXXXXXXXXXXXXXXXXXXXXXXXXXXX`.`.`.`.`.`.`.`.`.`.G.G.G.Z.B.B.B.B.B.c.c.s.p.p.a.p.y.^ U U I J J J H M z z z f d d d d d s u t , , , , , , u u u u u u u s s s d k C C Z K K K P K P P I I I I E ~ ~ ~ ( ( >.>.>.>.v.D.D.F.F.E.XXXXXXXXXXXXXXXX#X#X#X#X#X#X#X#X#X$X%X%X%X&X%X&XuXuXsXsXsXsXsXsXsXsXsXsXsXsXsXsXsXsXsXsXsXsXuXuXuX",
"u u u u u u u u y y u u u y i i i y y y y i i i y y i i i i i i l z z H H J J I ~ ^ ( ( p.s.c.m.M.G.`.`.`.OXOXOXOXOX#X#X#X#X$X$X$X$X$X$X%X%X$X$XuXuXuXuX%XuXuXuXuXuXuXuX&X,X,X,X,X,X,X,X,X-X;X-X-X;X-X-X<X<XgXbXgXsXsX2.T.$X$XX.b *.*.b S F =.S S b 8 c 0 5 6 c S b c 0 8 8 c 8 ; $ : : < < 1 u h j x z M Y Y R &.h.h.h.! h.n.n.n.S.S.S.j.j.#.#.#.#.N x x D b m | *.%.S c 8 = 0 0 c 8 0 0 0 8 8 0 0 % %.0 8 c O.; b c c b | m m 8 c b S S b 8 6 ; b % 8 ; ; 3 3 ; 8 j D 2.D.m.B.Z.B.m.M.M.m.M.M.B.B.B.B.B.B.B.B.B.G.G.G._._.Z._.'.'.'.'.'.].].].].].].].].].].].].].`.`.`.OXOXOX`.XXXXXX`.XXXXXXXXXXXXXXXXXXXXXXXXXXXXXXXXXX`.`.`.`.F.`.`.`.G.G.G.G.G.G.B.B.B.V.B.N.c.c.p.p.p.p.^ ^ U U I J J L H M M z z z f d d d d d s u u , , , , , u u u u < u u s s s g C C C Z K K K P P I I I I I I E ~ ~ ! ( >.>.>.>.v.D.D.D.F.F.XXXXXXXXXXXXXXXXXXoX#X#X#X#X#X#X#X#X$X%X%X&X&X&X&XsXsXsXsXsXsXsXsXsXsXsXsXsXsXsXsXsXsXuXsXsXsXuXuXuX",
"u u u u u u u u y y u u u u i i i i i i i u y y y i i i i i i f k z z H H J P U ^ / / p.a.c.c.m.B.G.`.`.`.OXOXOXOXOX#X#X#X#X$X$X$X$X%X%X%X%X$X$XuXuXuXuX%XuXuXuXuXuXuXuXuX&X,X,X,X,X,X,X,X<X,X;X-X<X2X2XgXgXsXgX%XU.T.CXW.X.+X+X,.=.} =.7.X.b S *.| *.S c 0 6 0 8 8 8 < < < $ % : < < < 1 1 y i f l M H Y R #.h.A.S.~.S.S.K.L.~.L.~.K.K.k.h.h.&.#.#.N x l D m j j S b : j j j j $ % c c c 9 8 8 0 0 8 b } 8 b O.6 m c c b X.0 m c S c b X.X.0 < ; b w n 3 % 5 5 ; 6 8 D D.F.M.M.Z.Z.m.m.M.M.B.B.B.B.B.B.G.G.G.G.Z.G.`.`.`.Z.Z._.'.'.'.].].[.[.[.[.[.].].].].].[.[.[.*X*X*X].`.OXOXOXOXOXXXXXXXXXXXXXXXXXXXXXXXXXXXXXXXXXXXXX`.`.`.`.F.F.F.F.G.G.G.G.G.G.B.B.B.B.B.N.c.c.p.p.a.y.^ ^ U U I J J L H M M M H z z k d d d d d u u , , , , , , , 1 , u u s s s d g C C Z Z K K K K P I I E E E E ~ ! ! ( ( >.>.v.A.D.D.D.D.F.F.E.XXXXXXXXXXXXoXoXoX#X#X#X#X#X#X#X#X%X%X%X&X&X&XsXsXsXsXsXsXsXsXsXuXuXsXsXsXsXsXuXsXsXuXuXuXsXuXuXuX",
"u u u u u u u u y y u u u u i i i i i i u u y y i i i i i i d f z z z H H J I U ^ ^ ( p.a.c.c.N.B.G.`.`.`.OXOXOXOXOX#X#X#X#X#X$X$X$X%X%X%X%X%X%X$X$XuX%X$X%XuXuXuXuX&X&X&X&X&X,X,X,X,X,X,X<X<X,X-X2X<X-X,X#XsXkX+XkXiXtXiX+X;.=.W.W.+XX.| 4.2.0 0 | c | ,.2.| b b %.h 8 8 1 1 < 1 h l l l l l M L R R j.S.S.S.S.~.=X=X=X=X=X=X=X=X/././.L.L.S.S.h.&.x x x D @.D @.2.j j D 8 $ 8 ; 8 b 8 < 8 8 8 8 8 c S c 8 b 0 5 0 | c S b b 0 c S S S S S S c 8 $ 0 8 3 ; 6 3 8 v 8 b 2.E.F.G.G.B.B.G.B.B.B.Z.G.G.Z.V.G.G.Z.Z._._.'.`.'.'.'.'.].].].].[.[.[.[.[.[.].].[.[.[.[.-X-X*X*X*X*X*X`.OXOXOXOXOXXXOXOXOXOXXXXXOXOXOXOXOXXXXXXXXXXXXXE.F.F.`.`.F.F.G.G.G.G.G.G.B.B.B.B.B.B.c.c.c.p.a.y.y.^ U U I L J L J M M M M Z z k f d d d d d u , , , , , , , , , u s s s d g C C C Z K K K K I I I E ~ ~ ~ ~ ~ ! ( ( ( >.v.v.A.D.D.D.D.F.F.E.XXXXXXXXXXXXoXoXoXoX#X#X#X#X#X#X%X%X%X,X&X,X&XuXsXsXsXsXsXsXsXsXuXuXsXsXsXuXuXuXuXuXuXuXuXuXuXuXuX",
"u u u u u u u u u u u u u y i i i i y y u u u u i i i i d d f g z z z H H J I U ^ ^ / p.a.s.c.N.B.G.`.`.`.OXOXOXOXOX#X#X#X#X#X$X$X$X$X$X%X%XuX%X$X$X%X%X$X%XuXuX%X%X&X&X&X&X&X,X,X,X,X,X,X,X,X,X,X2XgXSXgXGXGXuX+X=.0.O.O.X.4.Q.=.6. .v 8 5 b b b < 8 ; < 0 c ; = 1 D x j h x x j i l z M M R h.j.S.~.^.>X=X=X=X=X>X=X=X=X=X=X=X=XP.P.P.L.K.~.S.h.R &.#.Y Y x x x D b b b j : 8 ; 8 8 6 8 c 6 8 j c c 6 ..0 5 % 8 8 ..8 c b | m b b b D S c 8 0 c % 3 3 6 ; 6 3 3 0 0 c $.1.D.F.G.G.G.G.B.G.Z.Z.G.G.V.V.G.G.Z.Z.`.'.'.'.'.'.'.'.].].].[.[.[.[.[.}.[.[.[.[.[.[.-X-X-X-X-X*X].*X`.OXOXOXOXOXOXOXOXOXOXOXOXOXOXOXOXOXOXOXXXXXXXXXXXF.F.`.`.F.G.G.G.G.G.G.G.B.B.B.B.B.B.c.c.c.p.a.y.y.^ U U I L L L L H M M M M z k f d d d d d u u u , , , 1 , , , s s s d k V C C C C K K K K I I E ~ ~ ~ ~ ~ ! ( ( >.>.v.v.A.D.D.D.D.F.F.F.E.XXXXXXXXXXXXoXoXoXoX#X#X#X#X#X#X%X%X%X,X&X,X&X,XsXsXsXsXsXsXuXuX&X&X&X&XuXuX%X%XuXuXuXuXuXuXuXuXuX",
"i i i i i i i i i i i i i i i i i i i i i i i i d d d d d d f g z z z H J I U U ^ ^ / p.s.c.c.N.B.G.G.`.`.OXOXOXOXOX#X#X#X#X#X$X$X$X$X$X%X%XuXuX$X$X%X%X%X%XuXuX%X%X&X&X&X&X,X,X,X,X,X,X,X,X,X,X2XgXgXVXsX.X%.X.| =.fXfXkXfXW.Q. .4.0.0.6.X.b | 2.<.,.| 0 8 c 8 6 < x l x x M Y Y Q &.&.&.&.j.S.~./.>X7X7X6X6X7X6X6X6X6X6X5X4X4X=X4X=X=X/./.>X=X~.S.R R Y Y Q %.%.$.@.D 8 8 j ; < 8 < 8 0 0 ; 6 c b c 6 X.0 $ b % j 0.c b ..b b c 8 0 S S b 5 6 S v % 6 6 ; 8 ; & 3 8 b | D %.F.`.G.G.G.G.G.Z.B.G.G.Z.Z.Z.Z.Z._.'.'.'.].].].].].[.[.[.[.[.[.-X-X-X-X-X}.-X-X-X-X-X-X-X-X*X].*XOXOXOXOXOXOXOXOXOXOXOXOXOXOXOX#X#XOXOXOXOXOXOXOXXX`.`.`.`.`.`.G.G.G.G.G.G.B.B.B.B.B.B.N.c.c.a.a.a.y.^ ^ U U L L L L H M M M M Z z k f f d d d s u u u u u , , u u s s d g C C C K H C K K K P P I E ~ ~ ~ ~ ~ ~ ( ( >.>.v.v.M.D.D.D.F.F.F.XXXXXXXXXXXXXXXXoXoXoX#X#X#X#X#X#X#X%X%X%X,X,X,X,XsXsXsXsXsXsXsXuXuX&X&X&X&XuXuX%X%XuXuXuXuXuXuXuXuXuX",
"i i i i i i i i i i i i i i i i i i i i i i i i d d d d d d g g z z H J I I U ^ ( ( p.a.s.N.N.B.Z._.`.`.`.OXOXOXOXOX#X#X#X#X#X$X$X$X%X$X%X%XuXuX$X$XuX%XuXuXuXuXuXuXuXuX&X&X#X#X,X,X,X,X,X,X,X,XgXSXSXgX@X$XtXjXfXGXGXkXfXtX7.W.Q.} } ..O.| %.%.| ; 6 0 0 < 8 j j j t f x Y &.&.&.&.S.n.S.S.K.L./.4X6X7X5X4X6X8X7X5X5X7X7X7X8X8X5X5X5X5X4X4X~.~.~.^.S.v.h.&.R >.A.A.x b 8 D D ; 8 8 8 c 0 ; % < c b c S j 8 8 S 8 6 W.8 8 | 0 m | b c 6 v X.m 8 S | ; 6 6 ; 7 % $ % 5 v X.S l >.XXXX`.G.`.G.G.G.G.G.Z.Z.Z.Z._.'.'.'.].].[.[.[.[.[.[.[.[.[.}.-X;X;X;X-X-X;X-X-X-X-X-X-X-X*X*X*X].`.OXOXOXOXOXOXOXOXOXOXOXOXOX#X#XOXOXOXOXOXOXOXXX`.`.`.`.`.F.G.G.G.G.G.G.B.B.B.B.B.B.N.c.c.a.a.a.y.y.^ U U I L L L L H M M M Z z z g f f f d d s s u u u u u s s s s g C C C C Z K K K K K K K I I E ~ ~ ~ ~ ~ ( ( v.v.v.v.M.D.D.D.F.F.F.E.XXXXXXXXXXXXXXoXoXoX#X#X#X#X#X%X%X%X%X%X,X&X&X,X&XsXsXsXsXsXuXuXuXuXuX%X&X%X%X%X%XuXuXuXuXuXuXuXuXuX",
"i i i i i i i i i i i i i i i i i i i i i i i i d d d d d f g g z H H J I U U ^ ( p.p.s.c.N.B.B.Z.Z.Z.`.`.OXOXOXOXOX#XoX@X#X#X$X$X$X$X$X$X$X%X%X$X$X$X$X$X$XuXuX%XuX&X&X&X%X#X#X,X,X,XgX,X,XgXsXoXoX$XU.gXQ.gXCXgXW.+XO.,.%.m *.W.;.%.S b b b b 8 < 0 6 5 8 h t i l l x M l.A.h.&.S.k.n.J.P.=X4X7X7X7X5X5X5X5X5X5X7X8X8X8X8X8X8X8X8X5X5X4X4X4X=X>X=XL.n.A.v.&.A.Y j h D S D j c % D c 8 : 8 8 8 c c c | S 8 8 F S b | c S D S S v S S 0 X.X.S | 0 -.8 n 8 3 8 5 8 % 8 v S ,.j D E.E.XX`.`.G.Z.'._.'.Z.Z._._._.'.'.'.].].[.[.[.[.[.[.[.[.}.-X;X;X;X;X;X;X;X-X-X-X-X-X-X-X*X].].].OXOXOXOXOXOXOXOXOXOXOXOXOXOX#X#XoXOXOXOXOXOXXXXXXXXX`.`.`.F.G.G.G.G.G.G.B.B.B.B.B.N.b.c.c.a.a.p.y.y.y.^ U U L L L L H M M M z z z f f f f f d d d s s u u s s s s d C C C C C K K K K K K K K P I E U U ~ ~ ^ ( ( v.v.v.v.M.M.D.D.D.F.F.E.XXXXXXoXoXoXoXoXoX#X#X#X#X#X#X%X%X%X%X,X,X&X&X&X&XsXsXsXsXsXuXuXuXuXuX&X&X%X%X%X%X&XuXuXuXuXuXsXsXuX",
"u u i i i i i i i i i i i i i i i i i i i i i i i i d d d f g g z H H J I U U ^ ( p.p.s.c.N.N.B.Z.G.Z.G.`.XXOXOXOXOXoXoX@X@X#X$X$X$X$X$X$X$X%X%X$X$X$X$X$X$X%X%X%X%X&X&X%X&X,X,X,X,X,X#X,X,X&XsXgXgXsX2.1.F X.D 8.T.fXtX$XlXsX;.O.2.T.,.| S S b b 0 b 8 8 h D l z Y R R R &.&.j.S.^.P.P.=X4X5X5X7X5X7X7X5X5X5X7X7X8X8X8X7X7X7X7X5X5X5X5X5X5X8X8X8X8XL.L.S.S.A.&.l x j F F %.h S h j j 8 < 8 8 j j b D X.| j 0 b 0 b c 6 6 $.b | *.0 b S =.b 9 *.X.X.} m 0 S 0 ; 0 5 3 6 0 =.| D :.E.XX`.`._._._._._._._.'._.'.'.'.].].].[.[.[.[.[.[.[.[.-X;X;X;X;X;X;X;X;X-X-X-X-X-X-X-X*X].].].*XOXOXOXOXOXOXOXOXOXOXOXOXOXoXoXoXOXOXOXOXOXXXXXXXXX`.`.`.F.G.G.G.`.G.G.B.B.B.B.B.N.b.c.c.a.a.p.p.y.y.^ U U L L L L Y H H M M z z g f k f g f d s i s s s s s s d g C C C C Z Z K K K K C K J P I I U ~ ~ ~ ^ ( ( v.v.v.v.M.M.M.D.D.D.F.E.XXXXXXoXoXoXXXoXoX#X#X#X#X#X#X%X%X%X%X,X&X&X&X&X&XuXuXsXsXuX&X&X&X&X&X&X&X%X%X%X%X%X%XuXuXuXuXuXsXuX",
"i i i i i i i i i i i i i i h h i i d d d d i i i i d d f f g g C H H I U U U ^ ( p.p.s.c.m.N.B.Z.G.G.G.`.`.OXOXOXOX#X#X@X@X#X$X$X$X$X$X$X$X%X%X$X$X$X$X$X$X%X%X%XuX&X&X%X&X,X,X,X,XsXgXgXgXgX&X%X$X.X2.%.%.X.W.sX$X2.;.Q.Q.T.$X$XT.,.%.S 0 b b b b b j h l Y Z H R ! h.l.z.z.~.>X>X6X4X5X5X5X8X8X8X8X8X8X8X8X8X8X8X8X8X7X7X7X5X5X5X5X5X7X5X5X5X5X5X=X=XL.S.A.&.l D D %.F ,.j D b j b j 8 j j c m S F b S : S S 6 b b b 8 c X.X.6.4.S | =.S | X.| X.*.} w X.n 5 0 0 [ 6 6 9 | | D 2.XX`.`._._.'._._._.'._.'.'.'.'.].].[.[.[.[.[.[.[.[.-X;X;X;X;X;X;X;X;X;X;X-X-X-X-X-X-X*X].].].*XOXOXOXOXOXOXOXOXOXOXOXOXOXoXoXoXOXOXOXOXOXOXXXXXXXXXXX`.`.`.`.`.`.G.G.B.B.B.B.B.N.b.c.s.a.a.p.a.p.y.^ ^ ! U L L L Y J H M z z z z z z k g g f d d s s s s s s d C C C C Z Z K K K K K C C J P I I U U ~ ~ ^ ( ( v.v.v.v.M.M.M.D.D.D.D.F.F.Y.XXoXoXoXXXoXoX#X#X#X#X#X#X%X%X%X%X&X&X&X&X&X&XuXuXsX,XuX&X&X&X&X&X&X&XuX%X%X%X%X%XuXuXuXuXuXsXuX",
"u u i i i i i i i i i i i i i i i i i i i i i i d d d d d f g g z H H I U U U ^ ^ p.p.s.c.N.N.B.Z.G.G.G.`.`.OXOXOXOXoXoX#X#X#X$X$X$X$X$X$X$X$X$X$X$X$X$X$X$XuXuXuXuX&X&X&X#X#X#X,X,X,X,XgXgXR.@XfXfXsXkXuXsXT..X;.Q.2.gXuX6.2.b b 8 S D b 8 0 j c j c h j D H z z M M j.~././.6XzX6X7X5X5X5X7X8X8X8X8X8X8X8X8X8X8X8X8X8X7X7X7X7X5X5X7X7X7X7X5X5X5X5X5X>X~.n.A.l.M l %.,.| ;.x x S b b c h c c b D D %.b F < | | j S c S %.8 4.4.=.*.*.X.| *.*.| | } X.| c | } c b w | 6 9 8 b b c @.XX`.`._._._._._.'.'._.'.'.'.].[.[.[.[.[.[.[.[.}.-X;X;X;X;X;X;X;X;X;X;X;X;X-X-X-X-X-X*X[.].].].`.OXOXOXOXOXOXOXOXOXOXOXOXoXOXOXOXoXOXOXOXoXOXXXXXXXXXXX`.`.F.`.G.G.G.B.B.B.B.B.N.b.c.s.a.p.p.a.p.y.y.^ ! R L L L Y J H H M C z z z z z k k f d i s s s s s d g C C C C K K K K K K K J J J P I I U U ~ ~ ^ ( p.( v.v.v.M.D.D.D.D.D.D.D.F.Y.Y.XXoXoXOXoXoX#X#X#X#X#X#X&X&X&X&X&X&X&X&X&X&XsXsXuX&X&X&X&X&X%X%X%X%XuXuXuXuX&XuXuXuXuXuXuXuXuX",
"u u i i i i i i i i i i i i i i i i i i i i i i i i d d d f g g C H J I U U U ^ ( p.a.s.N.N.B.B.Z.Z.`.`.`.OXOXOXOXOXoXoX@X@X#X#X$X$X$X$X$X$X$X$X$X$X$X$X$X$X$X$X$X$X&X&X&X#X#X#X,X,X,XsXsX#X@XuXfXkXS %.fX$XuXfXfX+XfXT.uXuX%.,.| S b b S S b S S S F Y Y Q Y R h.n.y.K.>X6X6X6X6X6X5X5X7X7X8X8X8X8X8X8X8X8X8X8X8X8X8X8X8X7X8X8X7X5X8X8X8X8X7X7X7X7X7X>X~.~.S.h.Y Y @.%.:.%.%.%.x F b x x j b b | j | S c c | S S D D ;.%.| | iX4.S X.| S S 4.;.=.b 8 m O.0 n | c [ v 6 A 3 0 j j h >.`.`.`.'.'.'.'.'.'.'.'.'.].].[.[.}.}.}.}.}.}.}.|.;X;X;X;X;X;X;X;X;X;X;X;X-X-X-X-X-X[.].].].].`.OXOXOXOXOXOXOXOXOXOXOXOXOXOXOXOXOXOXOXOXOXOXOXOXXXXX`.`.`.F.`.G.G.G.B.B.B.B.B.b.c.c.s.a.p.p.p.p.y.y.^ R R R L L L J H H z z z z z z k g g f f d i s s s s d k C C C C K K K K K K K J J J P I I U U ~ ~ ^ p.p.v.v.v.v.M.D.M.D.D.D.D.D.F.F.Y.XXXXOXOXoXoX#X#X#X#X%X%X&X&X,X,X&X&X&X&X&X&XuXsXuX&X&X%X&X&X%X%X%X%X&X&X%X%X%X%XuXuXuXuXuXuXuX",
"u u u u u u i i i i i i u i i i i i i i i i i i i d d d d f g g C H J I U U U ^ p.p.a.s.N.N.N.B.V.Z.`.`.`.`.OXOXOXOXoXoX@X@X#X$X$X$X$X@X$X$X$X$X$X$X$X$X$X$X$X$X$X$X&X&X%X%X#X#X,XsXgXsXgXgXsXfXiX2.kX$XGXGXGXkXlXCXfXuX%.X.$...| 8 b b c j b b b x l D Y R h.n.n.S.L.P.6X6X7X7X5X5X7X8X8X8X8X8X8X8X8X8X8X8X8X8X8X8X8X8X8X8X8XnXnX7X5X5X7X7X5X5X7X7X7X6X~.:XS.Y H &.Y 2.2.D %.$.x D b b b b j b | b 8 c c c S S S | | | $.T.| ;.+X6.%.X.| | %.4.6.| c | | 5 c | 8 S } 5 6 9 0 0 j h Q G.`.`.'.'.'.'.].'.].].].].[.[.}.}.}.|.}.}.}.}.|.;X;X;X;X;X;X;X;X;X;X;X;X-X-X}.-X[.[.].].].].OXOXOXOXOXOXOXOXOXOXOXOXOXOXOXOXOXOXOXOXOXOXOXOXOXXXXX`.`.`.F.F.G.G.G.B.B.B.B.m.c.c.s.s.a.p.p.y.y.y.y.^ U U R L L J J H M M z z z z z z g g f f d i i s s s d k C C C C K K K K K K K J J J P I I U U ~ ~ ^ p.p.v.v.v.v.M.D.D.D.D.D.D.D.F.F.Y.Y.XXOXOXoX#X#X#X#X#X&X%X&X&X,X,X,X&X&X&X%X&X&X&X&X%X%X%X%X%X%X%X%X%X%X&X%X%X%X%X%X%X%X%XuX%X%X",
"u u u u u u i i i i i i u i i i i i i i i i i i i i d d d d g g C H J I U U ! ^ p.p.a.s.N.N.N.B.V.Z.`.`.`.`.OXOXOXoXoXoXoX@X@X$X$X$X$X@X$X$X$X$X$X$X$X$X$X$X$X$X$X$X&X&X&X&X&X#X,X,X,XgX&XR.T.W.<.,.6.fXtXW.iXiXT.fX=.8 S S | c D $.| D m b b b j m l Y ! h.L.L.L.L.4X4X8X7X8X8X8X8X8X8X8X8X8X8X8X8XcXcXcXcXcX8X8X8X8X8X8X7X8XnXnXnX8X8X8X8X7X7X7X7X7X6X=X>XS.H Y A.W :.A.%.:.F D D D D D D b m %.F b b ..;.b D b %.S | 6.;.2.m ;.4.=.X.F | =.O.O.,.n } b 0 c c c w O.S ; % 0 0 j h k v.`.`.'.'.].].].].].].].[.[.}.}.|.|.|.|.|.|.|.|.;X;X;X;X;X;X;X;X;X;X;X;X-X-X-X-X[.[.].].].].OXOXOXOXXXOXOXXXXXOXOXOXOXOXOXXXXXOXOXOXOXOXOXOXOXXXXXOXXXXXXX`.G.G.G.B.B.B.m.m.c.s.s.a.p.y.y.y.y.y.^ U U U R L L J H M M z z z z z z g g f f f d i i s s s d k C C C C K H H H H K K K H J P I I U U ~ ~ ^ p.p.v.v.v.v.M.M.M.D.D.D.D.D.F.F.Y.XXXXoXOXoX#X#X#X#X#X%X%X&X&X&X,X,X,X&X&X%X&X&X&X%X%X%X%X%X%X%X%X%X%X%X%X%X%X%X%X%X%X%X%X&X%X%X",
"u u u u u u u u u u u u u u i i i i i i i i i i i i i i d d g g C H J I U U ^ ^ p.p.a.s.N.N.N.B.V.J.`.G.`.`.XXXXOXOXOXoXoX@X@X@X$X$X$X@X$X$X$X$X$X$X$X$X$X$X$X$X$X$X&X&X%X&X%X#X,X,XgXVXkXuX$XiXgXgXiXiX@XsXkXfX$X| *.2.S @.$.$.D %.| m j 8 c c b D Y ! v.n.L./.=X4X8X8X8X7X8X8X8X8X8X8X8X8X8X8X8X8X8X8XcXcXcX8X8X8X8X8X8X7X5X8XcX8X7X7X8X7X7X7X7X7X7X7X=X>XG.&.h.S.&.:.:.R.%.D D D D D D F F @.2.;.b c %.T.c | j ;.| 0.;.b 2.T...4.<.b b | | O.S | m c 8 O.b % } 6 6 =.w ; 0 0 j j s Q G.`.'.'.].'.{.{.{.[.[.[.[.}.}.}.|.|.|.|.|.|.|.;X;X;X;X;X;X;X;X;X;X;X;X-X-X-X-X-X*X].].*XOXOXOXOXOXOXOXOXOXOXOXOXXXXXOXOXOXOXOXOXOXOXOXOXOXOXXXXXOXXXXXXX`.G.G.G.B.B.B.m.c.c.s.a.a.p.p.y.y.y.y.^ ^ U U U L J H M M M M z z z z z g g g f f d i i s s s d k C C C H K H H H H K K K K J P I I U U ~ ~ ^ ( p.p.v.v.v.M.M.M.D.D.D.D.D.F.F.Y.XXXXoXoXoX@X#X#X#X#X%X%X%X%X&X&X,X,X&X&X&X&X&X&X&X&X%X%X%X%X%X%X%X%X%X%X%X%X%X%X%X%X%X%XuXuXuX",
"u u u u u u u u u u u u u u u u u u u u i i i i i i d d d d f z z H H I U U ^ ^ / p.a.s.N.N.N.B.V.Z.G.G.`.`.`.XXOXOXoXoXoX@X$X$X$X$X$X@X@X@X$X$X$X$X$X$X$X$X$X$X$X$X$X$X%X&X&X&X,X,X&X1.$XT.kXCXCXGXkXgXkXfXGXfXuXtXT.2.<.2.D %.%.$.D D x x Y Y @.Y k.n.~.=X=X5X7X7X8X8X8X8X8X8X8X8X8X8X8X8XcX8X8X7X8X8X8X8XcX8XcX8X8X8X8X7X7X7X8X7X5X7X8X7X7X8X8X8X8X7X>X=X=XS.A.I.:.:.2.U.%.2.D j x D D @.@.| 2.;.| h :.8.%.b D 8.2.6.| b ..6.S S | O.S S } =.<.v S b 0 b b 8 b 8 w [ A 6 % 8 c j b Z D.*X].].'.{.{.{.[.[.[.[.[.[.|.|.|.|.|.|.|.|. X X X;X;X;X;X;X;X;X;X-X;X-X-X-X-X[.[.].].*XOXOXOXOXOXOXOXOXXXXXOXOXXXXXXXXXoXOXOXoXoXXXXXXXOXOXOXOXOXXXXXXX`.`.G.G.B.M.M.m.c.c.p.p.p.p.y.y.y.y.r.^ U U U U L L H M M M M z z z z z z g g f d d s s s d d d g C C C C C H K H K K K K J J P I I U U U ^ ^ ( ( p.v.>.v.A.M.D.D.D.D.D.D.F.F.Y.Y.XXoXoXoX@X#X#X#X#X%X&X%X%X&X&X%X%X&X&X%X%X%X%X%X%X%X%X%X%X%X%X%X%X%X%X%X%X%X%X%X%X%X%X%X%XuX",
"t t t u u u t t t u t t t t u u u u t t u u u u i i d d d d f z z H J I U U ! ^ / p.a.s.N.N.N.B.V.Z.G.J.'.`.`.XXXXOXOXoXoX@X$X$X$X$X@X@X@X@X$X$X$X$X$X$X$X$X$X$X$X$X$X&X%X&X&X&X&X,XsXkXVXGXkXkXsXQ.tXVXuXCX$XfXsX;.6.6.D m :.2.;.@.@.@.Y D Y &.l.I.~.=X5X8X8X8X8X8X8X8X8X8X8X8X8X8X8X8X8X8XcX8X8X8XnXnX8X8X8XcXcX8X8X8X8X8X8X8X8X7X5X7X8X8X8X9X8X8X7X7X>X=X>XE.A.S.l.A.:.:.:.2.D D D D x $.2.D @.%.,.S %.2.2.%.c T.<.6.| 2.;.| ;.b 2.,.O.S w v O.X.0 c c m m c 0 8 6 w 0 ; 6 0 m b S Z >.-X].'.'.{.{.{.[.[.}.[.[.[.|.|.}.}.|.|.|.|. X X X X;X;X;X;X;X;X-X-X-X}.}.[.[.[.].].].*XOXOXOXOXOXOXOXOXXXXXXXOXXXXXXXXXoXoXoXoXoXXXXXXXOXOXOXOXOXXXXXXX`.`.G.G.B.M.M.m.c.c.p.a.p.p.^ ^ y.p.r.^ U U L U L J H H M M M z z z z z z g g f d d d d s i d d d k k C C C C K H K K K K K J P I I U U U ^ ^ ( ( v.>.>.v.A.D.D.D.D.D.D.D.F.F.Y.Y.XXoXoXoXoX#X#X#X#X%X&X&X&X&X&X%X%X%X%X%X%X%X%X%X%X%X%X%X%X%X%X%X%X%X%X%X%X%X%X%X%X%X%X%X%XuX",
"t t t t t u t t t t t t t t t t t t t t u u u u i i i i d d f z z H J P I U ! ^ / p.a.s.N.N.N.B.V.Z.G.G.'.`.XXXXXXXXOXoXoX@X@X@X$X$X@X@X@X@X@X@X$X$X$X$X$X$X$X$X$X$X$X&X%X&X&X&X&X&X@XVXkXgXCXkXCXGXGXCXgXkXCXR.fXgXfXgX%XR.:.%.$.%.%.%.@.Y &.l.I.^.6X7X8XnX8X8X8X8X8X8X8X8X8X8X8X8X8XcX8X8XcXnXnXnXnXnXcX8X8XcXcX8X8X8X8XcXnXnXcX7X7X5X7X8X8X9X7X7X5X5X=X>X>X*XS.S.l.&.:.:.2.:.F $.%.$.D %.2.| %.F R.D %.2.<.T.D 2.6.0...$.6.| ;.| S =.0.,.m S O.S 8 c c 0 S m 8 5 9 w w w ; ; 8 c j k Q *X*X].'.{.{.{.[.[.}.}.[.|.|.|.}.}.|.|.|.|. X X X X;X;X;X;X;X;X-X|.}.}.[.[.[.[.].].].*X`.OXOXOXOXXXOXXXXXXXXXXXXXXXXXXXoXoXoXoXXXXXXXXXOXOXOXOXOXOXOXXX`.`.G.G.B.M.M.m.c.c.p.a.p.p.y.^ ^ y.^ ^ U U L U L J H H M M M z z z z z z g g f g d d d d d d d d g g g V C Z C H H K K K K J I I I U U U ^ ^ ( ( v.>.>.v.A.A.A.v.M.D.D.D.F.F.Y.XXXXoXoXoXoX#X#X#X#X%X&X&X&X,X&X%X%X%X%X%X%X%X%X%X%X%X%X%X%X%X%X%X%X%X%X%X%X%X%X%X%X%X%X%X%XuX",
"t t t t t t t t t t t t t t t t t t t t u u u u i i u u i d f z z H J J I U ! ^ / p.a.s.N.N.N.B.V.Z.Z.G.G.`.XXXXXXOXOXOXoX@X@X@X$X$X+X+X@X@X@X@X@X@X$X$X$X$X$X$X$X$X$X$X&X&X&X&X&X&XgXR.kXCXCXCXGXCXsX6.sXsXtXgXfXsXgX2.U.@.2.%.:.A.@.Y Y M A.S.~.~.6X5X8X8X8X8X8X8X8X8X8X8X8X8X8X8XcXcX8XcXcXnXnXnXnXnXnXnXcX8XcX8X8X8X8X8XNXnX8X7X7X5X7X8X8X7X5X5X5X5X>X>X>X:XE.S.#.Y A.:.:.%.Y %.:.:.%.:.2.%.2.F $X@.;.2.$.Q.;.| *.6.0.m 6.6.S ;...S | 4.*.m O.,.c c 0 5 } } ; ; ; ; 8 9 8 6 9 S 8 j Z F.-X].'.{.{.{.[.[.}.|.|.|.|.|.|.|.|.|.|.|. X X X;X;X;X;X;X;X|.-X}.}.}.[.}.[.].].].].].OXOXOXOXOXXXXXXXXXXXXXXXE.XXXXXXXXXXXXoXXXXXXXXXOXXXOXOXOXXXXX`.`.`.G.G.B.B.m.m.m.c.p.a.p.y.y.^ y.y.r.^ U U L U L L H H M M z z z z g g g g f f g g d d d d d d d d g g g C Z C H K K K K K P I I I U U ~ ^ ( ( p.p.>.>.v.v.M.M.v.D.D.D.D.F.F.Y.XXXXoXoXoXoX#X#X#X#X%X%X%X%X%X%X%X%X%X%X%X%X%X%X%X%X%X%X%X%X%X%X%X%X%X%X%X%X%X%X%X%X%X%X%X%XuX",
"t t t t t t u u t t t t t t t t t t t t t t u u i i u u i i f z z H J P I U U ^ / p.a.s.N.N.N.B.Z.Z.Z.G.G.G.`.XXXXXXOXOXoXoX@X@X@X@X@X@X@X@X@X@X@X@X$X$X$X$X$X$X$X$X#X$X&X&XsX&XsXgXsXgXsXfXGXJXVX%XsXGXGXGXGXLXkXCX%X@XE.E.#XE.l H H Y Y &.S.~.>X7X8X8X8X8X8X8X8X8X8X8X8X8XnXnXnXnXnXnXnXnXnXcXnXnXnXcXnXnXnXcXcXcXcXcX8X8X8XcX8X7X7X7X7X8X8X7X5X5X5X5X5X6X>X:X~.I.h.Y A.A.2.%.@.2.U.%.:.2.2.2.R.F R.x :.%.| uX8.;.| D Q.$.S 4.| ;.b c D m b ;.;.S | 0 m S 8 c S % 8 ; ; 9 v 8 9 b 8 j 1 >.2X-X'.|.}.{.}.}.}.}.[.[.}.}.|.|.|.|.}.}.|. X X X;X;X;X;X;X|.}.}.}.[.}.}.].].[.].].].`.OXOXOXOXXXXXXXXXXXXXXXE.XXXXXXXXXXXXXXXXXXXXXXXXXXXXXXOXXXXX`.`.`.G.G.B.B.B.m.m.c.v.p.y.y.y.^ y.y.r.U U U L I L L H M M M z z z z g g g g f f g g d d d d d d d d d g g C Z Z C C K K P P P I I I U U ~ ^ ( ( ( p.>.>.v.c.v.v.v.D.D.D.D.F.F.Y.E.XXoXOXoX#X#X#X#X#X#X#X%X%X%X%X%X%X%X%X%X%X%X%X%X%X%X%X%X%X%X%X$X$X%X%X%X%X%X%X%X%X%X%X%X%X%X",
"t t t t t t t t t t t t t t t t t t t t t t t t u u i u i i f k z C H J I U U ^ ( p.a.s.N.N.N.B.Z.G.G.G.G.G.`.XXXXXXOXOXoXoXoX@X@X@X@X@X$X@X$X$X$X$X$X$X$X$X$X$X$X$X#X$X&X&X&X&XsXgXfXCXHXUXGXsXCXHXGXGXGXGXHXCXVXsXE.dXE.E.E.H A.&.Y ! h.S.>XzXcXcX8X8X8X8X8X8XcXnXnXnXnXnXnXnXnXnXnXnXnXnXnXcXcXnXnXcXcXnXcXcXcXcXcXcXcXcXcX8X8X8X8X8X7X7X7X8X5X5X5X5X7X>X>X=X~.E.S.&.A.A.I.&.@.:.2.%.:.A.%.R.T.| R.;.:.@.;.2.@.;.$.| | | ;.;.| ;.*.m D ..| | S b X.6.| b | 0 c 0 8 6 8 c 9 6 5 8 8 b 1 Z *X].].|.}.{.}.}.}.}.[.[.}.}.}.}.|.|.}.}.|.|. X X;X;X;X;X|.|.}.}.[.[.}.}.].].].].].`.`.OXXXXXXXXXXXXXXXXXE.E.E.E.XXXXXXXXXXXXXXXXXXXXXXXXXXXXXX`.`.`.`.`.G.G.G.B.B.m.m.c.p.p.p.y.y.^ y.^ ^ U U U U I L L H M M M z z z g f g g f f f g f d d d d f d d g g g C C C Z C C K K K K P I I U U U ~ ^ ( ( ( p.>.>.v.c.A.A.A.D.D.D.D.F.F.Y.E.XXoXOXoX#X#X#X#X#X#X#X#X#X%X%X%X%X%X%X%X%X%X%X%X%X%X%X%X%X%X%X$X$X%X%X%X%X%X%X%X%X%X%X%X%X%X",
"1 1 t t t t t t t t t t t t t t t t t t t t t t u u u i i i f k z C H J I U U ^ ( p.a.s.N.N.N.B.Z.G.G.G.G.`.`.XXXXXXXXoXoXoXoX@X@X@X@X@X$X$X$X$X$X$X$X$X$X$X$X$X$X$X#X%X&X&X&XsXsXgXCXGXkXQ.$XfXGXCXJXHXGXHXGXCXdXsX:XE.A.E.A.G.G.&.! j.S.=X7X7X7X6X8X8X8X8X8X8X8X8X8X8XnXnXnXnXnXnXnXnXnXnXnXnXcXcXnXnXcXcXnXcXnXnXnXnXnXnXnXnXcX8X8X8X7X7X7X8X7X5X5X5X7X6X=X^.~.~.E.l.A.A.E.:.%.2.A.:.%.2.:.@X;.@.U.U.U.$.6.@.@.@.%.%.c @.6.;.$.;.6.*.| j 0 D | S | 2.%.S O.S 8 b ; ; 5 5 v v 0 5 7 c j j >.`.[.|.[.[.[.[.[.[.[.[.}.}.}.}.|.|.}.}.|.|. X X;X;X-X-X|.|.}.}.[.[.}.].].].].].`.`.`.OXXXXXXXXXXXXXXXXXE.E.E.E.XXXXXXXXXXXXXXXXXXXXXXXXXXXXXX`.`.`.`.`.G.G.G.G.B.B.m.c.s.p.p.p.y.^ ^ ^ ^ U U U U I L L H M M M z z z g g g g f f f g f d d d d d d g g g g C C C C C C C K K K P I U U U U ~ ^ ( ( ( v.>.>.v.c.v.A.A.D.D.D.D.F.Y.XXXXXXXXOXoX#X#X#X#X#X#X#X#X#X%X%X%X%X%X%X%X%X%X%X%X%X%X%X%X%X%X%X$X$X%X%X$X$X%X%X%X%X%X%X%X%X%X",
"1 1 1 t t 1 1 1 1 1 1 1 t t 1 1 1 1 1 1 t t t t u t u u i i f k z C H J I U ~ ^ ( p.a.s.N.N.N.B.Z.G.G.G.`.`.`.XXXXXXXXoXoXoX@X@X@X@X@X@X@X@X$X$X$X$X$X$X$X$X$X$X$X$X$X$X&X&XsXgXgXgXkX$XT.fXCXHXGXHXHXCXGXCX$XR.A.:.S.&.G.! R v.! y.h.S.=X7X7X8XcXnX8X8X8X8X8X8X8X8X8X8X8X8X8X8X8X8XcX8X8XcXnXnXnXcXcXnXcXcXnXnXnXnXMXnXMXnXnXnXnXcX8X7X7X5X7X8X8X5X7X5X5X5X~.~.>X^.^.A.S.A.A.:.&.A.I.2.Y :.2.R.@.%.8.2.$X2.2.;.U.b %.<.| ;.*.<.6.<.*.b | $.O.| S | ..c | O.S O.S b 8 c c 9 0 w 8 $ 5 5 j k k M.[.}.[.[.[.[.[.[.[.[.[.[.}.}.}.}.|.|.|.|. X X;X;X-X|.|.|.}.}.[.[.].].].].].].`.`.`.`.XXXXXXXXXXXXXXXXE.E.XXXXXXXXXXXXXXXXXXXXXXXXXXXXXXXXOXXXXX`.`.G.G.G.G.G.B.B.B.c.s.p.a.p.y.^ r.r.U U U U L I L H H M H M z g z g g f f f f d d d d d d k k k g g g g g g C C Z C Z K K K P I I U U U ~ ^ ( ( ( v.>.( v.v.A.A.A.D.D.D.D.F.Y.XXXXoXoXoXoXoX#X#X#X#X#X#X#X#X#X#X%X%X$X$X%X%X%X%X%X%X%X%X%X%X%X%X$X$X%X%X$X$X%X%X%X%X$X$X%X%X%X",
"1 1 1 1 1 1 1 t 1 1 1 1 1 1 1 t 1 1 1 1 t t t t t t t t u i d k z z H J P U U ^ / p.a.a.c.c.N.B.Z.Z.G.G.G.`.`.XXE.XXXXXX.X.XoX@X+X+X@X@X@X@X$X$X$X$X$X$X$X$X$X$X$X$X#X$X&X&XoX#XsXfXsXT.gXGXCXkXkXlXGXCXCXVX2.R.#XA.:X~.n.S.n.S.L.k.L.>X7XcXnXnXcX8X8X8X8X8X8X8X8XnX8X8X8X8X8X8X8X8XcX8X7XcXcXcXnXnXcXnXcXcXnXnXnXMXnXnXMXnXnX8XnXnXcX5X=X7X7XnX5X5X7X7X5X>X~.~.>X>X~.~.S.h.A.A.&.A.I.:X:.&.A.U.U.2.@.:.R.:.%.;.U.,.;.;.%.D ;.%.*.%.2.b j | m | D b 2.T.| $.} O.b m 8 9 9 6 5 b b 6 3 ; S j k ~ G.[.}.}.[.[.}.}.}.}.}.}.}.}.|.|.|.|. X|. X X;X;X;X|.|.|.}.}.[.}.].].].].].].`.`.`.`.`.`.XXXXXXXXXXXXE.E.E.E.XXXXY.Y.XXXXXXXXXXXXXXXXXXXXXXXXXX`.`.`.G.G.G.G.B.B.B.N.c.s.p.a.p.y.r.r.U U U U L L J H H H M M z z z g f f f f f d d d d d d d k k d d g g g g g C Z Z Z Z J K P I I U U U ~ ^ ^ ( p.p.>.( v.v.A.A.A.A.D.D.D.F.Y.XXXXoXoXoXoXoX@X@X@X@X$X$X#X#X#X#X#X#X$X$X%X%X%X%X$X$X$X$X$X$X$X$X$X$X$X$X$X$X%X%X%X%X%X%X%X%X%X",
"1 1 1 1 1 1 1 1 1 1 1 1 1 1 1 1 1 1 1 1 1 1 1 1 1 1 1 t i i d k z z H J P U U ^ ^ p.a.a.c.c.N.N.Z.Z.G.G.G.`.`.`.E.XXXXXX.X.X.X@X+X+X+X@X@X@X@X$X$X$X$X$X$X$X$X$X$X$X#X$X&X&X,XsX&X%X2.%.kXkXVXGXHXgXfXtX6.m :.%X:X:X>X>XK.~.K.K./.L.=X7X7X8X8X8X8X8X8X8X8X8X8X8X8X8XnXnX8X8X8X8X8XcXcX8X8XcXcXcXcXcXcXcXnXcXcXcXnXnXnX8XnXnXnXnXNXnX8X6X4X7X5X5X=X4X5X7X5X=X~.~.>X>X~.~.S.A.S.S.&.A.A.:X:.>.U.T.D.1.2.:.:.%.%.:.2.;.| %.,.;.6.2.,.;.6.T.;.j b | X.*.S $.%.| =.*.| %.S 8 5 9 9 8 8 0 3 3 < b j >.m.-X}.}.[.[.}.}.}.}.}.}.|.|.|.|.|.|.|.|. X|.;X;X X|.|.}.}.}.}.}.}.[.].].].].`.`.`.`.`.`.XXXXXXXXXXXXE.E.Y.Y.E.E.Y.Y.XXXXXXXXXXXXXXXXXXXXXXXX`.`.G.G.G.G.G.G.B.B.B.N.c.s.a.p.p.y.r.r.U U U U I L J H H H H z z z k f f f f f d d d d d d d d k k d d d d g g g C C Z C Z H H J J I I U U ~ ^ ^ ( ( ( ( ( v.v.A.A.M.M.D.D.D.F.F.XXXXXXoXoXoXoXoXoX@X@X$X$X#X#X#X#X#X#X$X$X$X$X$X$X$X$X$X$X$X$X$X$X$X$X$X$X$X$X$X$X$X$X$X$X%X%X%X",
"1 1 1 1 1 1 1 1 1 1 1 1 1 1 1 1 1 1 1 1 1 1 1 1 1 1 1 t i d d k z z H J P U U ^ ^ p.a.s.c.c.N.N.Z.Z.G.G.G.`.`.`.E.XXXXXX.X.X.X@X+X+X+X+X@X@X$X$X$X$X$X$X$X$X$X$X$X$X#X$X%X&XsXsX%X#XU.%X@X2.sXVX%.T.tXT.D U.T.:XbX>X>X7X=X>X~.L.=X=X6X7X7X8X8X8X8X8X8X8X8X8X8X8X8XnXnXnX8X8X8X8X8X8X8XcXcX8X8XcXcXcXcXnXnXcX8XcXnXnXnX8XnXnXnXnXnXnX8X7X7X7X7X5X7X7X5X5X=X>X~.~.>X>X^.~.S.S.S.S.l.v.&.E.>.A.T.R.U.2.2.2.$.:.@.:.:.:.2.2.$.b :.;.2.2.1.2.U.Q.,.%.=.| %.2.6.6.S 0 b S | v 8 9 0 ; ; 0 3 ; O 8 j >.G.-X[.}.[.[.}.}.}.}.}.}.|.|.|.|.|.|.|.|.|.|.;X;X X|.|.}.}.}.}.}.}.}.].].].].`.`.`.`.`.`.XXXXXXXXXXXXE.E.Y.Y.E.E.Y.Y.XXXXXXXXXXXXXXXX`.`.XXXX`.F.G.G.G.G.G.G.V.V.V.N.b.s.s.s.a.y.r.r.U U U U I L J H H H H z z k k g f f f d d d d d d d d d k k d d d d g g g g C C C C Z H J J I I U U ~ ^ ^ ^ ( ( ( ( v.v.A.A.D.D.D.D.F.F.F.F.Y.Y.XXXXoXoXoXoX@X@X$X$X#X#X#X#X#X#X$X$X$X$X$X$X$X$X$X$X$X$X$X$X$X$X$X$X$X$X$X$X$X$X$X$X%X%X%X",
"> > > > > > > > > > > > > > 1 1 1 1 1 1 1 1 1 1 1 1 1 t u i d k z z H J I U U ^ ^ p.a.s.c.c.N.N.Z.Z.G.G.G.`.`.XXXXXXXXXX.X.XoX@X+X+X+X+X$X$X@X@X$X$X$X$X$X$X$X$X$X$X$X$X%X&X,X&X&X&XR.R.1.$X8.D R.@X;.2.T.%.:XbXzX<X<XnXzX7X/.L.4X7X7X5X8XcXcXcX8X8X8X8X8X8X8X8X8XnXnXnX8X8X8X8X8X8X8XcXcX7X7XcXcXcXcXcXnXnXnXnXnXMXnXnXnXnXcX7X8X5X5X4X4X=X5X=X7X5X4X4X=X=X~.~.>X>X^.G.G.~.S.S.A.h.Y E.:.D.D.R.T.U.@.2.%.%.D :.%.;.@.;.;.@.b | 2.T.;.%.8.sXT.T.2.| =.%.b 2.$.c ..;.S | S 8 5 5 5 3 4 - ; - D G OX`.[.}.}.[.}.}.}.}.}.}.|.|.|.|.|.|.|.|.|.|.|.|.|.|.}.}.}.}.}.[.].].].].].].`.`.`.`.`.`.`.XXXXXXXXXXE.E.Y.Y.E.E.XXXXXXXXXXXXXXXXXXXX`.`.`.`.`.F.`.`.G.G.G.G.V.V.V.N.b.s.d.d.a.y.y.r.U U U U I L J H H H M M z k k g f f d d s d d s d d d d d d k d g g g g g g g C C C Z C J J I I U U ~ ^ ^ ^ ^ ( ( ( >.v.v.A.D.D.D.D.F.F.F.F.Y.E.E.XXoXoXoXoX@X@X@X@X@X$X$X$X$X$X$X$X$X$X#X#X#X$X$X$X$X$X$X#X$X$X$X$X$X$X$X$X$X$X$X$X$X$X$X",
"1 1 1 1 1 1 1 1 1 1 1 1 > > > > 1 1 > > 1 1 1 1 1 1 1 t u i d k z z H J I U U ^ ^ p.a.s.c.N.N.B.Z.G.G.G.G.`.`.XXXXXXXXXXoXoXoX@X+X+X+X+X$X$X$X@X$X$X$X$X$X$X$X$X$X$X$X$X%X%X,X,X,X,XU.2.%.R.$.F j R.Y D 1 E.dXMX*X7X=X>X6X6X>X6X5X7XnXnXcXcXnXcX8X8X8X8X8X8X5X5X5X5X5X4XP.P.P.4X4X5X8X8X8X7X7XcXcX7X8XcXnXnXnXnXMXMXnXnXnX8X7X7X7X5X4X=X=XP.7X=X4X5X4X5X5X6X=X~.>X>X~.S.~.~.S.S.S.l.! A.&.:.2.T.U.2.2.T.A.:.2.:.%.%.R.b F T.@.:.2.F | $.:.S %.2.6.6.0.6.%.X.T.} c b ....S c 6 c c 6 5 4 8 O - j OX-X-X}.[.[.[.}.|.|.|.|.|.|.|.|.|.|.|.|.|.|. X X|.|.|.}.}.[.[.[.[.[.].].].].`.`.`.`.`.`.XXXXXXXXXXXXXXXXE.E.XXXXXXXXXXXXXXXXXXXXXXXX`.`.`.`.`.F.`.`.G.G.G.G.V.V.V.N.b.s.s.a.a.a.y.r.U U U U U L J H H H M M z z k f f f d d d s s s d d s s d j s s k d k g g g g k k C C C J J P I U U ~ ~ ^ ^ ^ ^ ( ( v.v.v.A.D.D.D.D.D.F.F.F.F.Y.Y.E.XXXXoXoX@X@X@X@X@X@X$X$X$X$X$X$X#X$X#X#X#X$X$X$X$X$X#X#X#X#X$X$X$X$X$X$X$X$X$X$X$X$X$X",
": > > > > > > > > > > > > > > > > > > > > > > > 1 1 1 t i i d k z z H J I U ~ ^ / p.a.s.c.N.N.B.Z.G.G.G.`.`.`.E.E.XXXXXXoX.XoX@X+X+X@X@X$X$X@X@X$X$X$X$X$X$X$X$X$X$X$X$X#X%X#X#X#X#X@X2.2.j 2.l %.1 l l A.dXdXMXbX=XL.=X6X8X7X7X8X8XnXnXcXcX8X8X8X7X4X4X=X=X=X4X5X5X8X8X8X8X8X8X8X8X8X8X8X7X7X7X7X7X8XcXnXnXMXMXNXNXnXnXnX8X7X8X8X5X4X4X=X4XnX7X5X4X7X5X7X7X>X~.=X/.~.S.L.~.S.S.S.n.A.v.Y &.1.U.2.2.2.:.:.:.:.%.%.U.U.T.;.2.@.| F 2.2.%.:.D j $.;.<.6.*.6.%.0.Q.m c S | ..| | c 8 w 4 q 3 ; $ h 2.OX-X[.[.[.[.|.|.|.|.|.|.|.|.|.|.|. X X X X|.|.|.|.|.[.}.[.[.[.[.[.[.].].].`.`.`.OX`.`.`.`.XXXXXXXXXXXXXXE.XXXXXXXXXXXXXXXXXXXXXXXX`.`.XXXX`.F.`.G.G.G.G.G.V.V.V.N.b.b.d.a.a.a.y.r.U U U U U L J H H H M z z z k f d d d i d s s s d s s s s s s s s s s s d d d g g g C C H J P I I U U ~ ^ ^ ^ ( ( ( v.v.v.A.D.D.D.D.D.F.F.F.Y.Y.Y.Y.E.E..XoXoXoXoXoX@X@X@X@X@X@X$X$X$X$X$X$X$X$X$X$X#X#X#X#X$X$X$X$X@X@X$X$X$X$X$X$X$X$X$X",
"> > > > > > > > > > > > > > > > > > > > > > > > 1 1 1 t i i d k z z H J I U ~ ^ / p.a.s.c.N.N.B.Z.Z.G.G.G.G.`.E.E.XXXXXXoX.X.X@X+X+X@X@X$X$X@X@X$X$X$X$X$X$X$X$X$X$X#X$X#X%X#X#X#X#X#XD.E.D $.2.>.$.%.&.Y dXMXMX~.=X6XzXMXNXMXMXnXnXnXcX8X8X8X5X5X4X8X5X5X5X8X8X8X8X5X5X8XnXnX8X7X5XcXcXcXcX7X6X6X7X8XcXnXnXnXnXMXnXnXcX8X7X5X8X8X5X4X7X4X7X7X7X=X=X7X=X=X7X>X~././.~.L.S.~.S.n.S.S.S.A.&.:.%.2.1.2.A.2.A.U.:.%.%.U.2.R.T.2.U.;.| 2.R.%.2.R.;.@.<.;.;.$.8.<.6.+X*.c 8 b S m S 5 % 7 7 q 3 w O < F D.-X[.[.[.}.}.}.}.}.|.|.|.|.|.|.|. X X X X|.|.|.|.|.[.}.[.[.[.[.[.[.].].].`.`.`.`.`.`.`.`.XXXXXXXXXXXXXXE.XXXXXXXXXXXXXXXXXXXXXXXX`.`.XXXX`.F.`.G.G.G.G.G.V.V.V.B.N.N.d.d.a.a.y.y.U U U U U L J H H M M z z z k f d d d i d s s s s s s s s s s s d d s s s s d g g g V C V J J P I I U U ~ ^ ^ ( ( ( >.v.v.M.D.D.D.D.F.F.F.F.Y.Y.Y.Y.Y.Y.R..XoXoXoXoXoX@X@X@X@X@X@X@X@X@X@X@X$X$X$X$X$X$X$X$X$X$X@X@X@X@X@X@X@X@X@X@X$X$X$X",
"> > > > > > > > > > > > > > > > > > > > > > > > 1 1 1 t i i j k z z H J I U U ^ / p.a.s.c.N.N.B.Z.Z.G.G.`.`.G.E.E.XXXXXXoX.X.X@X+X+X@X@X@X@X@X@X$X$X$X$X$X$X$X$X$X$X$X$X%X%X&X&X&X,XY.,X%.W %.s l d d z *XbXdX*X=X>XnXMXNXNXNXNXMXnXcXcX8X7X5X5X4X4X8X8X7X7X8X8X8X8X8X8X8X8XnXnX8X8XcXcXcXnXcX7X7XcXcXcXnXnX8X8XnXnX7X7X5X5X5X8X7X5X4XnX4XnXcX7X4X8X4XP.P.6X=XL.=X>X~.~.S.~.n.j.S.S.S.G.E.D.Y :.:.A.2.:.:.A.2.:.:.%.:.:.T.R.2.U.$X2.U.2.2.%.%.%.%.<.X.%.6.0.;.O.T.v b S S b b 8 8 n q 4 w v ; : j >.-X[.}.[.}.}.|.}.}.|.|.|.|.|.|.|.|.|.|.|.|.|.|.|.}.[.[.[.[.[.[.[.].].].].].`.`.`.`.`.`.`.XXXXXXXXXXXXXXE.XXXXXXXXXXXXXXXXXXXXXXXXXXXXXXXX`.`.G.G.G.G.G.G.V.G.V.N.N.N.b.d.a.a.y.y.U U U U I L J J H M M z z z k f f d d d s s s s s s s s u u s s s s s s s s s g g g V V V J J P I I U U ~ ( ( ( ( ( v.v.v.M.D.D.D.D.F.F.F.F.Y.XXY.Y.Y.Y..X.X.X.X.XoXoXoX@X@X@X@X@X@X$X$X$X$X$X$X$X$X$X$X$X$X$X$X@X@X@X@X@X@X@X@X@X@X$X$X$X",
": : : : : : : : : : : : : : : : : : > > > > > > > > 1 t u i j k z z H J I U ! ^ / p.a.a.c.N.N.B.Z.Z.G.G.G.G.G.E.E.XXXXXXoX.X.X@X+X@X@X@X$X$X$X$X$X$X$X$X$X$X$X$X$X$X$X$X%X%X&X&X%X#XE.#XA.%.W Z d k z &.bXdX*XzXZXnXMXNXZXZXZXMX7X6X6X=XP.=X5X7X8X8X8XcXnXnXcXcX8X8XnXnXnXNX8XnXnXNXNXcX8XcX7X4X4X7X7X8XnXnXcX8X7X7X5X7X7X7X7X4X7XnX5X=X4X8X8X=X=X=X=X4X6X=X=X=X=X=X=X=X~.S.S.h.n.S.:XE.F.F.D.&.&.2.&.2.%.2.:.A.:.:.2.$.R.U.U.U.$XU.$XuXuX%XuX$X%.F ;.T.;.;.4.A =.,.8 9 v S c c w w 4 4 4 9 ; < # P -X-X[.;X}.{.|.}.}.|.|.|. X X X X|.|. X|.|.|.|.|.|.[.}.[.[.[.[.[.[.].].].].`.`.`.`.XXXXXXXXXXXXXXE.E.E.E.XXXXE.E.E.E.XXXXXXXXXXXXXXXXXXXX`.`.G.G.G.G.G.G.V.V.V.N.N.N.b.d.a.a.a.y.r.r.U L L L J J H M M z z z k f f d d i s s u u u u u u u u u u u s s s s s d g g V C C C J P I U U U ^ ( ( ( ( ( >.v.v.v.M.M.D.D.D.F.F.F.F.Y.Y.Y.Y.Y.Y.oXoXoXE.oXoXoXoXoXoXoXoX@X@X@X@X@X$X@X@X@X@X$X$X@X@X@X@X@X@X@X@X@X@X@X@X@X@X@X$X$X",
": : : : : : : : : : : : : = : : : : > > > > > > > > 1 t u i j k z z J J I U ! ^ ( p.a.s.c.N.N.B.Z.G.G.G.G.G.G.G.E.E.XXXXoX.X.X@X+X@X@X@X$X$X$X$X$X$X$X$X$X$X$X$X$X$X$X$X%X%X%X#X#X#XXX#XF.>.&.T g T y <X<X*XZXDXZXnXZXNXnXcX5X4X=X/.H.P.=X8X8XcXnXNX8X8X5X7X5X7X8XcX8X8X8X8X/.4X4X6X=X5X7X5X4X4X7XnX7X7X7X7X7X7X8XcX7X7X7X7X7X5X7XcX5X5X5X7X7X=X5X=X7X7X=XP.L.=X>X=X=X=X=XK.S.j.n.S.S.G.D.v.A.l.:.&.:.2.:.:.&.U.2.:.U.T.2.2.:.U.@.U.:.2.U.R.R.%.R.R.%.;.@.| b ,.| } | S b 0 S c 8 3 9 q 9 9 - < # D *X-X[.}.}.{.}.}.|.|.|.|. X X X X|.|. X X|.|.|.|.|.[.}.[.[.[.[.[.[.].].].].`.`.`.`.XXXXXXXXXXXXXXXXXXE.E.XXXXXXE.XXXXXXXX`.XXXXXX`.XX`.`.`.G.G.G.G.G.Z.V.V.V.V.V.N.N.b.d.a.a.a.y.r.r.^ U L L J J H M M z z z z f f f d d s s u u u u u u u u u u u s s s s s s g V V C C J J I I U U ^ ^ ( ( ( ( ( ( v.v.m.M.M.D.M.M.F.F.F.Y.Y.Y.Y.Y.Y.Y.oXoXR.R.E.E.oXoXoXoXoXoX@X@X@X@X@X@X@X@X@X@X$X$X$X@X@X@X@X$X@X@X@X@X@X@X@X@X$X$X$X",
": : : : : : : : : = = : : : : : : : > > > > > > > > 1 1 u i j k z z H I I U ! ^ ( p.a.s.c.N.N.B.Z.G.G.G.G.G.G.G.E.E.XXXXoXoX.X@X+X@X@X@X$X$X$X$X$X$X$X$X$X$X$X$X$X$X$X$X$X%X%X#X#X#X#XOXXXD.v.&.Z Z E bX<XbXZXZXcXbX=X=X=X>XL.L.n.k./.5XnXnXnXcX7X5X8X8X8X8X5X4X4X=XP.P.P.P.P./.4X4X5X8XcX8X4X7XnXnX7X7X7X5X5X7X8X8X7X7X7X7X8X7X5X7X=X7X7X7X7X=X5X=X7X7X6X=X/.6X6X=X=X6X>X=XL.n.S.L.A.S.D.v.A.A.:.&.:.&.:.:.%.T.2.:.%.@.2.:.2.2.F %.:.:.:.%.F 2.D Y Y %.x $.2.%.j %.x x x x D F F | ; - ; - < : # k F.-X-X'.}.|.{.}.|. X|.|. X X X X|.|. X X|.|.|.|.|.[.}.[.[.[.[.[.].].].].].].`.`.OXXXXXXXXXXXXXXXXXXXXXXXXXXXXXXXXXXXXXXX`.`.XXXX`.`.`.`.`.G.G.G.G.G.Z.V.V.V.V.V.N.N.b.d.d.a.a.y.r.r.^ U L L J J H M M z z z z f f f d d s u u u , , u u u u u u u u s s s s d g V V C C J J I I U U ^ ^ ( ( ( ( ( v.c.M.M.M.D.D.G.G.F.F.F.Y.Y.Y.Y.Y.Y.Y.R.R.R.R.E.E.oXoXoXoXoXoX@X@X@X@X@X@X@X@X@X@X@X@X@X@X@X@X@X@X@X@X@X@X@X@X@X@X$X$X$X",
": : : : : : : : : : : : : : : : : : : > > > > > > > 1 1 u i j k z z H I I U ! ^ ( p.a.s.c.N.N.B.Z.G.G.G.G.G.G.G.E.E.XXXXoXoX.X@X+X@X@X@X$X$X$X$X$X$X$X$X$X$X$X$X$X$X$X$X%X%X#X#X#X#X,XOX#XE.F.D.E H v.<XMXZXMXZXNX~.L./././.4X7XnXNXBXBXBXNXcX8X8X7X4X4X=XP.P.P.P.P.4X4X4X4X7X8X8XcXnX8X7X8X7XnXnX7XnXnX8X7X8X7X7X5X7X7X7X7XnX7X5X7X=X7X7X7X4X=X7X5X6X7X7X6X6X8X8X7X=X7X7X6X=XK.~.=XS.A.M.E.S.&.&.A.:.&.2.:.@.R.U.%.U.:.2.$.@.2.%.2.Y U.R.:.2.@.@.D Y @.Y x j x 1.l h h x x Y Y M l b < ; ; 0 : # < >.-X<X[.[. X{.}.|.|. X X X X X X|.|.|. X|.|.|.|.|.}.}.[.[.[.[.[.[.].].].].`.`.`.OX`.XXXXXXXXXXXXXXXXXXXXoXE.E.E.E.E.XXXX`.`.XX`.`.`.XXXX`.G.G.G.G.G.Z.G.V.V.V.N.N.b.f.d.d.a.a.a.r.r.^ U L L J H M M M z z z z f f d d s s u u < , , s s u s s s s s s s s s s g V V C C H J I I U U ~ ^ ( ( ( p.v.v.c.M.M.M.D.D.F.F.F.F.F.Y.Y.Y.Y.Y.Y.Y.R.R.R.R.E.E.E.E.R.R.oXoXoX.X@X@X@X@X@X@X@X@X@X@X@X@X@X@X@X@X@X@X@X@X@X@X@X@X@X@X@X",
": : : : : : : : : : : : : : : : : : > > 1 1 1 1 1 1 1 u i i j l z M H I I U ! ^ ( p.a.s.c.N.N.B.B.G.G.G.G.G.G.G.E.E.XXXXoXoX.X@X+X@X@X@X$X$X$X$X$X$X$X$X$X$X$X$X$X$X$X$X%X%X#X#X#X#X,X,X*X*XE.G.G.M *XzXMXMXMX<X=X7XnXNXZXDXZXZXZXZXNXNXMXcX7X5X=XP.L.P./.4X4X5X8XcXnXnXnXnXnXnXnXnX8X6X4X5X8X8X5X5X5X5X5X5X8XnXnX8X7X7X7X7X7X7X5X7X7X7X8X5X=X=X7X7X7X7X6X=X/.=X7X=XL./.=X>XL.L.L.L.L.G.G.E.E.S.A.A.A.2.%.2.2.2.R.2.A.D R.:.:.@.U.2.2.2.%.:.%.@.2.I.Y Y H l H l R :XMXxXdX>X>XG.R z 1 1 b < o : h : k F.<X].[. X{.|.|. X X X X X X X|.|. X X|.|.|.|.|.}.}.[.[.[.[.[.[.].].].].`.`.`.OX`.XXXXXXXXXXXXXXXXXXXXXXXXXXXXXXXXXXXXXXXXXXXX`.`.XXXX`.G.G.G.G.Z.Z.Z.V.V.V.N.b.b.f.d.d.d.a.a.y.r.^ U U L J J M M M M z z z f f f d s s u , < < , s , u u < < < u s s s d d g V V C C H J I I U U ~ ^ ( ( ( p.v.v.c.M.M.M.M.G.F.F.F.F.F.F.F.F.Y.Y.Y.Y.Y.Y.Y.R.R.R.R.R.E.E.E.E..X.X@X@XoXoX@X@X@X@X@X@X@X@X@X@X@X@X@X@X@X@X@X@X@X@X@X@X@X",
": : : : : : : : = : : : : : : : : : > > 1 1 1 1 1 1 1 u u i l l z M H L I U ^ ^ ( p.a.s.c.N.N.B.B.Z.G.G.G.G.G.G.E.E.XXXXXXoXoX@X+X@X@X@X$X$X$X$X$X$X$X$X$X$X$X$X$X$X$X$X%X%X#X#X#X#X:X,XXX*XG.OX*X! MXbXMX6X>X=X8XDXDXDXDXDXNXBXNXnXcX5X=X=XP.P.L.K.L.6XnXNXNXNXnXnX8X8X8X8X8X8X8X8X8X7X5X5X4X=X=X=X=X=X=X=X5X7X8X8X8X7X5X5X5X7X7X7X8X7X8X4X=X5X7X7X8X7X6X=X/.=X=XL.L.L./.=XL.L.L.L.L.G.E.E.G.I.A.:.A.A.&.2.2.2.U.:.R.2.:.%XD %.@.:.2.Y A.%.1.2.D j Y l y H L >XnX>X>X>X6X>X7X>X/.L.z # # 1 = O 8 j , v.<X<X}.;X{.|. X X X X X X X X|. X|. X|.|.|.|.|.}.}.}.}.[.[.[.[.].].].].`.`.`.`.`.XXXXXXXXXXXXXXXXXXXXXXXXXXXXXXXXXXXXXXXXXXXX`.`.XXXX`.G.G.G.G.G.Z.Z.V.V.V.N.b.b.d.d.d.d.a.a.r.r.^ U U U L L H M M M M z z z f f d s s u < u , , s s < < < < , < s s d d d g V V C C J J I I U U ~ ^ ( ( ( p.v.v.c.M.M.M.M.D.F.G.F.F.F.F.F.F.Y.Y.Y.Y.Y.Y.Y.Y.R.R.R.R.E.E.E.E.R.R..X.X.X.XoXoXoXoX.X.X@X@X@X@X@X@X@X@X@X@X@X@X@X@X@X@X@X",
": : : : : : : : : : : : : : : : : : > > 1 1 1 1 1 1 1 u u i l l z M H L I U ^ ^ ( p.a.s.c.N.N.B.B.Z.G.G.G.G.G.G.E.E.XXXXXXoXoX@X@X@X@X@X$X$X$X$X$X$X$X$X$X$X$X$X$X$X$X$X%X%X#X#X#X#XOX-X*X-XG.XX*XG.zXzX>Xn.6XDXHXZXcXNXZXNXMXcX5X4X/.L.n.n.n.P.8XNXnXcXcXcX5X7X8X8X5X5X5X5X4X4X4X4X5X5X4X=X4X4X4X4X4X4X4X4X=X4X5X7X5X5X5X5X5X7X7X7XnX7X8X=X=X7X6X7X8X7X4X4X=X=XP.L.L./.=X=XL.L.L.L.L.~.~.~.G.S.l.:.2.A.:.:.:.A.2.:.:.:.2.uX%X2.:.x D U.$.%.Y D %.Z f f a S.zX7X7X6X6X6X6X6X=X=X4X=XE.l = j | = = < < ! *X;X}.;X{. X X X X X X X X X|. X|. X|.|.|.|.|.}.}.}.[.[.[.[.[.].].].].`.`.`.`.`.XXXXXXXXXXXXXXXXXXXXXXXXXXXXXXXXXXXXXXXXXXXX`.`.`.XX`.G.G.G.G.G.Z.Z.V.V.V.V.b.b.f.d.d.d.a.a.y.y.r.^ U U L L J H H M M M z z k f d d d u < < , s s u < < < < < u s d d d g g V C C C J J I I U U ~ ^ ( ( p.p.v.v.v.M.M.M.M.G.F.G.F.F.F.F.F.F.Y.Y.Y.Y.Y.Y.Y.Y.R.R.R.R.E.E.E.E.R.R..X.X.X.XoXoX.X.X.X.X@X@X@X@X@X@X@X@X@X@X@X@X@X@X@X@X@X",
": : : : : : : : : : : : : : : : : : > > 1 1 1 1 1 1 1 t u i l l z M J L I U ^ ^ ( p.a.s.c.N.m.B.B.Z.G.G.G.G.G.E.E.E.XXXXXXoX@X@X@X@X@X@X@X@X$X$X$X$X$X$X$X$X$X$X$X$X$X$X%X%X#X#X#X#XOX`.<X*X*XG.XX<XcX6Xn.6XDXZXnXcXnXZXNX8X7X=XL.n.u.K.4XcXNXcXcXBXnXnXcXcXcX8X4X4X4X4X5X5X8XcXcXcXnXnXnX7X8XnXnXnX7X7X7X7X=X=X=X5X5X5X5X7X7X7X7X7X8X5X7X5X6X7X7X7X7X5X4X4X6X=X=X/.4X6X7X8XL.L.L.~.~.~.~.~.S.A.l.:.:.I.:.&.%.A.:.:.F U.@.@.T.2.U.:.%.m %.:.2.%.Z Y z H zXzX7X6X6X8X6X4XP.H.K.K.P.L.^.E.z > F 8 6 : : Z D.*X-X;X}.|. X X X X X X X X X X X X|.|.|.|.|.[.}.}.}.[.[.[.[.].].].].].`.`.`.`.`.XXXXXXXXXXXXXXXXXXXXXXXXXXXXXXXXXXXXXXXXXX`.`.`.`.`.G.G.G.G.G.Z.Z.Z.V.V.V.V.b.f.d.d.d.a.a.a.y.r.^ U U L L L L H M M M M z z f d d s s s s s s < < < < u < < s s s d d g g V C C C J J I I U U ~ ^ ( ( p.p.v.v.v.M.M.M.M.G.G.G.F.F.F.F.F.F.Y.Y.Y.Y.Y.Y.Y.Y.Y.Y.Y.R.R.R.R.R.R.R.R.R..XR.oXoXoXoX.X.X@X@X@X@X@XR.@X@X@X@X@X@X@X@X@X@X@X",
": : : : : : : : : : : : : : : : : : > > 1 1 1 1 1 1 1 t u i l l z M H L I U U ^ ^ p.a.s.c.m.m.B.B.Z.G.G.G.G.G.E.E.E.XXXXXXoX@X@X@X@X@X@X$X$X$X$X$X$X$X$X$X$X$X$X$X$X%X%X%X&X#X#X#X#XOX*X*X*X*XG.*X7XzXn.=XBXNX7XnX7XnX7X>X=XL.K.n.K.6XNXDXBXcXnXMXBXcXnXnXcX8XcXnXBXcXNXnXNX8XnX8XnXnXnXnXnXcXcXnXnXnX7X7XcX6X7XnXnXnX8X8X7X7X7X8XnX=X=X=X=XcX7X7X7X7X4X5X=X6X4X=X=X7X4X4X=XL.L.L./.6X=X>X~.G.v.R H &.E.&.%.%.2.%.$.@.2.D @.x 2.%.%.@.:.@.%.@.&.f # M zXbXzXcX6X/.k.t.N p p N N t.g.^.~.A.d u j < 6 8 D D.*X-X;X|.|. X X X X X X X X X X|. X X X|.|.|.}.}.}.[.[.[.}.[.[.[.].].].`.`.`.`.XXXXXXXXOXOXXXXXXXXXXXXXXXXXXXXXXXXXXXXXXXXX`.`.`.`.`.G.G.G.G.G.Z.Z.Z.V.V.V.Z.V.f.d.d.d.d.a.a.y.y.r.U U R L L L L H M M M z z g d s d s s s s s u s u u u u s u d s d d g g V C C H K J I I U U ~ ~ ^ p.p.v.v.v.m.M.M.M.M.G.F.G.F.F.F.F.F.F.Y.Y.Y.Y.Y.Y.R.Y.Y.Y.Y.R.R.R.R.R.R.R.R..X.XR.R.R.R.R.R.R.@X@X@X@XR.@X@X@X@X@X@X@X@X@X@X@X@X",
": : : : : : : : : : : : : : : : : : > > 1 1 1 1 1 1 1 t u i l l z M H J I U U ^ ^ p.p.a.c.m.m.M.B.Z.Z.G.G.G.G.E.E.E.XXXXXXoX@X@X@X@X@X@X$X$X$X$X$X$X$X$X$X$X$X$X$X$X%X%X%X&X#X#X#X#X#X*X*X*X*X*X*X<X=XL.7XNX7X7X5XL.L.L.K.L./.7XnXBXNXZXZXnXBXnXcXcX=X7XcXcXcXnXnXnXNXNXcXnXnXNXnXNXnXnXnXnXnXnXnXnXnX7X>X>X=X=X>X=X7X7X7X7X7X7X=X=X=X=X=X=X7X7X5X5X7X=X5X4X6X4X=X=X7X5X=XL.L.L.L./.=X/./.L.~.S.j.&.M &.A.&.D D %.%.%.Y U.F :.:.6.T.:.| %.:.&.Y z h.=XMXnXzXH.t.p N p p p p p M N N h.S.G.&.j j 8 - - s W XX-X-X X|. X X X|.|.|. X X|.|.|.|. X X|.|.|.}.}.}.[.}.[.[.[.[.[.].].].`.`.`.`.`.XXXXOXOXOXXXXXXXXXXXXXXXXXXXXXXXXXXXXXXXXX`.`.`.XX`.G.G.L.J.G.Z.Z.Z.V.V.V.C.N.f.d.d.d.d.a.a.y.y.y.r.U L L L L L H M M M z z g d d s s s s s < s , u u u u u u d s d d g g V C C J K J I I U U U ~ ^ p.p.v.v.c.M.M.M.M.D.G.F.F.F.F.F.F.Y.Y.Y.Y.Y.Y.R.R.R.R.Y.Y.Y.Y.R.R.R.R.R.R.R.R.R.R..X.XR.R.@X@X@X@X@X@X@X@X@X@X@X@X@X@X@X@X@X@X@X",
": : : : : : : : : : : : : : : : : : 1 1 1 1 1 1 1 1 1 u u i l l z M H J I U U ^ ^ p.p.a.c.m.m.M.B.Z.Z.G.G.G.G.E.E.E.XXXXXXoX@X@X@X@X$X$X$X$X$X$X$X$X$X$X$X$X$X$X$X$X%X%X%X&X#X#X#X#X#X#X*X*X*X*X*X>XL.6XnX5X8XP.n.K.n.=XzXcXMXNXZXDXZXZXNXBXnXcXcXcX6XcXMXMXBXBXMXnXBXMXBXcXnXNXnXBXnXnXnXnXnXzX7X6X*X~.~.>X*X*XL.G.=X>X<X7X8X7X7X5X>X>X>X6X7X7X=X=X7X=X4X7X4X4X=X=X5X8X=XH.L.L.L.L./.L.P.K.~.S.S.A.l.z @.&.@.D %.F %.D R.D @.@.%.U.U.%.:.&.&.H v.zXnX6XnX=XN M M p p p p p p p M M N R S.D.l j j : : , d `.-X;X|. X X X X X|.|. X X|.|.|.|.|.|.|.|.|.}.}.}.[.[.}.[.[.[.].].].].`.`.`.`.`.XXXXOXOXOXXXXXXXXXXXXXXXXXXXXXXXXXXXXXXXXX`.`.XXXX`.G.G.L.J.G.Z.Z.Z.V.V.V.Z.C.f.f.d.d.d.d.d.a.a.y.y.U R R L L J H H M M g z z g s j s s s s s u s s u u u u s d s d g g V C C C J K J I I U U U ~ ^ p.p.v.v.M.M.M.M.D.G.G.F.F.F.F.F.F.F.Y.Y.Y.Y.Y.R.R.R.R.Y.Y.Y.Y.R.R.R.R.Y.Y.R.R.R.R..XR.R.R.@X@X@X@X@X@X@X@X@X@X@X@X@X@X@X@X@X@X@X",
": : : : : : : : : : : : : : : : : : > > 1 1 1 1 1 1 1 u i i l l z M H J I U U ^ ^ p.p.p.c.c.m.B.B.Z.B.G.G.G.G.F.XXXXXXXXXXoX@X@X@X$X$X$X$X$X$X$X$X$X$X$X$X$X$X$X$X$X%X%X$X%X#X#X#X#XOX:X*X*X*X*X*X;XL.nXnXL.L.H.n.6XDXDXDXDXZXZXZXNXNXMXnXnX7X7XcXnXNXZXZXNXNXBXBXnXnXcXBXBXcXMXzXnXnXnXbXbXzX<X=X~.~.S.v.A.h.A.S.G.~.=X>X7X=X>X>X6X>X>X>X>X=X=X=X=X7XP.4X8X4X4X=X=X5X7X=Xn.L.L.L.L.P.H.K.n.K.S.S.S.l.Y Y :.@.#.Y :.%.F U.:.D :.| :.U.R.&.Y &.h.zXnX6X=XMXH.p p N p p p p p p p p p p M k.S.T t j j h u , D.-X-X X X X X X X X X X X X X X X|.|.|.|.|.}.}.}.}.[.[.[.[.[.].].].].].`.`.`.OXOXXXOXOXOXXXXXXXXXXXXXXXXXXXXXXXXXXXXXXXXX`.`.`.XX`.G.G.G.G.G.Z.Z.Z.Z.V.V.Z.C.b.f.d.d.d.d.d.a.a.y.y.r.U L L L J J H M M g z z k g d d s s s s u u s s s u u s d s d g g V C C C C K J I I U U U ~ ( p.p.v.c.M.M.M.M.G.G.G.F.F.F.F.F.F.F.F.Y.Y.Y.Y.Y.Y.Y.Y.Y.Y.Y.Y.R.R.R.R.R.Y.R.R.R.R.oXoX.X.X@X@X@X@X@X@X@X@X@X@X@X@X@X@X@X@X@X@X@X",
": : : : : : : : : : : : : : : : : : > 1 1 1 1 1 1 1 t u i i l l M M J L I U U ^ ^ p.a.a.c.c.m.B.B.B.G.G.G.G.G.F.XXXXXXXXXXoX@X@X@X$X$X$X$X$X$X$X$X$X$X$X$X$X$X$X$X$X%X%X$X%X#X#X#X#XOX*X:X*X*X-X-X=XL.=X7X4XH.4XnXNXMX7XnXZXHXDXZXnXnXcXcXzXcXnXBXZXZXDXZXBXNXBXMXcXnXzXMXcXzXMXMXcXnXzX<XdX~.S.v.h.Y M z M l l l z &.h.G.*X*X~.L.G.=X=X>X>X=X=X=X6X5X=X=X5X4X=X=X=X8X=Xn.n.=X=X=X=X/.L./.L./.S.S.h.h.Y &.&.Y Y x %.@.$.%.2.@.:.%.@.U.:X&.v.S.7XNX6X=XP./.L M p M p N r.u.u.r.r.N M p p M L.G.H d l h h # &.-X-X-X|. X X X X X X X X X X X X|.|. X|.|.|.|.|.}.}.}.}.[.[.].].].].].`.`.`.OXOXXXOXOXOXXXXXoXoXoXoXOXXXXXXXXXXXXXXXXXXXXXXXXXXX`.G.G.G.G.G.Z.Z.Z.Z.V.V.V.Z.b.b.d.d.d.d.d.a.a.y.y.r.U L U L J J H M M z z z g g d s s s s s u u u u s u u s d d d g g V C C C C J J I I U U ^ ~ ( p.p.c.M.M.M.M.M.G.G.G.F.F.F.F.F.F.F.F.Y.Y.Y.Y.Y.Y.Y.Y.Y.Y.Y.Y.R.R.R.R.Y.Y.R.R.R.R.oXoX.X.X.X.X@X@X@X@X@X@X@X@X@X@X@X@X@XR.@X@X.X",
"= = : : : : : : : : : : : : : : : : > 1 1 1 1 1 1 1 t u i i l l M M J L I U U ^ ^ p.a.p.c.c.m.B.B.B.G.G.G.G.F.F.E.E.XXXXXXoX@X@X@X@X$X$X$X$X$X$X$X$X$X$X$X$X$X$X$X$X%X%X%X&X#X#X#XOXOX*X:X*X*X-X-X=X=X7X4XL.P.nXZXNXNXMXnXNXMXcXzXcXcXMXBXBXcXMXZXDXDXDXZXBXMXMXnXcXcXcXMXzXMXvXzX>X>X~.G.G.D.l.Q H z z H Y z z z M l l H h.S.G.G.n.S.L.=X=X=X=X=X>X=X=X=X4X=X=X=X4X5XP.H.H./.=X=X=X/.L./.~./.S.S.h.l.&.&.Y :.Y j @.| F @.@.@.@.@.Y :.E.E.~.>XMXnX5Xk.H.k.M L r.r.u.H.K.K.H.H.H.u.r.p p p y.=Xh.k i h < # T *X-X-X X X X X X X X X X X X X X|.|.|.|.|.|.|.}.}.}.}.}.[.[.].].].].].`.`.`.OXOXOXOXOXOXXXXXXXXXoXoXOXXXXXXXXXXXXXXXXXXXXXXXXXXX`.G.G.L.G.G.Z.Z.Z.Z.V.V.V.Z.b.f.d.d.d.d.d.d.a.y.y.r.R U L L L J H M M z z z k k k k s s s s u u u u s u u s d d d g g V C C C H J J I I U ~ ^ ~ ( p.p.c.M.m.M.M.G.G.G.G.F.F.F.F.F.F.F.F.Y.Y.Y.Y.Y.Y.R.R.Y.Y.Y.Y.R.R.R.R.Y.Y.R.R.R.R.oX.X.X.X.XoX@X@X@X@X@X@X@X@X@X@X@X@X@XR.@X.X@X",
": : : : : : : : : : : : : : : 1 : : 1 1 1 1 1 1 1 1 t u i i l l M M H J I U U ^ ^ p.a.p.c.c.m.B.B.B.G.G.G.G.F.F.E.E.XXXXXXoX@X@X@X@X$X$X$X$X$X$X$X$X$X$X$X$X$X$X$X$X%X%X$X&X#X#X#X#XOX*X:X*X*X-X-X=X=X7XP.H.=XNXNX8X8XBXDXDXBXcXzXcXzXBXNXMXcXMXZXDXZXZXBXnXcXcXcXcXzXMXMXzXxX^.^.S.A.&.Q &.&.Y l l > h Y &.Y Y l l H M M &.&.h.&.h.n.n.S.L.L.~.=X=X=X7XP.P.=XP.=X7X4XL.H.P././.=X/./.P././.=Xn.j.&.A.#.&.Y &.@.D @.@.@.:.| @.@.D Y %.G.zX<XzXMX6X/.k.k.r.p L k.L.P.5X4X4XP.P.P.H.H.r.r.M r.L.S.H j 1 : : k *X-X-X;X X X X X X X X X X X X X|.|.|.|.|.|.|.}.}.[.[.[.[.[.].].].].`.`.`.`.OXXXOXOXOXOXXXXXXXXXoXoXOXOXXXXXXXXXXXXXXXXXXXXXXXXX`.G.G.L.G.G.Z.Z.Z.V.V.V.Z.V.b.f.d.d.f.d.d.d.a.y.y.y.r.L U L L J H H M z z z k k k k k s s s s s s s s s u s s d g g V C C C C H J J I U U ~ ^ ~ ( p.v.c.M.m.M.M.G.G.G.G.F.F.F.F.F.F.F.F.Y.Y.Y.Y.Y.Y.R.R.Y.Y.Y.Y.R.R.R.R.Y.Y.R.R.R.R.oXoX.X.X.XoX@X@X@X@X@X@X@X@X@X@X@X@XR.R.@X@X@X",
": : : : : : : : : : : : : : : 1 1 1 1 1 1 1 1 1 1 1 t u h h l l M M H J I U U ^ ^ p.a.p.c.c.m.B.B.B.G.G.G.G.G.G.E.E.XXXXXXoX@X@X@X@X$X$X$X$X$X$X$X$X$X$X$X$X$X$X%X$X%X%X%X#X#X#X#XOXOX*X*X*X*X-X-X=X=X=Xn./.=X8X8X6XMXNXBXzX7XnXBXBX7XMXMX6XMXBXMXNXNXnX8X6X7XcXcXMXzXBXMXxX^.l.S.l.z l l Y l l l l Y Y Y Y Y %.&.:.&.Y H R H H J R y.y.n.n.S.L.L.L.=X7XL.L.P.P.=X7X=XK.L.=X/.=X/.P./.P././.=Xh.h.h.A.M Y A.D :.@.%.j m :.F F :.h %.&.~.<X7XMX7X4XH.u.k.M r.r.n.L.=X8X5X4X4XP.L.H.H.H.H.u.u.J.~.&.u : % : j *X;X-X;X X X X X X X X X X X X X|.|.|.|.|.|.}.}.}.[.[.[.[.[.].].].`.`.`.`.`.`.XXXXXXOXOXXXXXXXXXXXoXOXOXXXXXXXXXXXXXXXXXXXXXXXXX`.`.G.L.L.G.Z.Z.Z.V.V.V.V.V.b.b.f.f.f.d.d.d.a.y.y.y.r.R U L J J H H H C C k k k k k k s s s s s s s s s u s d d g g V V C C C J J P I U U ~ ~ ~ ( p.p.c.M.M.M.M.G.G.G.G.F.F.F.F.E.F.F.F.Y.Y.Y.Y.Y.Y.R.R.Y.Y.Y.Y.R.R.R.R.Y.Y.R.R.R.R.R.R.R.R..X.X@X@X@X@X@X@X@X@X@X@X@X@XR.R.R.@X@X",
": : : : : : : : : : : : 1 1 1 1 > 1 1 1 1 1 1 1 1 1 t u h h l l M M H J I U U U ^ ( p.p.c.c.c.m.B.G.G.G.G.G.G.F.E.E.XXXXXXoX@X@X@X@X@X@X@X@X@X@X$X$X$X$X$X$X$X$X$X$X$X$X%X#X#X#X#XOXOX*X*X*X*X-X-X;X7X/.H.H.5X8X7X8X6XnXBXBXMXNXBXcX7XnXBXcXBXBXNXNXNXNXcXMX6X6X6X6XzXdX:XI.#.&.h h u u u u i j l D x Y W %.H Y Y Q &.R H M R R R R M R t.L y.k.S.L.P.P.P.L.P./.5X7Xu.H.L.=X/.P.P.P./././././.y.t.v.&.&.x Y l 2.j D F b F @.l l &.Y n.6XnXnXnX8X=Xn.u.P.N r.u.K.4X8XnX8X8X5X5XP.i.r.i.P.P.k.H.6XE.l : % = 1 XX<X-X;X X X X X X X X X X X X X|.|.|.|.|.}.}.}.[.[.[.[.[.[.].].].`.`.`.`.`.`.OXXXXXOXOXXXXXXXXXXXXXXXXXXXXXXXXXXXXXXXXX`.`.`.`.`.G.G.G.J.G.Z.Z.Z.Z.V.V.V.V.b.b.b.b.d.d.d.d.a.y.y.y.r.R R L L J H J H C C C k k k k d s s s s s s s s s s s s d g g V V C C C J J P I U ~ ~ ~ ~ ( p.v.c.M.M.M.M.G.G.G.G.F.F.F.F.F.F.Y.Y.Y.Y.Y.Y.Y.Y.R.R.E.E.E.E.Y.Y.Y.Y.Y.Y.E.E.R.R.R.R..X.X.X.X@X@X@X@X@X@X@X@X@X@X@XR.R.R.R.Q.@X",
": : : : : : : : : : : : > > 1 > > 1 1 1 1 1 1 1 1 1 t u h h l l M M J J I U U ^ ^ ^ p.p.c.c.c.m.B.B.G.G.G.G.G.E.E.E.E.XXXXoXoX@X@X@X@X@X@X$X$X$X$X$X$X$X$X$X$X$X$X$X$X$X%X#X#X#X#X#XOX*X-X*X-X-X-X;X7Xu.n.=X7X=X7X6XcXBXNXBXMXMXMXcXcXBXNXMXBXNXNXnX8X8XcX7X7X/.6X^.~.S.R l l i i > u u u u i x l T &.&.&.&.H Y Y Q v.j.j.j.R R R R L L L M R y.k.n.P.=X=X=XP.=X5X=Xy.L.P.=X/.P.P.P././././.L.k.y.y.h.R Y Y x 2.h | D j F j %.Y :.Y L.7XnXMXnX=XH.H.=XP.r.u.4X8XNXNXnX8X8X8X8X=XH.u.u.H.P.P.L.zX*Xl 1 = % , D.<X;X;X X X X X X X X X X X X X|.|.|.|.|.}.}.}.[.[.[.[.[.[.].].].].].`.`.`.OXOXXXXXXXXXXXXXXXXXXXXXXXXXXXXXXXXXXXXXXXXX`.`.`.XX`.G.G.G.G.G.Z.Z.Z.Z.V.V.V.V.b.b.b.b.d.d.d.d.a.y.y.y.r.R R L L L J J H H C C z k k k d s s s s s s s s s s j j d g g V V C C C K I I I U ~ ~ ~ ~ ^ p.v.c.M.M.M.M.G.G.G.G.F.F.F.F.F.F.Y.Y.Y.Y.Y.Y.Y.Y.R.Y.Y.E.E.R.R.Y.Y.R.R.R.E.E.R.R.R.R..X.XoX@X@X@X@X@X@X@X@X@X@X@X@XR.@XR.Q.R.@X",
": : > > > > > > > > 1 1 1 1 1 1 1 1 1 1 1 1 1 1 1 1 t u h h l l M M H L I U U U ^ ^ y.a.c.c.c.m.m.B.G.G.G.G.G.F.E.E.E.E.XXoXoX.X@X@X@X@X@X@X@X@X$X$X$X$X$X$X$X$X$X$X$X$X%X#X#X#X#X#XOX*X*X*X-X-X-X<X>Xt./.DX=X6X=XMXBXZXZXNXMXnXcXcXnXMXBXBXNXBXnX8X5X4X7X4X6X/./.K.S.R x t h = u > u u t u i x z Y Y Y Y Y h.l.A.A.j.j.j.j.! ! ! y.h.R L L y.k.n.n.n.L.P.P.L.7X7XL.r.P.P.=X/.P.P.P.P.P.P.P.n.n.n.L h.#.Y Y M @.x $.j b F x :.Q v.&.>X7XnXnX7XP.J./.=XK.r.H.P.4X5X4X8X8X8X8X8X4XH.u.i.H.P.7X4XzX>Xl u : % > v.<X;X;X X X X X X X X X X X X X|.|.|.|.|.}.}.}.[.[.[.[.[.[.].].].].].`.`.`.OXOXXXOXXXXXXXXXXXXXXXXXXXXXXXXXXXXXXXXXXXXX`.`.`.`.`.G.G.G.G.G.Z.Z.Z.V.V.V.V.N.b.b.b.b.d.d.d.a.a.y.y.y.y.r.R L L L L J H H C C C C C k k d s s s d d s s s j j k k g C C C C K K P I I I U ~ ~ ~ ~ ^ p.v.c.M.M.M.M.G.G.G.G.F.F.F.F.F.F.Y.Y.Y.Y.Y.Y.Y.Y.R.R.Y.Y.Y.Y.R.Y.R.R.R.R.E.E.R.R..X.X.XoXoX@X@X@X@X@X@X@X@X@X@XR.R.@XR.R.R.R.@X",
": : > > > > : : > > 1 1 1 1 1 1 1 1 1 1 1 1 1 1 1 1 t u i h l l z M H J L I U U ^ ^ ^ p.p.c.c.c.m.B.G.G.G.G.F.F.E.E.E.E.oXoX.X.X@X@X@X@X$X$X$X$X$X$X$X$X$X$X$X$X$X$X$X$X%X%X#X#X#XOXOXOXOX*X*X-X-X<X~.k.ZX6X=X/.cXDXZXDXZXZXBXcX7XcXcXcXnXMXBXnXcX7X4X4X/.6X~.~.K.S.R x > = y = = t y y y y i x z Y H Y &.&.l.v.A.S.S.S.j.h.y.y.h.h.j.y.h.S.S.S.L.L.~.J.L.=XP.7X6XL.u.P.P.P./.P.P.P.P.P.P.P.n.J.n.L h.&.x Y Y j @.$.1 $.Y %.Q Y v.n.7X7XnX8X7X=X=X4X=XP.K.=XP.4X=XP.4X4X5X8X8X5XP.u.H.H.P.8X7XnXdXl u < : , >.-X;X|.|. X X X X X X X X X X X X|.|.|.|.|.}.[.[.[.[.[.[.[.].].].].].`.`.OXOXOXOXOXXXXXXXXXXXXXXXXXXXXXXXXXXXXXXXXXXXXX`.`.`.`.F.G.G.G.L.L.J.Z.Z.V.V.V.V.N.b.b.b.b.n.d.d.d.a.y.y.y.y.r.U L L J J J H H C C C C C k k d s s s d j d s s j j k k k C C C C K K K I I I U U ~ ~ ~ ^ p.v.c.m.M.m.M.G.G.M.M.F.F.F.F.F.F.Y.Y.Y.F.Y.Y.Y.Y.R.R.Y.R.Y.Y.Y.Y.R.R.R.R.E.E.R.R..X.XoX.X.X@X@X@X@X@X@X@X@X@X@XR..X@XR.R.Q.R..X",
": : : > > > > : > > 1 1 1 1 1 1 1 1 1 1 1 1 1 1 1 1 t u i h l l z M H J L I U U ^ ^ ^ p.a.v.c.c.m.B.G.G.G.G.F.F.E.E.E.E.oXoXoX@X@X@X@X@X@X@X@X@X$X$X$X@X$X$X$X$X%X%X$X$X$X%X#X#X#X#XOXOXOX*X*X-X,X<XS.nXBX=X~.nXMXDXDXDXZXZXBXMXnXnXcXcXMXNXBXnX8X7X4X/./.~.S.z.R R M y = > i y = > t y i x M M M Y R #.h.A.j.j.n.j.h.h.h.h.y.y.R R R k.S.S.y.n.n.n.~.L.~.=XP.=X4X4XH.=XP./.P.4X=XL./.P.P.P.H.K.J.y.R Y x #.@.u @.D D %.:.:.A.R S.=X7XnXMX7XP./.=X/.P.H.K.7X8X8X5X4X4X5X5X5X8X5XP.u.i.H.P.8X7XZX>Xj h < : s >.-X;X}. X X X X X X X X X X X X|.|.|.|.|.}.}.[.[.[.[.[.[.[.].].].].*X`.`.OXOXOXOXXXXXoXXXXXXXXXXXXXXXXXXXXXXXXXXXXXXXXX`.`.`.`.G.G.G.G.G.Z.Z.Z.V.V.V.V.V.N.b.d.b.b.d.d.d.d.d.y.y.y.y.r.R U L L J J H H H C C C C k k k d s d d d d d s j j k k k C C C Z K K K P I I U ~ ~ ~ ~ ( p.v.c.m.m.m.M.G.G.M.M.D.F.F.F.F.F.Y.Y.Y.Y.E.E.Y.Y.R.E.E.E.E.R.R.R.R.R.R.R.E.R.R.R.oXoXoXoX.X@X@X@X.X.X@X@X@X@X@XR.@X.XR.R.R.Q..X",
": : 1 1 > > : : > > 1 1 1 1 1 1 1 1 1 1 1 1 1 1 1 1 t u i h l l l M H J L I U U ^ ^ ^ p.p.c.c.c.m.B.M.G.G.F.F.F.E.E.E.E.oXoXoX@X@X@X@X@X@X@X@X@X$X$X$X$X$X$X$X$X%X%X$X$X$X%X#X#X#X#XOXOXOXOX*X-X,X<X*XcX6XzXDXDXDXDXDXDXZXNXBXBXMXcXnXBXNXBXnXcX7X=X/.n.K.k.j.R R M N a y i t h = i l x x M M N Y R R &.j.S.S.S.~.~.S.S.h.h.n.n.k.h.y.n.S.n.y.k.n.n.K.L.L.L.P.=X4X=Xn.P.K.L.P.=XP.P././.P.P.L.L.V.y.R x M Y Y x x D Y D E.A.S.! L.7XnXnX8X8XP.P.P.P.P.K.H.4XnXNX8X4XP.4X4X5X8X5X3XH.i.i.P.8XnXBXG.> j < : j ~ -X-X}. X X X X X X X X X X X X|.|.|.|.|.}.[.[.[.[.[.[.[.[.].].].].].OXOXOXOXOXXXoXoXoXXXXXXXXXXXXXXXXXXXXXXXXXXXXXXXXXXX`.`.`.G.G.G.G.G.Z.Z.Z.V.V.V.V.V.N.b.d.b.b.d.d.d.d.d.y.y.y.y.r.R U L L J J H H H C C C C k k k d s d s d d d d j j k k k C C C K K J K I I I ~ ~ ~ ~ ~ ( p.v.v.v.m.m.M.M.M.M.M.D.D.F.F.F.F.Y.Y.E.E.E.E.Y.Y.R.R.E.E.E.E.R.R.R.R.R.R.E.E.R.R.oXoXoXoX.X.X@X@XoXoX@X@X@X@X@XR.@X@XQ.Q.@XR..X",
": : 1 1 1 > : : > > 1 1 1 1 1 1 1 1 1 1 1 1 1 1 1 1 t u i i l l l M H J L I U U ^ ^ ^ p.p.c.c.c.m.B.M.M.G.F.F.F.E.E.E.E.oXoXoX@X@X@X@X@X$X$X@X@X$X$X$X$X$X$X$X$X%X%X$X$X$X%X#X#X#XOXOXOX*XOX:X-X,X,XbXzX~.ZXDXHXZXHXDXZXZXBXMXNXBXcXnXNXBXcXcX8X6X/.~.j.k.h.h.R N M x a x i y h u x M N M M M N R h.S.S.~.^.~.^.>X>X^.^.~.~.>X~.S.j.S.K.S.n.n.n.n.L.=X>X=XL.L.L.L.K.L.L.H.L.P.L.P.P.=XP.P.P.P.L.n.k.R a Y @.Y D j Y :.Y *XA.n.y.=XnXnXnX7X7XL.L.P.P.H.H.M r.u.k.u.u.H.L.P.4X5X5X4XP.H.u.P.8XMXMX&.= j < : j Q -X;X;X X X X X X X X X X X X X|.|.|.|.|.}.[.[.[.[.[.[.[.[.].].].].].OXOXOXOXOXXXXXoXoXXXXXXXXXXXXXXXXXXXXXXXXXXXXXXXXXXX`.`.`.F.F.G.G.G.Z.Z.Z.V.V.V.V.V.N.b.d.b.b.b.b.d.d.d.y.y.y.y.r.U U L L J J J J H Z Z Z Z C k k k k g d k k k k j j k k C C C K K K P P P I I U ~ ~ ~ ~ ( p.v.v.v.m.M.M.M.D.M.M.D.D.F.F.F.F.Y.Y.Y.Y.E.E.Y.Y.R.R.E.E.E.E.R.R.R.R.E.E.oXoX.X.XoXoXoXoXoXoX@X@X@X@X@X@X@X+X@X@X@X@X@X@X@X@X.X",
": : > > : : : : : : 1 1 1 1 1 1 1 1 1 1 1 1 1 1 1 1 t u i i f l l M H J J J I U U ^ ^ ^ p.p.c.c.m.B.B.M.G.G.F.F.F.E.E.E.E.oXoX@X@X@X@X@X@X@X@X@X$X$X$X$X$X$X$X$X$X$X$X$X%X#X#X#X#XOX*X*X*X*X:X:X,X,X<X>XHXHXHXHXDXZXDXZXNXMXnXNXNX7XcXMXnX6X7X8X6X~.K.j.h.h.h.#.N M a h a h a = M x N M x a x N #.h.S.I.~.^.6X6X6X>X~.~.>XdX~.^.=X=X=X=X~.n.~.K.L.>X=XL.L.L.7XP.L.=X=XP.H.P.L.H.L.4XP.P.P.L.{.P.H.y.h.N M l.Y l l T F.&.E.v.R S.~.8XnXnX8X=XL.P.P./.P.K.r r p r p r.u.H.P.3X4X5X5X3XH.r.P.cXcXzXY t j < - j Q -X;X;X X X X X X X X X X X X X|.|.|.|.}.}.[.[.[.[.[.[.[.[.].].].].].`.OXOXOXOXXXXXoXoXXXXXXXXXXXXXXXXXXXXXXXXXXXXXXXXX`.`.`.`.F.G.G.G.G.G.Z.V.V.V.V.V.V.N.b.d.b.b.b.b.d.d.u.y.y.y.y.r.L U L L J J J J H Z Z Z Z Z k k k k k d k k k k k k k k C C C K K J J J I I I ~ ~ ~ ~ ~ ( p.v.v.c.v.M.M.D.D.M.M.D.D.F.F.F.F.Y.Y.Y.Y.Y.Y.Y.Y.R.E.E.E.E.E.Y.R.R.Y.E.E.oXoX.X.XoXoXoXoXoXoX@X@X@X@X@X@X+X@X@X@X@X@X@X@XR.R..X",
": > > > 1 1 1 1 1 1 1 1 1 1 1 1 1 1 1 1 1 1 1 1 1 1 t u i i f l l M M H J J I U U U ^ ^ p.p.v.c.c.c.M.M.M.G.F.F.F.F.E.E.E.oXoX@X@X@X@X@X@X@X@X@X$X@X@X@X@X@X$X$X$X$X$X$X%X#X#X#X#XOX*X*X*X:X*X-X*X:X=XZXHXDXDXDXDXMXMXMXMXMXcXcXcXcXMXnXcX7X6X=X/.~.K.n.g.R R N N N x x x x x x x x x x x M x #.S.S.S.l.S.l.R N M M M I.E.I.~.~.zX>X~.S.S./.L.=X>X6X=XL.~.L.k.n.4XnX=X=XL.H.J.{.4XP.P.P.P.P.P.P.J.y.L &.h.&.M y f H E.h.! n.j.S.=X7XnX7X7XL.L.=XL.K.k.H.p p p p M p r.u.H.P.P.(.4X8XP.u.H.4XcXzX> j b : : = >.*X;X;X X X X X X X X X|. X|.|.|.|.}.}.}.[.[.[.[.[.].].[.].].].].`.].`.OXXXXXOXXXXXXXXXXXXXXXXXXXXXXXXXE.E.XXXXXXXXXXXX`.`.`.`.F.G.G.G.G.G.Z.V.V.V.V.n.V.N.b.d.d.d.d.d.d.d.d.y.y.y.y.r.U U L L J J J J H Z Z Z Z Z C k k k k k k k k k k k k k C C C K K K P J K I I I ~ ~ ~ ~ ( p.v.v.c.v.M.M.D.D.M.M.D.D.F.F.F.F.F.F.F.F.E.E.Y.Y.E.E.E.E.E.E.E.oXE.E.E.E.E.E..X.XoXoXoXoXoXoX@X@X@X@X@X@X@X@X@X@X@X@XR.@XR.R..X",
"> > > > 1 1 1 1 1 1 1 1 1 1 1 1 1 1 1 1 1 1 1 1 1 1 t u i i l l z z M H J J I I U U ^ ^ p.p.v.c.c.c.m.m.M.G.F.F.F.F.Y.E.E.oXoX@X@X@X@X@X@X@X@X@X$X$X@X@X@X@X$X$X$X$X$X$X%X#X#X#X#X#X*X*X*X*X*X*X*X-XZXZXZXZXZXBXZXMXcXcXcXcXcXcXcXcXcXcX7X7X=X/.P.L.K.S.h.g.R R N N x x x x x x x x M y y x N x a a a a Y Y l.A.&.Y @.f # y R S.S.S.j.~.=X/.~.=X=XK.K.>XL.n.n.nXnX=XL.L.L.P.L.P.=X{.P.P.P.{.{.P.J.n.y.L S.! z L z S.n.j.n.L.n.S.>X7XnX7X=XL.L.=XK.H.H.u.p p p p M p M u.H.P.P.P.4X8X5XP.H.4XcX>Xt h h < : > v.<X;X;X X X X X X X X X|.|.|.|.|.|.|.}.}.[.[.[.[.[.].].[.].].].].`.`.`.`.XXOXXXXXXXXXXXXXXXXXXXXXXXXXXXXXXXXXXXXXXXXXXX`.`.`.`.F.G.G.G.G.G.Z.V.V.V.V.n.V.b.b.d.d.d.d.d.d.d.d.y.y.y.y.R U U L L J J J J H Z H Z Z Z C k k k k k k k k k k k k k C C C K K K K K J I I I ~ ~ ~ ~ ( p.v.v.c.c.M.M.M.M.M.M.D.D.F.F.F.F.F.F.Y.Y.E.E.Y.Y.E.E.E.E.E.E.R.R.oXE.E.E.oXE..X.XoX.XoXoXoXoX@X@X@X@X@X@X@X@X@X@X@X@XR.R.R.R..X",
"> > > > 1 1 1 1 1 1 1 1 1 1 1 1 1 1 1 1 1 1 1 1 1 1 t u i i f l z M M H J J I I U U ^ ^ p.p.v.c.c.c.m.m.M.G.F.F.F.F.Y.E.E.oXoX@X@X@X@X@X@X@X@X@X$X$X@X@X@X@X$X$X$X$X$X$X%X#X#X#X#X#X*X*X*X*X*X*X-X-XDXNXMXnXnXcXMXzXzXzXzXzX6X6X6X6X6X6X6X6X=X/.P.K.K.S.j.g.#.#.R N x x x x x x x x y x i # # y @.A.#.Y @.Y z M &.D.E.dXI.#.a # r a k.L.~.S.~.=X=X=X>XS.y.P.nXnXL.u.J.L.P.=XP.P.P.3X=X=X=X4X4XP.H.n.y.n.y.S.L J y.L.y.S.L.L.K.L.=X7XnX6X=XL./.=XH.H.H.u.p r.p p p p M r.H.H.L.L.P.5XNX4XH.P.7X^.t 1 h 8 > > ! <X-X;X X X X X X X|.|.|.|.|.|.|.|.|.}.}.[.[.[.[.[.].].[.].].].].`.`.`.`.`.XXXXXXXXXXXXXXXXXXXXXXXXXXXXXXXXXXXXXXXXXXXX`.`.`.`.F.G.G.G.G.Z.Z.V.V.V.V.V.V.N.b.d.d.d.d.d.d.d.u.y.y.y.r.U U U U I I J J J J K K H Z Z Z k k C C k k k k k k k k C C C C K K K K K J I I I ~ ~ ~ ~ ( p.v.v.c.c.M.M.M.M.M.M.D.D.F.F.F.F.F.F.Y.Y.E.E.Y.Y.E.E.E.E.E.E.R.R.oXE.oXoXoXoX.X.XoXoX@X@X@X@X@X@X@X@X@X@X@X@X@X@X@X@X@X@X@X@X@X",
"> > > : 1 1 1 1 1 1 1 1 1 1 1 1 1 1 1 1 1 1 1 1 1 1 t u i i l l z z M H J J J I U U ^ ^ p.p.v.c.c.m.m.m.M.D.F.F.F.F.Y.Y.E.E.R..X@X+X@X@X$X$X@X@X@X@X@X@X$X$X$X$X$X$X$X$X$X#X#X#X#X#X#XOX*X-X*X*X-X<XbXMXcX>XcXzXzX=X6X6X6X6X6X>X>X>X=X=X4X4X4X/./.P.H.k.g.g.t.R R R M M M M x a a a y y = # l @.M = t # # X # # # # h @.&.l.A.R a # # # r N n.L N R n.n.=XnX7Xy.u.L.=X=X=X4XP.L.P.4X4X4X4X4X4XP.J.n.b.V.y.L.y.R y.~.y.L./.n.L.P.4X5XnX=X=X=X4X5XL.n.k.n.u.k.r.N N p N r.u.H.H.H.P.4XNX5XH.P.zX~.y = c j % , C -X-X;X X X X X X X X X|.|.|.}.|.}.}.}.}.[.[.[.[.].].].[.].].].].`.`.`.`.XXXXXXXXXXXXXXXXXXoXXXXXXXXXXXXXXXXXXXXXXXXXXX`.`.`.`.G.G.G.G.G.Z.Z.V.V.V.V.V.V.N.b.d.d.d.d.d.d.d.d.y.y.y.y.r.r.U U L L J J J J K K H Z Z Z C C C C C k k k k k k C Z C C C K K K K J J P I I ~ ~ ~ ~ ( p.v.v.c.c.c.M.M.M.M.D.D.D.F.F.F.F.F.F.Y.E.E.E.E.E.E.E.E.E.E.E.R.R..X.XE.E.oXoX.X.XoXoXoX@X@X@X@X@X@X@X@X@X@X@X@X@X@X@X@X@X@X@X@X",
"> > > > 1 1 1 1 1 1 1 1 1 1 1 1 1 1 1 1 1 1 1 1 1 1 1 u i i l l l z M M J J J I U U ! ^ ^ p.p.v.c.c.m.m.M.D.F.F.F.F.Y.Y.E.R.R..X.X.X+X+X@X@X@X@X@X@X@X@X@X@X$X$X$X$X$X$X$X#X#X#X#XOXOXOX*X*X*X*X-X<XMXbXzX>X~.>X~.K././.>X6X=X=X/.P.6X4X=X=X=X/.P.P.H.k.g.g.R R N N L N M M a a a a y y = # t = = = # X 1 : D 1 % # = = > # a M L L L L M p p L L.7XL.L.K.n.u.H.4X4X4X=XP.P.=X=X4X4X4X4X4X4X4X=XP.H.P.n.J.L.n.P.u.L.K.L.H.L.P.L.=X7XcX5XP.=XcX8X=XK.H.k.K.P.K.K.P.i.u.u.u.r.u.H.P.4X8X8Xk.K.>X~.x 8 b j : = d ;X-X;X;X X X X X X|.|.|.|.|.}.}.}.}.}.}.[.[.[.[.].].].].].].].].`.`.`.`.OXXXOXXXXXXXXXXXXXXXXXXXXXXXXXXXXXXXXXXXXXXXXXXX`.F.F.G.G.G.G.Z.Z.Z.V.V.V.V.V.V.N.b.b.b.b.d.d.d.a.a.y.y.y.r.U U U U L L I I J J K K K K Z Z C C C C C k k k k k k C C Z C Z Z C K K H J K I I U ~ ~ ~ ^ ( v.v.c.c.c.M.M.M.M.G.G.D.F.F.F.F.Y.Y.Y.Y.E.E.E.E.E.E.E.oXoXoXoXoXoXoXE.oXoXoX.X.XoXoX@X@X@X@X@X@X@X@X@X@X@X@X@X@X@X@X@X@X@X@X@X",
"> > > > 1 1 1 1 1 1 1 1 1 1 1 1 1 1 1 1 1 1 1 1 1 1 1 t u h j l l z M M H J J I I U U ^ ^ p.p.v.c.c.m.m.M.M.F.F.F.F.F.Y.Y.Y.R.R..X.X.X.X@X@X@X@X@X@X@X@X@X@X$X$X$X$X$X$X$X#X#X#X#XOXOX*X*X*X*X*X-X<XbX<X<X<X:X*XA.S.K.~./././././././././.(././.P.P.H.k.k.u.R R N N N M M M a a a a > = = t = t = # % O $ o $ X X j t = i y > # # M L L r.n.K.=XS.M n.n.J.=Xn.J.=X=X4X5X5X4X4X5X4X4X4X4X4X4X4X4X=XP.J.H.J.J.H.P.n.L.K.P.H.L.P.P.4X7XcX6XP.4XcXcX7X=XH.u.K./././.6X(.H.i.u.r.u.i.H.3XNX8Xu.k.>XE.t h c j 1 = f -X-X;X X X X|.|.|.|.|.|.|.|.}.}.}.}.[.[.[.[.[.].].].].].].].].`.`.`.`.`.OXOXOXXXXXXXXXXXXXXXXXXXXXXXXXE.XXE.E.XXXXXXXXXXXXF.F.F.G.G.G.Z.Z.Z.V.V.V.V.V.V.N.b.b.b.b.d.d.d.a.a.y.y.y.r.U U U L L I I P J J K K K K Z Z C Z Z Z C C k C C k k C Z Z C Z Z J J K H J K I I I ~ ~ ~ ^ ( ( v.v.c.v.v.M.M.M.G.G.G.F.F.F.F.Y.Y.Y.Y.XXXXE.E.E.E.E.E.oXoXoXoXoXoXoXoXoXoX.X.XoXoX@X@X@X@X@X@X@X@X@X@X@X@X@X@X@X@X@X@X@X@X@X",
"> > > > 1 1 1 1 1 1 1 1 1 1 1 1 1 1 1 1 1 1 1 1 1 1 1 t t i h f f l z M M J J I I U U ! ^ ^ p.p.v.c.m.m.M.M.D.D.F.F.F.Y.Y.Y.R.R..X.X.X.X@X@X@X@X@X@X@X@X@X@X$X$X$X$X$X$X$X#X#X#X#XOXOX*X*X*X*X*X-X<XbX*XXXM.M.v.! j.j.k.n.K.K.K.L.L.L.P././././.P.P.H.i.u.u.R L N N N M g a a a a a h t = # = t t # $ $ X X $ ; % j 2.&.l.h.N N R S.h.n.n.y.L L y.K.n.L.L.n.u.L.7X7X8X8X5X5X4X4X4X4X4X4X4X4X4X4X4X=XH.=XH.L.L.H.P.K.K.P.H.L.L.P.6X5X8X5X/.6XnXNXnX8XP.u.H.P./.K.(.(./.P.H.u.H.H.H.3XZX5Xr.k.>XI.= h c c j # d *X-X[. X X X|.|.|.|.|.|.|.|.}.}.}.}.[.[.[.[.[.].].].].].].].].`.`.`.`.`.OXOXOXXXXXXXXXXXXXXXXXXXXXXXE.E.E.E.E.E.E.Y.Y.XX`.F.F.F.G.G.G.G.Z.Z.V.V.V.V.V.N.N.b.b.b.b.d.d.d.a.a.y.y.y.r.U U U L L I I I J J K K K K Z Z Z Z Z Z Z Z C C C C C Z C Z C Z Z K K K J J P I I I ~ ~ ~ ^ ( ( v.v.c.v.v.A.M.D.D.F.G.F.F.F.F.Y.Y.E.E.XXXXE.E.E.E.E.E.oXoXoXoXoXoXoXoXoXoXoXoXoXoX@X@X@X@X@X@X@X@X@X@X@X@X@X@X@X@X@X@X@X@X@X",
": : : : 1 1 1 1 1 > 1 1 1 1 1 1 1 1 1 1 1 1 1 1 1 1 1 1 t u i i f f g M M H J J I U U U ^ ^ ( p.p.v.c.m.M.M.D.D.F.F.F.F.Y.Y.R.R..X.X.X.X@X@X@X+X@X@X@X@X@X@X@X@X$X$X$X$X$X#X#X#X#X#XOX*X*X*X*X*X,XdXdXF.>.z f T Y Y R t.h.h.z.S.K.K.K.K./././.P.P.P.H.i.u.u.L L N N M z a a a a a a y t = = = h t # X O X X O % o F A.l.S.l.S.>X^.j./.L.L.~.>XL.n.n.L.J.H.J.=X6X7XnXnX7X5X4X4X4X4X4X4X4X4X4X4X4X4X4XP.P.4XP.L.P.H.P.K.P.H.K.K./.5X4X5X5X/.7XnXNXBXNX7Xk.u.k.5XP.(.P.4X4X(.P.P.P.P.4XNX5Xr.n.>XE.# j c c h # d ].-X[.;X X X|.|.|.|.|.|.|.}.}.}.}.}.[.[.[.[.[.].].].].].].].].`.`.`.`.`.`.XXOXXXXXXXXXXXXXXXXXXXXXXXXXXXY.E.E.E.E.XX`.`.`.F.F.G.G.G.G.Z.G.Z.V.V.V.V.V.N.N.b.b.b.b.d.d.d.d.a.y.y.y.r.U U U U L I I P J J K K K K Z Z Z Z Z Z Z Z Z Z Z C C C C C C K K K K K J J P I I I I ~ ~ ~ ^ ( v.v.c.v.m.M.M.M.G.F.G.F.F.F.F.Y.Y.Y.Y.XXE.E.E.E.E.E.E.E.E.oXoXoXoXoXoXoXoXoXoX@X@X@X@X@X@X@X@X@X@X@X@X@X@X@X@X@X@X@X@X@X@X@X",
"> > 1 1 1 1 1 1 1 1 > > 1 1 1 1 1 1 1 1 1 1 1 1 1 1 1 1 t y y i f f f z M H J J J I U U U ^ ^ p.p.p.v.m.M.M.D.D.D.D.F.F.Y.Y.Y.R..XQ..X.X.X.X@X+X@X+X@X@X@X@X@X@X@X@X$X$X$X$X#X#X#X#XOX*X*X*X*XOX,X,XE.2.Y l j j j j N N g.h.h.j.n.S.n.n.K./.P.4X4XP.H.i.u.u.r.L L N M M a r a a a a x y = t t x x # = = # # = # # :.l.I.^.^.^.~.~.^.~.=X6X7X6X>X=X=X=X=X=X5X8X8X8X8X8X7X5X5X5X5X4X4X4X4X4X4X4X3X4X4X4X4X=XP.H.L.P.P.P.P.K.K.K.P.4X4X=X6XP.8XNXNXNXNXnXP.u.u./.P.(.5X5XnXZXZX4X3XP.4XDXP.r.S.>XI.h = | % 1 u d ].-X[.;X|.|.|.|.|.|.|.|.|.}.}.}.}.}.[.[.[.[.[.].].].].].].].`.`.`.`.`.`.`.`.XXXXXXXXXXXXXXXXXXXXXXXXXXY.XXXXXXXXXXXXXXF.F.F.F.F.G.G.G.G.G.V.V.N.V.V.N.N.N.N.b.b.b.b.b.d.d.a.y.y.y.r.U U U U U U I P P K K K K K K Z Z Z Z Z Z Z Z Z Z Z Z Z Z Z K K K K J K K P I I I E E ~ ~ ^ ( ( v.v.v.v.m.M.M.M.G.F.F.F.F.Y.E.E.E.E.E.XXXXE.E.XXXXXXXXXXXXoXoXoXoXoXoX@X@X@X@X@X@X@X@X@X@X@X@X@X@X@X@X@X@X@X@X@X@X@X.X.X.X@X",
"> > > 1 1 1 1 1 1 1 1 1 1 1 1 1 1 1 1 1 1 1 1 1 1 1 1 1 t y y i a f f z M H J J J I U U U ^ ^ ( p.p.v.m.M.M.D.D.D.D.F.F.Y.T.R.R.Q.Q..X.X.X.X@X@X+X+X@X@X@X@X@X@X@X@X$X$X$X$X#X#X#X#X#XOX*X*X*XOX,X#XD.%.D x h h h h x N #.#.#.h.j.j.k.k.H.P.P.4X4XP.P.H.u.r.N N M M z a a r r a a a y y y x a a N N y = # = x x x l.~.^.^.~.S.S.^.zX/.=X>X7X7X7X8XcX7X7X8XcXnXnXnXnX8X8X8X5X4X5X4X5X4X4X4X3X3X3X3X3X4X3XP.P.P.P.P.P.L.K.H.H.K.L.=X4X=X4X/.8XnXnXnXnXNX7XK.u.H.P.4X8X8X8XNXDXNX5X4X8XNXH.L K.>XA.h 8 m : 1 t f *X-X}.|.|.|.|.|.|.|.|.|.|.|.}.}.}.}.[.[.[.[.[.].].].].].].].`.`.`.`.`.`.`.`.XXXXXXXXXXXXXXXXoXoXXXXXXXY.Y.XXXXXXXXXXXXXX`.F.F.G.G.G.G.G.G.V.V.V.V.V.V.V.N.N.b.b.b.b.b.d.d.a.y.y.y.r.r.U U U ! U I I I I P K K K K K K Z K K Z Z Z Z Z Z Z Z Z K K K P P P K P I I I ~ ~ ~ ~ ~ ^ ( ( v.v.v.m.M.M.M.G.G.F.F.F.F.E.E.E.E.XXXXXXXXoXoXoXoXoXoXoXoXoXoXoXoXoXoX@X@X@X@X@XoXoXoX@X@X@X@X@X@X@X@X$X@X@X@X@X@X.X.X.X.X@X",
"> > > > 1 1 1 1 1 1 1 1 1 1 > > 1 1 1 1 1 1 1 1 1 1 1 1 t y y i a f f z M H J J J I U U U ^ ^ ( p.p.v.v.M.M.D.D.D.D.F.F.Y.Y.T.R.Q.Q.Q.Q..X.X@X@X+X+X@X+X@X+X@X@X@X@X@X@X$X$X#X#X#X#X#XOX*X*XOX*X,XA.l j : 1 8 8 8 h x x N #.#.#.h.h.h.h.k.K./.4X4X5X4XP.H.u.L L L N z a a a r a a a a x N N x y N l.= t # # # x l.dX~.~.S.K.dXdX>X^.>X6X7X7X7XzXcXcX8XcXnXnXnXnXnX8X8X8X8X8X5X5X4X5X5X5X4X4X3X3X3X3X3XP.P.P.P.P.P.L.H.H.H.H.H.K.P.5X=X4X=X7XnXnXnXnXNXNX=Xu.k.K.4X8X8X8X5X8X8X(.4XNX5Xu.L L.>X&.h h c h h > g *X-X;X|.|.|.|.|.|.|.|.|.|.|.}.}.}.}.[.[.[.[.[.].].].].].].].`.`.`.`.`.`.`.`.XXXXXXXXXXXXXXoXoXoXoXXXE.Y.Y.Y.XXXXXXXXXXF.F.F.F.G.G.G.G.G.G.V.V.V.V.V.V.N.N.b.b.b.b.b.b.d.d.a.y.y.y.y.r.^ ^ ! ! ! U U E E E E E E P P K T P P T T T T T D D K K P P P P I I I I E E ~ ~ ~ ~ ~ ~ ^ ( ( v.v.v.m.M.M.M.G.G.F.F.F.F.E.E.E.E.XXXXXXXXoXoXoXoXoXoXoXoXoXoXoXoX@X@X@X@X@X@X@X@XoXoX@X@X@X@X@X@X@X@X@X@X@X@X@X@X.X.X.X.X@X",
"> > 1 1 > > 1 1 1 1 1 1 1 1 1 1 1 1 1 1 1 1 1 1 1 1 1 1 1 y i i f f f z z M J J J J U U U ^ ^ ( ( p.v.v.v.M.D.D.D.D.D.D.Y.Y.T.T.R.W.R.R..X.XQ.R.@X@X@X@X@X@X+X+X@X@X@X@X$X@X#X#X#X#X#X*X*X*X:X:X:XT t u 1 1 1 < < 1 h x M N N R #.#.h.t.h.n./.4X5X8X4XP.P.L.y.y.y.t.R M z f a a a a a M N M a y N #.I.R # = M ^.:XA.S.S.S.~.~.>XdX>XzX7X7X7X7X7X7X5XnXnXnXnXnXnX8X7X7X5X8X8X8X5X4X4X4X4X4X4X3X3X3X3X(.P.P.P.P.H.H.H.H.H.H.u.u.K.P.4X4X=X4X7XnXcXnXnXnXNX5Xk.k.P.4X4X8XcX8X5X8X5X5X8XP.r.L /.>X#.j b h b h = k *X;X;X|.|.|.|.|.|.|.|.|.|.|.}.}.}.}.[.}.[.[.[.].].].].].].`.`.`.`.`.`.`.`.`.XXXXXXXXXXXXXXXXE.E.E.E.Y.Y.Y.Y.F.F.F.F.F.F.F.F.F.G.G.G.G.G.G.V.V.V.V.V.V.N.N.b.b.b.b.b.b.d.d.y.y.y.y.y.^ ^ ^ y.y.^ ! ! ~ E E E E E E W P P W W P P T P P P P T T K K K P P I E E E ~ ~ ! ! ! ~ ~ ^ ( ( v.v.c.m.M.M.G.G.G.F.F.F.E.E.E.E.XXXXXXXXXXXXXXoXoXoXoXXXXXE.E.oXoX@X@X@X@X@X@X@X@X@X@XoXoXoXoX@X@X@X@X@X@X@X@X@X@X.X.X.X.X@X",
"> > 1 1 > > 1 1 1 1 1 1 1 1 1 1 1 1 > > > > > > > 1 1 1 1 t i i f a f z g z J J J J I U ~ ! ^ ^ ( p.v.v.v.A.D.D.D.D.D.D.U.U.T.T.T.T.R.R.Q.Q.R.R..X.X@X@X@X@X@X@X@X@X@X@X$X@X#X#X#XOXOXOX:X:X:X,X,Xu i u 1 = < < < 1 h x M Y Y Y @.Y #.#.R t.L.6X8X8X8X4X=XP.J.L.K.L.S.S.n.h.R L f a M R x a x M N &.l.S.E.E.~.I.l.Y h.z.K.=X>X>XzXcXzXzX7X7X7X8X8X7XnXnXnXnXnXnXnXnX8XnX8X7X5X5X4X4X4X4X4X4X4X4X4X3XP.P.P.P.H.H.H.H.r.u.u.u.u.K.P.4X4X=X5X7XnX8XnXnXcXnX4Xk.H.L.(.4X4X8XnX8X8X5X4X4Xu.L r.6X^.Y h 8 5 D h 1 Z *X;X;X;X X X X X|.|.|.|.|.|.[.}.[.}.[.[.].].].].].].].].`.`.`.`.`.`.`.`.`.`.XXXXXXXXXXXXXXXXE.E.E.Y.Y.Y.Y.Y.Y.Y.Y.F.F.F.F.F.F.G.G.G.G.G.V.V.V.V.V.V.V.b.b.b.b.b.b.b.d.d.d.a.y.y.y.y.y.y.y.y.y.y.^ ~ ! ~ ~ ! ! E Q Q W W W W W P P W P P P P P P P P P K E E E E ~ ~ ! ! ! ~ ~ ( ( p.v.v.v.m.M.M.D.G.G.F.F.F.E.E.E.E.E.XXXXXXXXoXoXoXoXoXoXXXXXoXoXoXoX@X@X@X@X@X@X@X@XoXoXoX@XoXoX@X@X@X@X@X@X@X@X@X@X.X.X.X.X@X",
"> > 1 1 1 > 1 1 1 > 1 1 1 1 1 1 1 1 > > > > < < < < 1 1 1 t u i f f f l g z H J J J I U U U ^ ^ ( ( v.v.c.A.A.M.D.D.D.D.D.U.U.T.R.R.T.T.Q.Q.Q.Q.Q.Q.R.R.Q.Q.@X@X+X+X@X@X@X@X@X#XOXOXOX*X:X:X:X,X,Xu > > = = # = 1 i l M Y @.@.@.@.@.@.Y R R k./.8XcX8X8X5X=XP.=X>X>X>X>X~.~.S.S.S.S.A.h.N R h.h.h.h.E.S.j.R R h.h.! n.L.=X6XcXzX7X>X7X7XcXcXcXcX8X8XnXnXnX8X8XnX8X8XnXnXnX8X8X8X5X4X4X4X4X3X4X4X4X4XP.P.P.H.H.H.H.H.u.u.u.u.u.H.P.=X4X=X7X4XNX8XnXnX7X8XP.u.H.H.P.P.5X5X5X5X5X4X(.P.r.L H.zX~.x h c 5 b j i E -X-X-X;X X X X|.|.|.|.|.|.|.[.[.[.}.[.[.].].].].].].].].`.`.`.`.`.`.`.`.`.`.XXXXXXXXXXXXXXE.E.Y.Y.Y.Y.Y.Y.F.F.F.F.F.F.F.F.F.F.G.G.G.G.G.V.V.B.V.V.V.V.b.b.N.b.b.b.b.d.d.d.a.a.y.y.y.y.y.y.y.y.^ ^ ~ ~ ~ ~ ~ ~ E Q Q W W W P P P W W W P P P P P P P P K E E E E ~ ~ ! ! ! ~ ~ ( ( p.v.v.c.m.M.D.M.D.G.F.F.F.XXE.XXXXXXXXXXOXXXoXoXoXoXoXoXoXoX#X#X#X@X@X@X@X@X@X@X@X@XoXoX@XoX@X@XoXoX@X@X@X@X@X@X@X@X.X.X.X.X@X",
"> > > > > > 1 1 1 > 1 1 1 1 1 1 1 1 > > > > < < < < < 1 1 t u i f f f l g z H J J J I U U U ^ ^ ( ( p.v.v.v.A.A.D.D.D.D.D.U.U.T.R.R.R.T.W.W.Q.R.Q.Q.R.Q.R.R.@X@X@X@X@X@X@X@X@X#XOXOXOX*X*X*XOX-X*X, > > 1 1 j x D F D D Y Y x x x x x x M M N ~.cXnXcX8X8X4X=X=X7XzXcXzX<X>X=X>X>X<X:XE.h.j.j.j.j.h.R R R R y.R R h.K.~.=X>XL./.7XcX7X8X8XcXnXnXnXnXnXnX8X8X8X8X8X8X8XnXnX8X8X8X5X4X4X4X3X3X4X4X4X3XP.P.L.H.H.H.H.i.u.u.u.u.u.H.L.=X=XP.8X=XnX7XnXnX5X4XK.r.H.H.P.P.P.4X8XnX8X4XH.u.r.r.=XcXS.h 8 m c c j < T <X-X-X;X X X X X|.|.|.|.|.|.[.[.[.}.[.[.].].].].].].].].`.'.`.`.`.`.`.`.`.`.XXXXXXXXXXXXXXE.E.Y.Y.Y.Y.Y.Y.F.F.F.F.F.F.F.F.F.F.G.G.G.G.G.G.B.B.N.N.N.N.N.b.N.b.b.b.b.d.d.d.a.a.a.y.y.y.y.y.y.y.^ ^ ~ ~ ~ E Q Q E Q Q P P P P P P P W W P P P P P P P P E E E E E ~ ~ ~ ~ ! ~ ~ ( ( ( v.v.c.v.M.M.M.M.G.F.F.F.XXE.XXXXXXXXXXOXXXoXoXoXoXoXoXoXoX#X#XoX@X@XoXoXoX@X@X@X@XoXoX@X@X@X@XoXoX@X@X@X@X@X@X@X@X@X@X@X@X@X",
"> > > > > > 1 1 1 1 > > > > 1 1 1 1 > > > > < < < < 1 1 1 t u i i f f l z M H J J J I U U U ^ ^ ( ( p.v.v.v.A.A.D.D.D.D.D.D.U.T.T.T.T.T.W.W.R.R.R.R.R.Q.R.R.R.@XR.@X@X@X@X@X@XoXOXOXOXOXOX*XOX*X*X, 1 h j x Y Y Y Y l l x x h h h x h h a a a S.zXNXnX8X8X8X4X7XcXnXMXnXzX7XzXzXzXzX>X>XS.h.R h.h.R N N L L L R j.~.8X7X7X7X7X8X8X8XcX8X7X7XnXnXnXnXnX8X8X7X7X8X7X7X7X8X8X8X5X5X4X4X3X4X4X4X4X4X4X3XP.P.L.H.H.H.i.i.u.u.r.u.u.n.H./.P.P.cXP.cX6X7X8X7X4XK.u.P.P.P.P.P.8XnX8XP.P.H.u.r.u.7XzXA.= = | } c j = C -X*X;X;X X X X X|. X|.|.|.}.}.}.}.}.[.[.].].].].].].].].'.'.`.`.`.`.`.`.`.`.XXXXXXE.E.E.E.E.E.Y.Y.Y.Y.Y.Y.F.Y.F.F.F.F.F.F.F.F.G.G.G.G.V.V.V.B.N.N.N.N.N.N.N.b.b.b.b.d.d.d.d.a.a.a.p.^ ^ ^ ^ ^ ^ ! ! ~ E E E E Q Q Q P P P P P P P P P P P P P P P P P E E E E E E ~ ~ ! ! ~ ~ ( ( ( v.v.c.v.M.M.M.M.G.F.F.E.E.E.XXXXXXXXXXOXXXoXoXoXoXoXoXoXoX#X#XoXoXoXoXoXoX@X@X@X@XoX@X@X@X@X@X@X@X@X@X@X@X@X@X@X@X@X@X@X@X@X",
"> > > > > > > > > > > > > > > > : : > > > > > > < < 1 1 1 1 i i f f f f z z z J J J J I U U ^ ^ ^ ( p.v.v.v.A.A.D.D.D.D.D.D.U.U.T.8.T.T.R.R.R.R.R.R.R.R.R.R.R.R.R.R.R.R.@X@XoXOXOXOXOXOXOX*XOX*X*XZ # x h x W Y l Y z f y t = # X # # h x i y z MXNXZXnX8XnXnXnXnXnXnXnXzXzX6X>X=X~.~.L.K.K.S.n.j.j.h.t.k.n.L./.=X6X6X6X7X5X7X6X4X=XP.=X5X8XnXnX8X8X8X8X8X8XnX8X8X7X8X8X8X8X5X5X4X=X=X4X4X4X4X4X4X4XP.P.H.H.i.i.u.u.u.u.H.u.k.H.H.P.P.P.=XP.8X4XnX8X5X7XP.d.L.4X4X5X5XnXnX5X3XH.u.u.r.L.cXzX&.= = ` O.0 S : , G.2X;X-X;X|.|. X|. X|.|.|.|.}.}.}.}.[.[.].].].].].].].'.'.`._.`.`.`.G.G.F.`.XXXXXXE.E.Y.Y.Y.Y.Y.Y.Y.Y.Y.Y.F.F.F.F.F.F.F.F.F.F.G.G.M.G.B.B.B.N.N.N.N.N.b.b.b.b.b.b.b.d.d.d.d.a.a.p.p.^ ^ ^ ^ ^ ^ ~ ~ ~ E E E E Q Q Q P P P P P P P P P P P P P P P P P K K E E I E ~ ~ ~ ~ ~ ~ ~ ( ( ( v.v.v.M.M.M.M.G.F.F.F.E.E.XXXXXXXXXXOXoXoXoXoXoXoXoXoXoX#X#X#X#X#X#X@XoX#X@X@X@XoXoXoXoX@X@X@X@X@X@X@X@X@X@X@X@X@X@X@X@X@X",
"> > > > > > > > > > > > > > > > > > > > > > > > < < < 1 1 1 i d j f f f g z M J J J J I U U ^ ^ ^ ( p.v.v.v.A.A.D.D.D.D.D.D.8.8.8.8.T.8.R.T.T.T.T.T.R.R.R.R.R.R.R.R.R.R.@XoXoXoXOXOXOXOXOX*XOX*X*X>.= 1 D Y Y Y z H y a t # # # # = = # # = # # MXDXZXnX8X8X8XnX8XnXnXnXcXcXzX6X=X=XL.K.S.n.S.n.n.n.K.n.n.n.~.~.L.L.6X4X=X=X/./.=X=X8X8X5X5X4X5X7X7XnXnXnXnXnXnX8X8X8XcXnX8X8X4X4X=X3X4X4X4X4X4X4X3XP.L.H.H.u.u.u.u.u.u.H.u.k.H.H.P.P.P.P.P.5XP.5X5X7X7X=XH.P.P.P.8XNXNX8X(.H.i.u.r.k.=XnX>XY = 5 m *.0 b h u G.<X;X-X-X|.|. X|. X|.|.}.}.}.}.}.[.[.[.[.].].].].].].'.'.`._.`.`.`.`.`.`.`.XXXXXXE.E.Y.Y.Y.Y.Y.Y.Y.Y.Y.Y.F.F.F.F.F.F.F.F.F.F.G.G.M.G.B.B.B.N.N.N.N.N.b.b.b.b.b.b.b.d.d.d.d.a.a.y.^ ^ ^ ^ ^ ^ ^ ~ ~ E E E E E Q Q W P T P P P T T K K T K T T K K P P K K K K I I E ~ ~ ~ ~ ~ ( ( ( >.v.v.c.v.M.M.M.G.F.F.F.F.E.XXXXXXXXXXOXoXoXoXoXoXoXoXoXoX#X#XoX#X#X#X@X@X@X@X@X@XoXoXoX@X@X@X@X@X@X@X@X@X@X@X@X@X@X@X@X@X@X",
"> > : : : : > > > > > > > > > > > > > > > > > > < < 1 1 1 1 i d j f f f z g M J J J J I U U ^ ^ ^ ( p.v.v.v.A.A.D.D.D.D.D.D.8.8.8.8.8.T.T.T.T.T.T.T.R.R.R.R.R.R.R.R.R.R.@XoXoXoXOXOXOXOXOX*X*X*X*X*XZ = D Y T Q z l y y > # = % % = 5 # X # # X ZXDXZXnX8X8X8X8X8XnXcXnXnXnXMXcX7X>X=XL.K.n.n.n.K.K.S.k.k.n.k.k.k.k.k.n.H.K.L.=X7XnX7X7XnXnXnXnXnXNXcXnXnXnXnXnXnXnXnXnXnXnX8X5X4X=X3X3X=X=X(.(.(.P.P.H.H.u.u.u.u.u.i.u.u.u.i.H.H.P.P.K.P.P.4XP.4X4X=X{.L.H.H.L.P.8XNX8X(.H.u.i.k.u.P.8XcXG.l = 8 b *.5 8 k s M.;X;X-X-X|.|. X|.|.|.|.}.}.}.}.[.[.[.[.[.].].].].].].'.'.`._.`.`.`.`.`.`.`.XXXXXXE.E.Y.Y.Y.Y.Y.Y.Y.Y.Y.Y.F.F.F.F.F.F.F.F.F.F.G.G.M.G.B.B.B.N.N.N.N.N.N.N.b.b.b.b.n.d.d.d.a.a.p.^ ^ ^ ^ ^ ^ ^ ^ ~ ~ E E Q Q Q Q Q W P P P P P T T T K K K K K K K K P K K K K I I E ~ ~ ~ ~ ~ ( ( ( >.v.v.c.m.M.M.M.G.F.F.F.F.E.E.XXXXXXXXOXoXoXoXoXoXoXoXoXoX#X#X#X#XoXoXoXoX#X@X@X@XoXoXoXoX@X@X@X@X@X@X@X@X@X@X@X@X@X@X@X@X@X",
"> > : : > > > > > > > > > > > > 1 1 > > > > > > 1 1 < < 1 1 i d f f f f g M z J J J J I U U ^ ^ ^ ( ( v.v.v.v.A.A.A.A.D.D.8.8.8.8.8.8.T.T.T.T.T.T.T.R.R.T.R.R.R.R.R.R.R.R.oXoXOXOXOXOXOX*X*X-X*X*X<XF.i k T Z Y z f l y > t h = % = = 1 h > # # HXDXNXNX8X8X8X8X8XnX7X8XnXMXBXnX8X5X5X=XP.H.n.K.L.L.K.n.K./.=X=X5X8X7X7X5X6X5X5X7X8X4X5X7X8X5X4X=X=X7X8XnXnXnXnXnXNXnXnXnXnX5X4X4X=X4X4XP.P.P.P.P.P.L.H.n.u.u.u.u.u.i.i.u.u.H.H.H.P.L.H.P.K.4XP.6X4X4X{.L.L.=X5XnXNX8XP.H.u.u.H.K.H.6XnXzXl.i = 8 m | % % b s M.-X;X-X-X|.|. X|.|.|.|.}.}.}.}.[.[.[.[.[.].].].'.].].'.`.`._.`.`.`.G.G.F.`.XXXXXXE.E.E.E.Y.Y.Y.Y.Y.Y.Y.F.F.F.F.F.F.F.F.F.F.F.G.G.M.M.G.B.B.N.N.N.N.N.b.b.b.b.b.b.b.d.d.a.a.y.p.^ ^ ^ ^ ^ ^ ^ ~ ~ E E E E E E Q P E P P P P P P P P P P P P P P K K P K K K K P I E ~ ~ ~ ~ ~ ~ ( ( ( v.v.v.v.M.M.M.M.F.F.F.F.F.E.XXXXXXXXOXoXoXoXoXoXoXoXoXoX#X#X#X#XoXoXoXoX#X#X@X@XoXoXoXoX@X@X@X@X@X@X@X@X@X@X@X@X@X@X@X@X@X",
"> > > > > > > > > > > > > > > > 1 1 1 > : : 1 1 1 1 1 < 1 1 i d f f f f g M M J J J J I U ! ! ! ^ ( ( v.v.v.v.v.v.A.A.D.D.D.8.8.8.8.0.0.T.T.T.T.T.T.R.R.T.R.R.R.R.R.R.R.R.oXoXoXOXOXXXOX*X`.*X*X*X*X-XE y H ! T H H y i i = # % =   o X % : > z HXAXNXnXnX8X7X8X7X7XnXnXnXnXnXnXnXnX8X7X4X=XP.L.K.J.P.P.P.P.P.P././.=X=X4X5X7X7X8XnXnXnXnXNXnXnXnXnXNXNXnX8XnX8X8XnX5X5X7X5X5X4X4X4X4X4X=XP.P.P.P.P.H.H.u.u.u.u.u.u.u.u.u.u.H.H.K.H.H.H.H.H.P./.6X/.P.L.H.L.7XNXNXnX4XH.u.u.u.H.K.P.7XnX=XY = = 8 0 [ 3 X j , >.-X;X;X-X|.|. X X|.|.|.|.}.}.}.}.}.[.[.[.[.].].].].].].'.`.`.`.`.`.`.`.`.`.XXXXE.E.E.E.E.E.Y.Y.Y.Y.Y.Y.Y.F.F.F.F.F.F.F.F.G.G.G.M.M.M.G.M.B.N.B.B.M.B.b.b.b.b.b.b.d.d.a.a.y.y.y.y.( ^ ~ ~ ^ ^ ! ~ E E Q Q Q Q P P P P P P P P P K P P P P P P K K K K K K K K K I I E ~ ~ ~ ~ ~ ( ( ( >.v.v.c.v.M.M.M.G.G.F.F.F.E.XXXXXXXXoXoXoXoXoXoXoXoXoXoXoX@X#X#XoXoXoXoX#X#X@X@X@XoXoXoX@X@X@X@X@X@X@X@X@X@X@X@X@X@X@X@X@X",
"> > > > > > > > > > > > > > > > 1 1 : : : : 1 1 1 1 < < 1 1 i d f f f f g g H J J J I I U ! ! ! ^ p.>.>.>.v.v.v.v.A.A.8.8.8.8.8.8.8.0.0.T.T.T.T.T.T.U.U.T.T.R.R.T.R.R.R..X.XoXoXOXXXXXXX*XOX*X*X*X*X-Xv.J C E T H H k > = 1 % o ; ; b o # = > D.HXDXNXnXcX8X7X8X7X7XcXcXcXcXcXnXcXnXnX8X8X7X5X=XP.L.L.L.L.L.=X=X=X=X7X7X8X8X8X8XnXnXnX8XnXnXnXnXNXZXNXNXnX8XnX8X8X8X7X5X5X4X4X4X4X4X4X4XP.P.P.P.P.L.H.i.u.u.u.u.u.u.u.H.u.u.H.H.L.H.H.L.H.H.L.P./.P.P.H.y.u.P.5X5XP.H.k.t.t.k.K.(.6X7X7XG.M = 1 5 8 m 8 O j , Q *X-X;X-X X X X X|.|.|.|.|.}.}.}.}.[.[.[.[.].].].].[.].'.'.`.`.`.`.`.`.`.XXXXXXE.E.E.E.E.E.Y.Y.Y.Y.Y.Y.Y.F.F.F.F.F.F.F.F.G.G.G.M.M.M.G.G.B.N.b.b.M.M.b.b.b.b.b.b.d.a.a.a.y.y.y.^ ^ ^ U U ! ! ~ E E E P P P P P K P K D D K D K K T T T T P K K K K K K K K K K K I I E E I ~ ~ ~ ( ( >.v.v.c.v.v.M.M.G.D.F.F.F.E.XXXXXXXXoXoXoXoXoXoXoXoXoXoX#X#X#X#XoXoXoXoX#X#X@X@XoXoXoXoX@X@X@X@X@X@X@X@X@X@X@X@X@X@X@X@X@X",
"> > : : > > > > > > > > > > > > 1 1 : : : : 1 1 1 1 1 1 1 1 i d d f f f g g M J J J J I U ! ! ! ^ ^ >.>.>.v.v.v.v.>.A.2.8.8.8.8.8.8.8.8.T.T.T.T.T.T.U.U.U.U.T.T.T.T.R.R.R..XoXoXXXOXXXF.OX`.OX*XOX`.-X].v.V H E E H j # # 1 = X % 5 S O $ : : VXHXDXNXnXnX8X7X8X8X8X8X8X8X8XcXcXnXnXnXnXnXnXnX8X5X=X4X4X4X=X=X=X=X=X=X6X5X7XcXnXnXnXcXnXnXnXnXnXnXnXNXNXnXcXcXcX8X5X5X5X4X=X4X4X4X4X4XP.P.P.L.L.L.H.H.u.u.u.r.u.u.u.i.H.u.u.H.k.L.H.H.L.H.H.H.K.P.L.P.H.u.u.d.H.H.u.t.t.t.t.k.K.4X7X7X=Xh.i y 1 8 5 w 8 $ < , g `.-X;X;X X X X X|.|.|.|.|.}.}.}.}.}.}.[.[.[.].].[.[.].'.'.`.`.`.`.`.`.`.XXXXXXE.E.E.E.E.E.Y.Y.Y.Y.Y.Y.Y.F.F.F.F.F.F.F.F.G.G.G.M.M.G.G.G.B.B.b.b.M.M.b.b.b.b.b.d.a.a.a.a.y.y.y.^ ^ U U U U U ~ E E P T T P P K K K Z Z Z D D K K K K K K P K K K Z Z K K K K K K I I E E I I ~ ~ ( ( ( >.v.v.v.v.M.M.D.D.F.F.F.E.XXXXXXXXXXXXoXoXoXoXoXoXoXoX#X#XoX#XoXoXoXoXoXoX@X@XoXoXoXoX@X@X@X@X@X@X@X@X@X@X@X@X@X@X@X@X@X",
"> > : : : : > > > > > > > > > > > : : : > > 1 1 1 1 1 1 1 t i d d f f z g g M J J J J I U U ~ ! ^ ^ >.v.v.v.v.v.v.>.2.8.D.8.8.8.8.8.8.8.T.T.T.T.T.U.U.U.T.T.T.T.T.T.R.R.R..X.XXXXXXXXXF.OXOX`.*X`.`.].*X-XI g E Q T = % > 8 % X O X O X : < : JXHXHXNXNXcXcX7X7X7X7X8X8X8X8XcXcXnXnXNXnXnXnXNXnXnX8X4X4X4X4X4X4X4X4X7X7XcXnXcXcXnXnXnXnXNXNXNXNXNXZXNXNXnX8X8XcX7X=X7X4X=X=X=X=X4X4X4XP.P.P.H.H.H.H.d.u.u.r.u.u.u.u.u.H.u.u.i.k.K.H.H.H.H.H.L.P./.P.L.n.u.d.u.u.r.r.N g.k.k./.4X6X8X6X~.R > i 1 : % 8 0 % : # , G.-X;X;X X X|.|.;X;X|.|.|.|.|.}.}.}.}.[.[.[.].].[.].].'.'.`.`.`.`.`.`.`.`.XXXXE.XXE.E.Y.Y.Y.Y.Y.Y.Y.Y.Y.F.F.F.F.F.F.F.F.F.G.D.G.M.G.G.G.B.N.b.b.b.b.b.c.b.d.d.a.a.a.a.y.y.y.^ ^ ! ! U U U U E I E P P K K K K K Z Z Z Z Z D D D K K K K K K K K Z Z H H K K K K P I I E E I E ~ ~ ( ( >.v.v.v.v.M.M.D.F.F.F.E.E.XXE.XXXXXXXXoXoXoXoXoXoXoXoX#X#XoXoXoXoXoXoXoXoX@XoXoXoXoX@X@X@X@X@X@X@X@X@X@X@X@X@X@X@X@X@X@X",
": : : : : : : : : : : : : : > > > : : : 1 1 1 1 1 1 1 1 1 u i i d f f z g z z H J J J I I ! ! ! ^ ( >.>.v.v.v.v.v.>.2.8.8.8.8.8.8.8.8.8.T.T.T.T.U.U.U.U.U.T.T.T.T.T.R.R.R.R..XXXXXXXXX`.XX`.`.`.`.`.].[.-X`.( J H T , # b j X % X X $ % < h %.JXJXHXNXcX8X7X7X7X7X7X8X8X8X8X8X8XnXnXnXNXnXnXNXnXNXNXnXnX8X8X7X7X7X7X8XnXnXnXnX8XnXnXNXNXNXNXNXNXNXNXNXnXcX8X7X5X4X4X=X4X/.=XP.P.4X4X=XP.P.L.H.K.H.H.u.u.r.u.u.u.u.u.k.H.u.u.k.u.H.H.H.H.H.H.P.P./.P.K.H.n.H.n.n.k.n.H.K.K.P.cXcXcXcX/.n.M a = h c 8 5 0 % % < , >.-X;X;X X X X X;X;X|.|.|.|.|.|.}.}.}.[.[.[.].].].].].'.'.`._.`.`.`.`.`.`.XXXXXXXXXXY.Y.Y.Y.Y.Y.Y.Y.Y.Y.Y.Y.F.F.F.F.F.F.F.F.D.G.M.G.G.G.B.B.N.N.N.b.b.c.b.d.d.a.a.p.a.y.y.y.^ ! ! U U U U I E I P K K D K K Z Z Z Z Z Z Z Z Z Z T T K K K Z Z Z Z Z Z Z K K K K P I E E I E ~ ~ ~ ( ( >.v.v.v.A.M.D.D.F.F.F.F.E.XXXXXXXXXXXXoXoXoXoXoXoXoXoXoXoXoXoXoXoXoXoX@X@X@X@XoX@X@X@X@X@X@X@X@X@X@X@X@X@X@X@X@X@X$X$X@X",
": : : : : : : : : : : : : : > > > > : : 1 1 1 1 1 1 1 1 t u i i f f f k z z M H J J J I I ! ! ! ^ >.>.>.v.v.v.v.v.v.2.2.D.8.8.8.8.8.8.8.8.8.T.T.U.U.U.U.U.T.T.T.T.T.R.R.R.R.oXXXXXXXXX`.XXOX`.`.`.`.].].[.-X*XM.v.Z = # : 1 h O % =   5 # 1 A.JXJXDXNX8X8X7X7X5X7X7X8X8X8X8X8X8XnXnX8XnXnXnXNXnXNXNXnXnXnX8XnXnX8XnXnXnXnXnXnXcXnXNXNXNXNXNXNXNXMXMXnXcX8X8X5X5X4X=X=X4X/.4X=XP.4X4X4XP.P.L.H.H.H.u.u.r.r.u.u.u.u.u.k.k.u.u.u.u.H.H.H.H.H.H.H.K.K.K.H.H.H.L.P.P.P.P./.4X5X7XBXnXcX8X/.y.a y i h 8 ; 6 8 % : < , ~ <X;X;X X X X X|.;X|.|.|.|.|.|.}.}.}.[.[.{.[.].].].].'.`._._._.`.`.`.`.`.XXXXXXXXXXY.Y.Y.Y.Y.Y.Y.Y.Y.Y.Y.Y.F.Y.F.F.F.F.F.F.G.G.G.G.B.B.B.B.B.N.N.b.b.c.b.d.d.a.a.a.y.y.y.y.^ ! ! U U U I I E I P P D D Z Z Z Z Z C Z Z Z Z Z Z Z D Z Z D Z Z Z Z Z Z Z Z Z H K K I E E I I ~ ~ ~ ^ >.>.v.v.v.A.D.D.D.F.F.F.Y.Y.XXE.E.E.XXXXoXoXoXoXoXoXoXoXoXoXoXoXoXoXoXoX@X@X@X@XoX@X@X@X@X@X@X@X@X@X@X@X@X@X@X@X@X@X$X$X@X",
": : : : : : : : : : : : : : > > > : : : 1 1 1 1 1 1 1 1 t u i d f l k l z z M H J J J I I U ! ! ! &.>.>.v.v.v.>.>.>.2.2.D.8.8.8.8.8.8.8.8.8.U.U.8.8.U.U.U.U.T.T.T.T.T.R.R.R.oXXXXXXXXX`.XXOX`.`.`.`.].].].[.-X*X*X! t , u j x # # % : 8 1 :.:XJXJXNXNXnX8X7X5X5X7X7X8X8X8X8X8X8XnXnXnXnXnXnXNXNXNXNXnXnXnX8XnXnXnXnXnXnXnXNXNXnXNXNXNXNXBXNXBXBXnXnXcX8X7X7X5X5X4X=X=X4X/.4X4XP.4XP.P.P.P.L.H.H.u.u.r.r.u.u.k.n.n.n.k.u.u.u.u.u.H.H.K.H.H.H.K.K.K.L.K.H.L.P.6X6X5X5X7X8X8XcXBXcX8X6XK.N r y h u < 6 6 8 % ; < = K <X;X;X X X X X;X;X X X X|.|.|.|.}.}.}.}.[.[.[.[.[.].'.'.`.`._.`.`.`.`.`.XXXXXXXXXXY.Y.Y.Y.Y.Y.Y.Y.Y.Y.Y.Y.Y.F.F.F.F.F.F.F.G.G.G.G.G.B.B.B.N.N.N.b.b.c.b.d.d.a.a.a.y.y.y.y.! ! ! U U U I I I K P P D D Z Z Z Z C C C C Z Z Z Z Z Z Z Z Z Z Z C C C Z Z K K K K K I I E I I E ~ ~ ^ ( >.v.v.v.v.A.D.D.D.F.F.Y.Y.E.E.E.E.XXXXoXoXoXoXoXoXoXoXoXoXoXoXoXoXoXoX@X@X@X@X@X@X@X@X@X@X@X@X@X@X@X@X@X@X@X@X@X@X$X$X$X",
": : : : : : : : : : : : : : > > 1 1 : : 1 1 1 1 1 1 1 1 t u i d f l k l z z z H J J J I I U ! ! ! ^ >.>.>.v.v.>.v.>.2.2.8.8.8.8.8.8.8.8.8.8.8.8.8.8.8.8.U.U.U.T.T.T.T.T.R.R.R.Y.XXXXXX`.`.`.`.`.`.`.'.].].].`.*X,XD.# X k d D h # = # = Y I.VXJXHXMXMXcX8X8X5X5X7X7X8X8X8X8X8X8XnXnXcXcXnXnXNXNXNXNXnXnXnXnXnXnXnXnXnXnXNXNXNXNXNXNXNXNXZXZXZXZXBXnX8X7X5X4X4X5X4X=X=X4XP.4X4XP.4XP.P.P.L.L.n.u.u.r.r.u.u.u.k.n.H.n.u.u.u.u.u.u.H.H.K.H.H.H.P.K.L.P.H.H.L.=X4X4X4X4X7X8XcXnXcX8X7X6Xt.M z l y > 1 c 8 8 % ; 1 # C <X;X;X X X X X X X X X X|.|.|.|.|.|.[.}.[.[.[.[.[.].'.'.'.`._.`.`.`.`.`.XXXXXXE.E.Y.Y.Y.Y.Y.Y.Y.Y.F.F.F.Y.F.F.F.F.F.F.F.F.G.G.G.G.B.B.B.B.B.N.N.N.b.c.b.d.d.d.a.p.y.y.y.y.! ! ! U U I I I I K P K D Z Z Z Z C C C C C Z Z Z Z Z Z Z C C C Z Z C C Z Z K Z H K K P I I I I I ~ ~ ! ( >.>.v.v.v.v.M.D.D.F.F.F.Y.E.E.Y.E.E.XXoXOXoXoXoXoXoXoXoXoXoXoXoXoXoXoX@X@X@X@X@X@X@X@X@X@X@X@X@X@X@X@X@X@X@X@X@X@X@X@X$X",
": : : : : : : : : : : : : : > > 1 1 1 1 1 1 1 1 1 1 1 1 t u i d f f k z z z H H J J J J I U ! ! ! ^ >.>.>.v.v.v.v.>.2.2.8.8.8.8.8.8.8.8.8.8.8.8.8.8.8.8.U.U.U.U.T.T.T.T.R.R.Y.Y.XXXXXX`.`.`.`.`.`.`.'.].].*X-X*X-XD.&.y # t l %.= # 1 :.l.Y HXHXZXNXnXcX8X8X5X5X5X5X5X8X8XcXcXcXnXnXnXcXnXnXNXNXNXNXNXnXnXnXnXnXnXnXnXnXNXNXNXNXNXNXNXBXZXZXZXZXBXcX8X6X5X4X4X5X4X4X4X5X4X4X4XP.=XP.P.P.K.H.k.u.r.r.r.u.u.u.k.n.n.u.u.k.u.u.k.k.K.H.K.H.H.K.P.L.L./.H.L./.=X4X4X4X4X7X8XcXnXnX8X=XH.N N L l i 1 1 8 8 0 $ % = # , M.;X;X;X1X X X X;X;X;X X X|.|.|.|.|.[.}.[.[.[.[.[.].].].`.`.`.`.`.`.`.`.XXXXXXE.E.Y.Y.Y.Y.Y.Y.Y.Y.F.F.Y.Y.F.F.F.F.F.F.F.F.G.G.G.G.B.B.B.B.N.N.N.N.b.c.s.a.d.a.a.y.y.y.y.y.^ R ! U I I I I I K K Z Z Z Z Z C Z C C C C C Z Z Z Z Z C C Z Z Z Z C C C Z K K K K K I I I I I I ~ ~ ~ ( >.>.v.v.v.v.M.D.D.D.F.F.F.Y.Y.Y.Y.E.E.oXoXoXoXoXoXoXoXoXoXoXoXoXoXoXoX@X@XoXoXoXoX@X@X@X@X@X@X@X@X@X@X@X@X@X@X@X@X@X@X@X",
": : : : : : : : : : : : : : > > 1 1 1 1 1 1 1 1 1 1 1 1 t i i d f f k z z z H H J J J J I U U ^ ! ^ ^ &.>.>.v.v.>.>.>.2.2.2.2.2.8.8.8.8.8.8.8.8.8.8.8.8.8.U.U.U.T.T.T.T.T.T.Y.Y.Y.Y.`.`.`.`.`.`.`.`.`.].].*X-X*X-XG.! C y y y Y A.A.A.I.&.#.HXJXZXcXnXcX8X8X5X5X5X5X5X5X8X8XcXnXnXnXnXnXBXNXNXNXNXNXNXNXnXnXnXnXnXnXnXnXnXNXNXNXBXNXBXBXZXZXNXNXcX7X8X6X4X4X4X4X4X4X4X5X4X6X4XP.4XP.L.L.H.H.u.u.r.r.r.u.H.H.k.k.k.u.u.k.u.k.H.H.K.H.H.H.H.K.K.H.H.P.H.L.=X4X6X7XcXnX8XcXnXnX8X6Xn.N N N N l l u < 8 9 9 % % ; # , ~ -X;X;X1X X X X;X;X;X X|.|.|.|.|.|.[.}.[.[.[.[.[.].].].`.`.`.`.`.`.`.`.XXXXXXXXXXY.Y.Y.Y.Y.Y.Y.Y.F.F.Y.Y.F.F.F.F.F.F.F.F.G.G.G.G.B.B.B.B.N.N.N.B.b.c.s.d.d.a.a.p.y.y.y.y.^ U ! U I I I I I J K Z Z Z C C Z C C C C C C Z Z Z Z C C C C C C Z C C Z Z C K H K K P I I I I I E ~ ~ ! ( >.>.>.v.v.v.D.D.D.F.F.F.Y.Y.Y.Y.Y.Y.XXoXoXoXoXoXoXoXoXoXoXoXoXoXoXoX@X@XoXoXoX@X@X.X@X@X@X@X@X@X@X@X@X@X@X@X@X@X@X@X@X",
": : : : : : : : : : : : : : > > 1 1 1 1 1 1 1 1 t t t t u i i d f f f z z z H H J J J J I U U ^ ! ^ ^ &.>.>.v.>.>.>.>.2.2.2.2.2.8.8.8.8.8.8.8.8.8.8.8.8.8.U.U.U.T.T.T.T.T.T.Y.Y.Y.Y.`.`.`.`.`.`.`.`.`.].].].*X*X-XG.-XG.r , Y A.A.&.A.Y M S.HXHXZXMXcX8X8X8X5X5X5X5X5X5X8X8XcXcXnXcXcXcXnXnXnXnXnXNXNXNXNXnXnXnXnXnXnXnXnXNXNXNXBXNXBXNXNXNXNXMXcX7X7X5X4X4X4X4X4X4X4X5X4X4X4X=X4X4XP.L.K.H.u.r.r.r.r.n.H.H.k.k.u.u.u.k.u.k.H.H.K.H.H.K.K.H.H.H.H.P.H.P.4X7X8XcXnXNXcXcX8X8X4XH.L p N N M l l i < ; 0 6 5 % 6 # , V -X;X;X1X X X X;X;X;X;X X X X X X X|.|.[.[.[.[.[.].].].`.`.`.`.`.`.`.`.XXXXXXXXXXY.Y.Y.Y.Y.Y.Y.Y.F.F.Y.Y.F.F.F.F.F.F.F.F.G.G.G.G.B.B.B.B.N.N.N.B.b.c.s.d.d.a.a.p.y.y.y.^ ^ U ! U I I I I K J K Z Z Z C Z C C C k k C C C C C C C C C C C C C Z C C Z C Z H K K P I I I I I I ~ ~ ! ( ( >.>.>.v.v.D.D.D.D.D.F.Y.Y.Y.Y.Y.Y.Y.oXoXoXoXoXoXoXoXoXoXoXoXoXoXoX@X@XoXoXoX@X@X@XoXoXoXoX@X@X@X@X@X@X@X@X@X@X@X@X@X",
": : : : : : : : : : : : : : : : 1 1 1 1 1 1 1 1 t t t t u i i d f f f z z C H H J J J I I U ! ! ^ ^ ! &.>.>.>.>.>.>.>.2.8.8.2.8.8.8.8.8.8.8.8.8.8.8.8.8.8.8.U.U.U.U.U.U.T.T.T.Y.Y.F.`.`.`.`.`.`.`.`.`.`.].].].].-X'.].*X*Xr L &.M &.R R h.dXHXDXNXcX8X8X8X8X5X5X5X5X5X5X8X8X8X8X8X8X8X8X8XcXcXnXnXnXnXNXNXNXnXnXnXnXnXnXnXnXNXNXNXNXNXNXNXNXNXBXcX8X7X5X4X4X4X4X4X4X4X4X4X4X4X4X5X4XP.L.H.u.r.r.r.r.u.n.H.H.n.k.u.u.u.k.u.k.H.H.K.H.H.K.K.H.H.H.L.P.K.P.4X8XnXnXnXnX7X5X4X=XL.L M M L M p N l t % = 0 ; 6 $ 8 # , C -X;X;X1X X X X;X;X;X;X X X X X X X|.|.[.[.[.[.[.].].].`.`.`.`.`.`.`.`.XXXXXXXXXXY.Y.Y.Y.Y.Y.Y.Y.Y.Y.Y.Y.F.F.F.F.F.F.F.F.F.G.G.G.B.M.B.B.N.N.N.b.b.c.c.d.d.a.a.p.y.y.y.^ ^ U ! U I I I I J H Z C Z Z Z C C C k k k k C C C C C C C C C C k C C Z C C Z Z C H K K P P P P I I ~ ~ ! ^ ( >.>.>.>.v.v.M.D.D.D.F.Y.F.F.F.Y.Y.Y.oXoXoXoXoXoXoXoXoXoXoXoXoXoXoXoXoX@X@X@X@X@X@XoXoXoXoX@X@X@X@X@X@X@X@X@X@X@X@X@X",
": : : : : : : : : : : : : : : > 1 1 1 1 1 1 1 1 u u u u u i i d f f z z z H z H J J J I E U ~ ! ! ^ ! ! >.>.>.>.>.>.>.>.2.2.2.2.2.8.8.8.8.8.8.8.8.8.8.8.8.8.U.U.U.U.U.U.T.T.Y.F.F.F.F.F.`.`.`.`.`.`.`.`.].].].].*X[.[.-X-Xc.U ! R L h.A.! ZXHXDXZXnX8X8X8X8X8X5X5X7X6X5X7X5X5X5X7X7X6X4X4X4X8X8X8X8XnXNXNXNXNXNXnXnXnXnXnXnXnXNXNXNXNXNXNXNXNXnXcX8X7X5X4X4X4X4X4X4X4X4X4X4X4X=X/./.P.L.n.y.u.r.r.y.u.k.H.H.H.k.k.u.u.k.u.H.H.H.K.H.H.K.H.H.H.H.L.P.J.P.5XnX4X7X8X7X8X7X=XL.L p p M L M p a i j 1 % 0 < % $ 6 : < s <X<X;X;X X X;X;X;X;X;X X X X X X|.|.|.}.[.[.[.-X].].].].`.`.`.`.`.`.`.XXXXXXXXXXY.Y.Y.Y.Y.Y.Y.Y.Y.Y.Y.F.F.F.F.F.F.F.F.F.F.F.G.G.M.B.B.B.B.B.b.b.b.s.s.a.d.a.p.p.y.y.y.^ ! U ! U L J I P J Z C C Z C C C C k k k k k k k k k Z k k k C C k k C Z C C C Z Z H K K P I I I I I ~ ~ ! ^ ( >.>.>.>.v.M.D.D.D.D.D.F.F.F.F.Y.Y.Y.E.oXoXoXoXoXoXoXoXoXoXoXoXoXoXoXoXoXoXoXoXoXoX@X.X.X.X@X@X@X@X@X@X+X+X@X@X@X@X@X",
": : : : : : : : : : : : : : > > 1 1 1 1 1 1 1 1 u u u u u i d d f f g z z H C V J J J I E U ~ ! ! ! ! ! ( >.>.>.>.>.>.2.2.2.2.2.8.8.2.2.2.2.8.8.8.8.8.8.8.8.8.8.U.U.U.U.U.U.Y.F.F.F.F.F.F.F.G.G.`.`.`.`.].].].].[.[.[.[.[.].B.! y.h.j.A.R DXHXZXZXcX8X8X8X8X8X8X8X7X5X5X5X5X4X4X5X5X5X6X4X/./.4X5X8X8XnXnXnXNXNXNXNXnXnXnXnXnXnXNXNXNXNXnXnXcX8X7X5X5X5X5X4X4X4X4X=X=X4X4X4X4X=X/.P.P.K.n.y.u.r.r.y.u.k.n.H.H.k.u.k.k.u.k.H.H.H.H.H.H.H.H.H.H.H.H.L.H.=X5X5X=X6X5X7X6XL.y.L p p M N L N M a a h 1 = 8 6 5 $ 5 ; < s *X2X;X;X;X X;X;X;X;X;X X X X X|.|.|.|.}.[.[.-X-X].].].].].`.`.`.`.`.`.XXXXXXXXE.Y.Y.Y.Y.Y.Y.Y.Y.Y.Y.F.F.F.F.F.F.F.F.F.F.F.F.G.M.B.B.B.M.b.b.N.b.b.s.s.a.d.a.p.p.y.y.y.^ ! U ! U L L I P J Z C C C C C C k k k k k d k k k k k k k k g g k k C C C C C Z Z Z K K K P P P I I ~ ~ ~ ! ! ( >.>.>.v.A.A.A.A.D.D.F.F.F.F.F.Y.Y.R.oXoXoXoXoXoXoXoXoXoXoXoXoXoXoXoXoXoXoXoXoXoX.X.X.X.X@X@X@X@X@X@X@X@X@X@X@X@X@X",
": : : : : : : : : : : : : : > > 1 1 1 1 1 1 1 1 u u u u u i i f f f g z z H V V J J J I L U ~ ! ! ! ! ! >.>.>.>.>.>.>.2.2.2.2.2.2.8.8.2.8.8.8.8.8.8.8.8.8.8.8.8.U.U.U.U.U.T.Y.F.F.F.F.F.F.F.G.G.`.`.`.`.`.].].].[.[.[.[.].-X*XB.y.S.S.j.S.HXHXZXBXcXcX8X8X8X8X8X8X7X4X4X4X4X4X4X4X4X4X5X4X4X/./././.5X7X8XnXnXNXNXNXNXnXnXnXnXnXNXNXnXnXnXcX8X7X5X4X5X5X5X4X4X4XP.P.P./.4X4X4X=X/.P.P.K.n.y.y.r.r.u.u.k.H.H.H.k.u.k.k.u.H.H.H.H.H.H.H.H.H.H.H.H.K.L.H.=X4X=X=X/.L.K.h.L p r p M N M N N M N z h 1 1 8 c 0 $ 5 ; < s v.9X1X;X X;X;X;X;X;X;X;X;X;X X X X|.|.}.[.[.-X-X-X].].].].`.`.`.`.`.`.XXXXXXXXE.Y.Y.Y.Y.Y.Y.Y.Y.Y.Y.Y.F.F.F.F.F.F.F.F.F.F.F.G.M.B.B.B.M.b.b.b.b.b.s.s.a.d.a.p.p.y.y.^ ^ ^ U U I L L I P J Z C C C C C k k k k k k k g g d d d d d d g g g k C C C C C Z Z Z K K P I I I I I ~ ~ ~ ! ( ( >.>.>.v.A.A.A.A.D.D.F.F.F.F.F.Y.T.Y.E.oXoXoXoXoXoXoXoXoXoXoXoXoXoXoXoXoXoXoXoXoX.XoXoXoX.X.X.X@X@X@X@X@X@X@X@X@X@X",
": : : : : : : : : : : : : : > > 1 1 1 1 1 1 1 1 u u u u u i i f f f g z z C V V J J J J I U U ! ! ! ! ! >.>.>.>.>.>.>.>.>.2.2.2.8.8.2.8.8.8.8.8.8.8.8.8.8.8.8.8.U.U.U.U.U.U.U.D.F.F.F.F.F.F.F.G.`._.`._.`.`.].].].].[.'.[.;X*X*XG.n.n.h.>XHXHXZXBXcXcX8X8X8XcXcX8X8X4X4X4X6X6X5X(././.4X4X4X4X/.P.L.P.4X5X7XcXMXBXNXNXnXnXnXnXnXnXnXnXnXcX8X8X7X5X5X5X5X4X4X4XP.P.P.P.P.P.4X4X=XP.P.P.H.n.y.r.r.y.u.u.n.n.H.H.k.k.k.k.k.H.H.H.H.H.H.H.H.H.H.H.H.H.L.H.P.=X=X=XK.t.N p p p p M N N N N N R Y H j t h 8 b c $ 5 : < s Q bX1X;X;X;X;X;X;X;X;X;X;X X X X X X|.|.}.[.-X[.-X].].].].`.`.`.`.`.`.`.XXXXXXE.Y.Y.Y.Y.Y.Y.Y.Y.Y.Y.Y.F.F.F.F.F.F.F.F.F.F.G.G.G.B.B.M.m.b.b.b.b.b.s.s.d.d.a.p.y.y.y.y.^ ! U U U I L J J J H Z C C k k k k k k k k k g d s s d d d d g g g k C C C C C C C Z H K K I I I I I ~ ~ ~ ! ! ( >.>.>.v.A.M.D.D.D.D.Y.F.F.F.Y.Y.Y.T.R.E.oXoXoXoXoXoX.X.X.X.XoXoXoXoXoXoX.X.X.XoX.X.X.X.XoXoX.X@X@X+X@X@X@X@X@X@X@X",
": : : : : : : : : : : : : : > > 1 1 1 1 1 1 1 1 u u u u u i i f f f f z z z g V J J J J I I U U ~ ! ! ! >.>.>.>.>.>.>.>.>.2.2.2.2.2.2.2.8.8.8.8.8.8.8.8.8.8.8.8.U.U.U.U.U.U.U.D.F.F.F.F.F.F.G.G.`.`._.`.`.`.].].].].[.[.[.-X;X*XL.S.y.! ZXHXHXDXMXcX8X8X8X8XcXcX8X7X4X4X5X7X7X7X8X8X7X6X4X4X5X(.P.H.H.L./.4X5X8XcXnXMXMXMXnXnXnXnXnXcX8X8X8X8X8X7X7X5X5X4X4X=XP.P.P.P.P.P./.=X=XP.P.K.H.u.y.r.r.u.u.k.k.n.H.H.k.k.k.k.H.H.K.K.H.H.H.H.H.H.H.H.H.H.K.K.P./.=X/.t.a a p p M M M N N L N N R R Y h : : < 8 ..3 c j % < k -X2X;X;X9X9X;X;X;X;X;X;X X X X X X|.|.}.[.-X-X*X*X].].].`.`.`.`.`.`.`.XXXXXXXXXXY.R.R.Y.Y.Y.Y.Y.Y.Y.Y.Y.Y.F.F.F.F.F.F.F.G.G.G.B.B.M.m.M.M.b.b.c.d.d.a.a.a.p.y.r.y.y.^ ! U ! I J L J J H H C C C k k g g g g g g g g d s s s d d d g d g g g k V V C C C C H H P I I I I I ~ ~ ~ ~ ! ( >.>.>.v.A.A.A.A.D.D.F.D.F.F.Y.U.U.T.Y.E.oXoX.X.XoXoX.X.X.X.XoXoXoXoXoXoX.X.X.XoXoXoX@X@X.X.X.X.X@X@X@X@X@X@X@X@X@X",
": : : : : : : : : : : : : : > > 1 1 1 1 1 1 1 1 u u u u u i i j k g f z z z g H J J J J J I I ~ ~ ! ! ! &.>.>.>.>.>.>.>.>.2.2.2.2.1.2.2.2.2.8.2.2.2.2.2.2.2.8.8.8.8.U.U.U.U.U.D.F.F.F.F.F.F.G.G.G.G.G._.`.`.].'.].].[.[.-X*X;X=X*XG.h.S.DXHXHXDXMXcX8X8X8X8X8XcX8X7X5X5X8X8X8X8X8X8XcX7X6X/./.P.K.H.H.H.K.P./.4X6X7XcXnXBXBXnXnXcXcXcX8X8X7X8X8X8X7X5X6X4X4X4X4X4X4X/.P.P.P./.P.P.L.H.n.u.y.y.y.u.u.k.k.H.H.H.H.k.k.k.H.H.K.K.H.H.H.H.H.H.H.n.H.H.H.K.P./.~.h.M p p M M M M N N N R R R R R Y x h 1 8 = O.8 0 6 % < k F.2X;X;X9X9X5X;X;X;X;X;X X X X X X|.|.-X[.-X[.-X*X].].].`.`.`.`.`.`.XXXXXXXXXXoXY.E.R.Y.Y.Y.Y.Y.Y.Y.Y.Y.Y.F.F.F.F.F.F.F.G.G.G.B.B.B.m.b.b.b.b.b.d.d.a.a.a.p.y.y.y.y.^ ! U U L J J J J H H z z z k k g g g g g d d d d s s d d d s d d d d g k V V C C V C C H P I I I I I ~ ~ ~ ~ ! ( >.>.>.v.A.A.A.A.D.D.D.D.D.D.F.U.U.Y.Y.R.E.E.R.R.R.R.R.R..X.X.X.X.X.X.X.X.X.X.X.X.X.X.X.X@X@X.X.X@X@X@X@X@X@X@X@X@X",
": : : : : : : : : : : : : : > > 1 1 1 1 1 1 1 1 u u u u u i i j k g k z z z g H C J J J J I I U ~ ~ ! ! ! >.>.>.>.>.>.>.1.1.2.2.2.1.2.2.8.8.2.2.2.2.2.2.8.2.8.8.8.8.U.U.U.U.U.D.D.D.F.F.F.G.G.G.G.G.G._.`.`.].'.'.].].[.[.-X;X;X*XL.h.>XHXHXHXDXMXnX8X8X8X8X8X8X6X6X5X7X8X8X8X8X8X8X8X8X7X4X/.P.K.K.k.u.u.k.H.P./.4X6X8XcXnXnXnXnXcXcX8X8X7X7X8X8X8X5X6X4X4X4X4X4X4X4X/.P.P.P.P.L.K.H.k.u.u.y.y.u.u.k.n.H.H.H.H.k.k.k.H.H.H.K.H.H.H.H.H.H.H.k.n.H.H.K.L.~.n.N a a M M M M M N N R R t.t.R R Y Y x h < % } m 0 % - = s >.9X;X1X;X;X5X;X;X;X;X;X;X X X X|.|.|.-X-X-X-X-X*X*X*X].].`.`.`.`.XXXXXXXXXXXXoXoXoXoXoXE.Y.Y.Y.Y.Y.Y.Y.Y.Y.Y.F.F.F.F.F.F.G.G.G.B.B.M.b.b.b.b.b.s.s.d.a.a.p.r.y.y.y.^ ! U U L J J H H H z g g k k k g g g g d d d s s s s s s s s s s d g g g V V C C V C C H P I I I I I ~ ~ ~ ~ ! ( >.>.>.v.A.A.A.A.D.D.D.D.D.F.F.U.U.U.T.Y.E.E.R.R.R.R.R.R.R.R.R..X.X.XR.R..X.X.X.X.X.X.X.X.X.X.X.X@X@X@X@X@X@X@X@X+X",
": : : : : : : : : : : : : : > > 1 1 1 1 1 1 1 1 t u u u u i i j f f f z z z C H V J J J J I I U ~ ~ ! ! ! ( >.>.>.>.>.>.1.1.2.1.2.2.8.8.8.8.2.2.2.2.8.2.8.8.8.8.8.8.U.U.U.U.U.D.D.D.F.F.F.F.G.G.G.G.G._.`.`.'.'.].].].].[.*X-X;X*XL.S.MXZXHXHXDXMXnXcX8X8X8X8X7X6X6X7X8XcXcXcXcXcXcXcX8X7X6X4X/.K.H.k.u.t.t.t.k.H.P.=X4X7X8XcXcXnXcXcX8X8X8X7X7X8X7X5X6X4X4X/./.=X4X4X4XP.P.P.P.K.H.n.u.u.u.y.y.u.u.k.k.H.H.H.H.k.H.H.H.H.H.H.H.H.H.H.H.H.H.n.n.H.H.H.K.K.L p p p p M M M M N N R R t.t.R R R @.Y h < < 8 } 0 $ : # s K bX;X1X;X;X5X5X;X;X;X;X;X X X X|.|.-X-X-X-X-X*X*X*X].*X].`.`.`.`.XXXXXXXXXXXXoXoXoXoXE.E.oXE.Y.Y.Y.Y.Y.Y.Y.Y.F.F.F.F.G.G.G.G.B.B.B.M.b.b.b.b.c.s.s.a.a.a.p.r.r.^ y.^ U U U L J H H M C g g g k k k g g d d d d s s s s s s s s s s s s d g g V V C C C C C H P I I I I I ~ ~ ~ ! ( >.>.>.>.>.v.v.A.A.D.D.D.D.D.F.F.F.U.Y.T.Y.R.R.R.R.R.R.R.R..XR.R.R..X.X.X.X.X.X.X.X.X.X.X.X.X.X.X.X@X@X@X@X@X@X@X@X+X",
"= = : : : : : : : : : : : : : : 1 1 1 1 1 1 t t t t u u u i i j f f f z z z z M V H J J J P I E ~ ~ ! ! ! ! >.>.>.>.>.>.2.2.2.1.2.2.2.2.2.2.2.2.2.8.8.2.8.8.2.2.8.8.8.8.U.U.U.D.D.D.F.F.F.F.G.G.G.G.G.G._._.'.'.'.].'.].[.*X*X;X<X*XA.ZXDXDXHXMXMXMXBXnX8X6XcX8X6XcXcXcXcXcXnXcXBXcX8X6X6X8X4X/.K.K.u.k.k.t.t.t.u.H.H.K.4X8X5X7X8XcXcX8X8X8X8X5X4X5X4X4X4X=X=X/./.=X=X=XP.P.P.L.H.n.u.u.u.y.y.u.u.k.k.n.H.H.H.H.H.H.H.H.H.H.H.H.H.H.H.H.H.H.H.n.H.n.H.k.n.t.p r p p M M M N N R R R t.g.h.h.&.! Y D j 6 8 } 0 ; % : , C <X2X1X;X;X;X;X;X;X;X;X;X X X X|.|.-X-X-X-X-X*X].*X].*X`.`.`.`.`.XXXXXXXXXXXXoXoXoXoXE.E.oXoXR.R.Y.Y.Y.Y.Y.Y.Y.F.F.F.G.G.G.G.B.B.M.B.N.b.b.b.b.s.s.a.a.a.p.r.r.r.^ ^ U U U L J H M M C z z z k k k g g d d d s s s s s s d s d d s s d g g V V V V C C H J J I I I I I U ~ ~ ~ ! ( >.>.>.>.>.v.v.D.A.A.D.D.D.D.D.F.F.U.Y.Y.Y.R.R.R.R.R.R.R.R..X.XR.R.R.R..X.X.XR.R.R.R.R.R.R..X.X.X.X@X@XR.R.R.R.@X@X@X",
"= = : : : : : : : : : : : : : : 1 1 1 1 1 1 t t t u u u u i i j f f f z z z g M V C J J P I I E ~ ~ ~ ~ ! ! >.>.>.>.>.>.2.1.1.2.2.2.2.2.2.2.8.2.2.2.2.2.8.8.2.2.8.8.8.8.U.U.U.U.D.D.D.D.F.G.G.G.G.G.B.G._._.'.'.'.'.].].[.*X*X<XbX>X>XAXZXZXZXMXZXZXZXZXnX8X8X8X8XcXcXcXcXcXcX6XcX8X6X4X(.6X/./.H.t.t.t.t.u.k.t.t.t.k.H.K.P.4X6X7X7X8X8X8X8X8X5X4X4X4X=X=X=X=X=XP././.P.P.P.L.K.H.k.r.y.u.u.u.u.k.k.k.n.H.H.H.H.H.H.H.H.H.H.H.H.H.H.H.H.H.H.H.n.n.n.n.n.n.t.p r M p M M N N R R R R t.h.h.h.h.h.! R D < < S 0 6 ; : , d :XbX1X;X;X;X;X;X;X;X;X;X X X X|.|.|.-X-X-X-X*X*X*X].*X].].`.`.`.XXXXXXXXXXXXoXoXoXoXR.R.E.oXR.R.Y.Y.Y.Y.Y.Y.F.F.F.F.G.G.G.G.G.B.G.B.N.b.B.b.c.c.s.a.a.a.p.p.r.r.^ ^ U U U L J H M M M H z z k k k g g d d d d d s s s s d s d d d d d g g g V V C C J H J P I I I I I ~ ~ ~ ! ^ ( >.>.>.>.v.v.v.D.D.A.D.D.D.D.D.F.F.U.Y.T.Y.R.R.R.R.R.R.R.R.R..XR.R.R.R..X.XR.R.R.R.R.R.R.R..X.X.X.X@X@XR.R.R.R.@XR..X",
"= = : : : : : : : : : : : : : : 1 1 1 1 1 1 t t t u u u u i i j f f f z z z g z V C J J P I I E E ~ ~ ~ ! ! >.>.>.>.>.>.>.1.1.2.2.2.2.2.2.2.2.2.2.2.2.2.8.8.2.2.2.8.8.8.U.U.U.U.D.D.D.D.F.G.G.G.G.M.B.G._.`.'.'.'.'.'.].[.*X*XbXZX9XzXNXZXnXzXnXMXZXZXBXcX7X=X6X6X4X/./././.=X/.4X/./.P.K././.H.k.H.N g.H.H.K.H.k.t.t.u.k.H.P./.4X5X7X8X8X7X6X6X6X4X=X=X=X=X=X=X/.P.P.P.L.L.K.H.k.u.r.r.y.u.k.u.k.n.n.H.H.H.H.H.H.H.H.H.H.H.H.H.H.H.H.H.n.n.k.k.H.n.n.n.n.t.p a M p M N N R R R R R h.h.k.k.k.j.j.h.W 8 < b h j 8 : , u D.bX1X1X;X;X5X5X;X;X;X;X X X X|.|.|.-X-X-X[.*X].*X].*X].].`.`.OXXXXXXXOXXXXXoXoXoXoXoXoXoXoXE.E.XXE.Y.Y.XXXXY.F.F.F.G.G.G.G.G.G.G.B.N.b.B.b.c.c.s.s.a.a.p.p.y.r.^ ^ U U U L L J H H H H C z z k k k g d d d d d d d d d d d d d d d g g V V V C C C H J J I I U U U ~ ~ ~ ! ! ( >.v.>.v.v.v.v.v.D.D.D.D.D.D.D.D.D.F.U.U.T.T.R.R.R.R.R.R.R.R.R.R.R.R.R.R.R.R.R.R.R.R.R.R.R.R.R.R.R.R.@X@XR.R.R.R.@XR.R.",
"= = : : : : : : : : : : : : : : : 1 1 1 1 1 t t t u u u u i i d f f f z z z z z V V J J J I I U ~ ~ ~ ~ ! ! >.>.>.>.>.>.>.1.1.2.2.2.2.2.2.2.2.2.8.8.8.8.8.8.8.8.8.8.8.8.U.U.U.D.D.D.D.D.G.D.M.G.G.B.B.B._.`.'.'.'.'.'.].[.*X*XbXDXnXnXnXMXnX>XcX7XnXcX7X4X/.H././.K.K.K.K.K.K.K.L.K.K.z.k.K.H.k.t.N p K.6X/././.P.k.t.t.t.k.H.K.P.4X7X7X7X5X6X6X7X4X=X=X=X=X=X=X/.P.P.L.L.K.K.H.n.k.y.y.y.u.u.k.k.n.H.H.H.H.H.H.H.H.H.H.H.H.H.H.H.H.H.H.H.n.n.H.n.n.n.k.k.t.p a M p M N N R R t.t.R h.h.k.n.n.n.n.n.Q l j 1 h j c : s , Q <X1X1X1X1X;X;X;X;X;X;X X X X|.|.|.-X-X-X[.-X[.].].].].].`.`.OXOXOXXXOXXXXXoXoXoXoXE.E.E.oXE.R.R.E.Y.Y.XXY.Y.F.F.F.G.G.G.G.G.G.G.B.N.N.B.b.c.s.c.d.a.a.a.y.y.r.r.^ U U U L L J H H H H H C z z k g g d d d s d d d d d d d d d d d g g V C V C C H K K I I U ~ U ~ ~ ~ ( ( ( >.>.v.v.v.v.D.D.v.D.D.D.D.D.D.D.D.D.D.U.U.Y.Y.T.T.R.R.R.R.R.R.R.R.R.R.R.R.R.R.R.R.R.R.R.R.R.R.R.R.R.R.R.R.Q.R.R.R.R.R.R.",
"= = : : : : : : : : : : : : : : : 1 1 1 1 1 t t t u u u u i i d f f f z z z z g V V J J J P I I E ~ ~ ~ ! ! &.>.>.>.>.>.>.1.1.1.2.2.2.2.2.2.2.2.2.2.2.2.8.8.2.8.8.8.2.D.D.U.U.D.D.D.D.D.D.D.M.M.G.M.B.B.G.`.`.'.'.'.'.'.].*X*XbXAXnXNX4X7X=X/.=X4X7X6X=X/.L.k.K.L.K.K.h.h.N N N t.g.t.z.z.t.k.k.N p N /.6X4X(.6X6X/.H.t.t.t.k.k.H.K./.4X7X4X(.6X5X4X4X=X=X/././.P.P.P.L.L.L.K.H.H.n.u.u.u.u.k.k.n.H.H.H.H.H.H.H.H.H.H.H.H.H.H.H.H.H.H.H.n.k.n.n.n.n.n.k.k.R M p M N N R t.t.t.t.t.u.u.k.n.n.n.n.n.n.h.Q y # h h ; c j , C -X<X;X;X9X5X;X;X;X;X;X X X X|.|.|.-X-X-X-X*X*X].].].].].`.OXOXOXOXXXXXXXXXoXoXoXoXoXoXoXoXoXoXoXoXE.oXXXXXF.F.F.F.F.F.G.G.G.G.G.G.B.b.N.b.c.c.c.s.a.a.a.y.y.r.r.^ ^ U ! R L L J H H M H C C C z g g g d d d d d d d d d d k k d k g g C C C C J J P I I U ~ ~ ~ ~ ~ ^ ( p.( v.v.v.v.v.v.v.A.A.D.D.D.D.D.D.D.D.D.D.U.U.T.Y.T.T.R.R.R.R.R.R.R.R.R.R.R.R.R.R.R.R.R.R.R.R.R.R.R.R.R.R.R.R.Q.Q.R.R.R.R.R.",
"= = : : : = : : : : : : : : : : : 1 1 1 1 1 t t t u u u u i i d f f f z z M z g g V C J J J I I E ~ ~ ~ ! ! >.>.>.>.>.>.>.1.1.1.2.2.2.2.2.2.2.2.2.2.2.2.2.2.2.2.8.8.2.U.D.U.D.D.D.D.F.D.D.D.D.M.G.G.B.B.G._._.'._.'.'.'.].[.].bXAXbXNX5X4XP.P.P./.4X=X/.L.H.k.k.h.t.a # # # # # # # M M N N N p p p z././.7XzXzX6X4X4XH.u.t.k.k.k.k.H.P.(.4X6X4X4X4X=X=X=XP././.P.P.P.P.L.L.K.K.H.H.u.u.k.k.k.n.n.H.H.H.H.H.H.H.H.H.H.H.H.H.H.H.H.H.H.H.k.k.k.k.u.n.n.k.k.R R N t.t.t.t.t.t.t.y.y.y.u.k.n.n.n.n.n.n.y.n.H = h 8 < j D u s F.2X;X;X9X5X;X;X;X;X;X X X X|.|.|.-X-X-X-X-X*X*X].].].].`.`.`.OXOXOXXXXXXXoXoXoXoXoXoXoXoXoXoXoXoXR.Y.Y.XXY.F.F.F.F.F.G.G.G.G.G.G.N.b.b.b.b.c.s.s.a.a.a.y.y.r.r.r.^ U ! R L L Y L J H H H C C C z k g d d d d d d d d d d k k k g g V C C C J J J I I I U ~ ~ ~ ~ ~ ^ ( p.v.v.v.v.v.v.v.A.A.v.A.A.D.D.D.D.D.D.D.D.U.U.T.Y.T.T.R.R.T.T.R.R.R.R.R.R.R.R.R.R.R.R.R.R.R.R.R.R.R.R.R.R.R.R.R.R.R.R.R.R..X",
"= = : : : : : : : : : : : : : : : 1 1 1 1 1 t t t u u u u i i d f f f z z M z M g V C J J J I I E ~ ~ ~ ~ ! >.>.>.>.>.>.>.1.1.2.2.2.2.2.2.2.2.2.2.2.2.2.2.2.2.2.8.8.2.U.D.U.D.D.D.D.D.D.D.D.D.M.G.G.B.G.G._._._._.'.'.'.].].].<XmX9XNX5XP.K.K.H.H.K.P.K.n.k.g.N p a r # p p r r y y y y p p p # p K.6XzX6XzXcXzX6X6X6X/.k.t.k.u.u.k.k.k.H.P././././.=X=X/.P.P./.P.P.P.P.P.L.L.K.H.n.u.u.n.n.H.k.n.H.H.H.H.H.H.H.H.H.H.H.H.H.H.H.H.H.H.H.k.k.k.k.u.n.k.k.h.R t.t.k.z.k.k.u.u.u.u.y.u.u.n.H.H.H.H.H.H.n.V.h.i j 1 8 0 D s , E 9X9X;X1X5X;X;X;X;X;X X X X|.|.|.-X-X-X-X-X*X*X].].].].`.`.`.OXOXOXXXXXXXoXoXoXoXoXoXoXoXoXoXoXE.Y.Y.XXXXF.E.E.F.F.F.G.G.G.G.G.G.B.b.N.b.b.c.b.s.d.a.a.a.a.y.y.y.^ U ! R R L L L J K H H C C C C g g d d d g g g g g k k k k k C C V C C J K J I I I I U U ~ ~ ~ ^ ^ ( p.v.v.c.c.v.v.A.A.A.A.A.A.D.D.D.D.D.D.D.D.U.U.T.Y.T.T.T.T.Y.Y.R.R.R.R.R.R.R.R.R.R.R.R.R.R.R.R.R.R.R.R.R.R.R.R.R.R.R.R.R.R..X",
"= = : : : : : : : : : : : : : : 1 1 1 1 1 1 t t t u u u u i i d f f f k z z z g g V V J J P I E E ~ ~ ~ ~ ~ >.>.&.&.>.>.1.1.1.1.2.2.2.2.2.2.2.2.2.2.2.2.2.2.2.2.2.2.2.2.8.8.D.D.D.D.D.D.D.D.D.M.M.G.B.G._._._._._._.'.'.].].'.;XmX9XNX5XK.H.H.H.u.k.K.S.k.h.R a # # # # a a a a a a y a y # p N S.>XzXcXxX/.zX6XzXcX6X/.K.t.t.u.k.H.z.t.t.u.k.P./.=X4X=X/.P.P.P.P.P.P.P.P.L.L.K.H.H.n.n.H.H.H.n.H.H.H.H.H.H.H.H.H.H.H.H.H.H.H.H.H.H.H.n.k.u.k.k.k.n.n.k.u.r.y.y.n.K.H.n.n.n.k.u.u.u.u.H.H.H.H.H.H.H.J.H.S.Y x > j 8 j j # s -X9X;X5X5X5X;X;X;X;X X X X|.|.|.-X-X-X-X*X*X*X].*X].`.`.`.`.OXOXXXXXXXXXoXoXoXoXoXoXoXoXE.E.E.E.Y.Y.XXXXY.Y.F.F.G.G.G.G.G.G.G.G.B.b.N.b.b.c.b.s.d.a.a.a.a.y.y.y.^ U ! U R L L L L J J H H C C C C g g g g g d d d d k k k k k V V V C J K J I I I I U U ~ ~ ~ ~ ^ ^ ( p.v.v.c.c.v.v.v.v.v.v.A.A.D.D.D.D.D.D.F.F.D.U.T.T.T.T.T.T.T.T.T.T.T.T.T.T.T.T.T.T.R.R.R.R.R.R.R.R.R.R.R.R.R.R.R.R.R.R.R.R.R.",
"= = : : : : : : : : : : : : : : 1 1 1 1 1 1 t t t u u u u i i d f f f k z z z g g V H J J K I I E E Q ~ ~ ~ >.>.&.&.>.>.>.1.1.,.2.2.1.1.2.2.2.2.2.2.2.2.2.2.2.2.2.2.2.2.8.8.D.D.D.D.D.D.D.D.D.M.M.G.B.G._._._._._.'.'.].].].'.;XbXbXNX9XL.u.r.H.H.t.k.j.t.L M # # # = a x a M x p = y # # p h.S.^.^.6X^.^.>X6X/.6XcX6X6X4XL.k.t.n.~.=X/.K.k.t.y.H.=X4X=X/.P.P.P.P.P.L.P.L.L.K.K.H.H.H.H.H.H.H.H.H.H.K.H.H.H.H.H.H.n.H.H.H.H.H.H.H.H.H.k.u.u.u.k.k.k.k.k.u.r.r.y.n.L.L.K.H.n.n.n.u.u.H.H.H.H.H.H.H.K.K.H.K.S.x f j j | ; : , *X9X;X;X;X;X;X;X;X;X;X X X|.|.|.-X-X-X*X*X*X*X].*X].`.`.`.`.OXOXOXXXXXXXoXoXoXoXoXoXoXoXoXoXoXoXXXXXXXXXXXE.F.F.G.G.G.G.G.G.G.G.B.b.B.b.b.b.b.s.d.d.a.a.a.y.y.y.r.^ ! ! R R L L L L J J H H C C C k g g g g g g g g g g k k C C C C C J J J P I U U U ^ ^ ^ ^ ^ ^ ( ( v.v.v.c.c.v.v.v.v.v.v.A.D.D.D.D.D.U.U.F.F.U.D.U.T.T.T.T.T.T.T.T.T.T.T.T.T.T.T.T.T.R.R.R.R.R.R.T.T.R.R.T.T.R.R.R.R.T.T.T.T.R.",
"= = : : : : : : : : : : : : : : 1 1 > 1 1 1 t t t u u u u i i i f f f k z z g g V V H J J J I I E E E E Q ~ ~ ~ &.&.&.&.>.>.1.1.1.1.1.1.2.2.2.2.2.2.2.2.2.2.2.2.2.2.2.2.2.8.D.D.D.D.D.D.D.D.D.D.M.M.M.G.G._._._._._.'.].].].].;XmXbXnXnX7X=Xt.t.k.z.j.z.g.t.M y y a N N M x a a x M #.j.z.S.~.^.dXdXzX6X>X>X6X6X7XcX/.6X>X/.K.t.h.S./.=X=X/.n.y.t.k.P.=X/.P.P.P.P.P.L.L.K.K.K.K.H.H.H.H.H.H.H.H.H.K.K.K.H.H.H.H.n.n.H.H.H.H.H.H.H.H.H.k.u.u.u.u.k.k.k.u.u.r.r.y.n.L.K.H.H.H.H.n.d.u.H.K.K.H.H.H.H.K.P.H.L.S.M l x x m = = # Q <X<X;X;X;X;X;X;X;X;X;X X|.|.|.-X-X[.[.*X*X*X].*X].`.`.OXOXXXOXXXXXXXXXoXoXoXoXoXoXoXoXoXoXoXoXXXXXXXXXXXE.F.F.F.G.G.G.G.G.G.B.B.b.B.N.b.b.b.d.d.d.a.a.a.y.y.y.r.^ ^ ! R R L L L L J J H H C C C k g g k k g g g g g g k k C C C C H J J J P I U U ^ ^ ^ ^ ^ ^ ^ ( p.v.v.v.v.v.v.A.v.v.v.A.D.D.D.D.D.D.D.D.F.D.D.D.U.U.U.U.T.T.T.T.T.T.T.T.T.T.T.T.T.T.T.T.T.T.T.T.T.T.T.T.T.T.T.T.T.T.T.T.T.T.R.",
"= = : : : : : : : : : : : : : : > 1 > 1 1 1 t t t t u u u i i i f f f k z z g g g V V J J J P I E E E E Q ~ ~ ~ >.&.&.&.>.>.1.1.1.1.1.1.2.2.2.2.2.2.2.2.2.2.2.2.2.2.2.2.2.8.D.D.D.D.D.D.D.D.D.D.M.M.M.G.G._._._._._.'.].].].[.;XbX9XMXMXMXnXL.t.t.z.t.j.h.R R N #.R R N M a M N j.S.~.dXxXdX>X>XzXzXdXzX6X>X>XzXzXzX>X/./.>X/.k.h.h.n.~.>X6X=XL.n.u.n.L.P.P.P.P.P.P.L.L.K.H.K.K.K.H.H.H.H.H.H.H.K.K.K.K.H.H.H.H.H.H.H.H.H.K.H.H.H.H.H.k.u.u.u.u.k.k.k.u.u.r.t.y.n.L.H.H.H.K.H.H.n.n.H.K.K.H.H.H.L.P.P.K.L.S.! l x D x 1 1 = y F.9X;X;X;X;X;X;X;X X;X X|.|.}.-X-X[.[.*X*X*X].*X].`.`.OXOXXXXXXXXXXXXXoXoXoXoXoXoXoXoXoXoXoXoXXXXXXXXXXX`.F.F.G.G.G.G.G.G.G.G.B.N.N.N.b.b.b.b.d.a.a.a.a.y.y.y.y.r.! ! R R L L L L J H H H H C C C C k C g k g k k k k k C C C C C J J J P I I U U ^ ^ ^ ( ( ( ( p.v.v.c.c.v.v.A.A.v.v.v.A.D.D.D.D.D.D.D.D.D.D.D.D.U.U.U.U.T.T.T.T.T.T.T.T.T.T.T.T.T.T.T.T.T.T.T.T.T.T.T.T.T.T.T.T.T.T.T.T.T.T.R.",
"= = : : : : : : : : : : : : : : 1 1 1 1 1 1 t t t t u u u i i d l f f k z z g g g V V J J J I I E E E E ~ ~ ~ ~ >.>.>.&.>.>.1.1.1.1.1.1.2.1.2.2.2.2.2.2.2.2.2.2.2.2.2.2.2.8.D.D.D.D.D.D.D.D.D.D.M.M.B.G.G._._._._._.'.].'.].].[.7X<XNXnXnXZXcXK.t.R t.R R R R M Y M N M M z M R A.~.~.^.^.~.~.^.>X>X^.zXzX6X>XzXcXzXzX>X^.^.>XL.S.h.t.j.L.=X6X7X>Xn.u.k.H.L.P.P.P.P.L.K.H.H.K.L.K.H.H.H.H.H.H.H.K.J.K.K.H.H.H.H.H.H.H.H.H.H.H.H.H.H.H.k.u.u.u.u.k.k.k.u.u.r.t.y.n.L.H.H.K.L.K.H.H.H.H.H.H.K.H.L.P.P.P.K.L.S.S.Y l l l h l u y C <X<X;X;X;X;X X X X X X|.}.}.}.-X-X-X*X*X[.].].].`.`.`.OXXXXXXXXXXXXXoXoXoXoXoXoXoXoXoXoXoXoXXXXXXXXX`.`.`.F.F.G.G.G.G.G.G.G.V.N.N.N.b.b.b.b.d.a.a.a.a.y.y.y.y.r.! ! ! R L L L L J H H H H C C C C C C g C k k k k k g k C C C C J J J J P I U U U ^ / ( ( ( ( p.v.v.c.c.v.v.v.v.v.v.v.A.D.D.D.D.D.D.D.D.F.F.U.U.U.U.U.U.T.T.T.T.T.T.T.T.T.T.T.T.T.T.T.T.T.T.T.T.T.T.T.T.T.T.T.T.T.T.T.T.T.T.T.",
"= = : : : : : : : : : : : : : : 1 1 > 1 1 1 t t t t u u u i i d d d f k l z g g g V H J J K I K E E E E Q ~ ~ ~ ~ &.%.%.%.%.1.,.<.1.1.1.2.2.2.2.2.2.2.2.2.2.2.2.2.2.2.2.2.2.2.2.D.D.D.D.D.D.D.D.M.G.M.G.B.Z.Z._._._.'.[.'.].].'.-X<XMXnXcX7X>X6XK.t.t.N N a a # y a a M M M R #.j.S.~.^.:X:X:X>X>XdX>XdXzXzXzXzXzXzXMXdX>X~.=X>X~.^.y.j.S.L.=X7X8X6Xn.y.k.K.K.H.K.L.L.K.K.K.J.J.K.H.H.H.H.H.H.H.K.K.H.K.H.H.H.H.H.H.H.H.L.L.H.H.H.H.H.n.u.u.u.u.k.k.k.u.u.t.y.y.n.L.K.K.L.L.L.K.H.H.K.L.K.L.L.P.P.P.L.P.n.V.S.h.l y M x x i y t >.-X;X;X;X;X X X X X|.|.}.}.-X-X-X-X*X*X[.].].].`.`.`.`.XXXXOXXXXXXXoXoXoXoX@XoX@X@X@XoXoXoXXXXXXXXXXXXXXXF.F.G.G.G.G.G.G.G.V.N.N.N.b.b.b.b.d.d.a.a.a.y.y.y.y.r.y.! ! ! I I L L L J J H H H Z Z Z Z C C C C k k k k k k C C C C J J J P I I U U ^ ^ / ( ( ( ( p.p.v.c.c.v.v.A.M.v.v.A.D.D.D.D.D.D.D.D.D.D.D.U.U.U.U.U.U.T.T.T.T.T.T.T.T.T.T.T.T.T.T.T.T.T.T.T.T.T.T.T.T.T.T.T.T.T.T.T.T.T.T.T.",
"= = : : : : : : : : : : : : : : > 1 > 1 1 1 t t t t u u u i i d d d f f l z g g g V H J J K I K E E E E Q ~ ~ ~ &.&.>.>.>.>.1.,.2.<.1.1.2.2.2.2.2.2.2.2.2.2.2.2.2.2.2.2.2.2.D.D.D.D.D.D.D.D.D.D.M.M.M.B.B.B.Z._._._._.[.'.[.].'.-X<XzXcXcXnX>X/.K.u.t.t.N N R # y = r a M N &.j.S.S.^.>X>X>XdXdXzXbXdXdXzXzX<X<X>X>X>X^.>X^.~.>X~.:XS.y.h.S./.6X7X7X=XK.k.H.H.H.H.K.L.K.K.H.L.J.H.H.H.H.H.H.K.K.K.K.K.K.H.H.H.K.H.H.L.L.L.L.H.H.H.H.H.n.u.u.u.u.k.k.k.u.y.t.y.y.n.K.L.L.L.L.L.K.H.H.H.K.L.L.P.P.P.P.L.L.n.V.S.h.L f a z l D , u d G.;X-X;X;X X X X|.|.|.}.}.}.}.[.[.*X*X*X].].].].`.OXOXXXOXOXXXXXXXoXoXoXoXoXoX@X@X@X@XoXoXoXXXXXXXXXXXXXXXF.G.G.G.G.G.G.G.V.N.N.N.b.b.b.b.d.d.a.a.a.y.y.y.y.y.y.y.R ! U U I I I J J J K H Z Z Z Z Z Z C C C k k k k k C V C C J J P P I I U U ^ ^ / ( ( ( ( p.p.v.c.c.v.v.A.A.A.v.A.D.D.D.D.D.D.D.D.D.D.D.U.U.U.U.U.U.T.T.T.T.T.T.T.T.U.U.U.U.U.U.T.T.T.T.T.T.T.T.U.U.U.U.T.T.T.T.T.T.U.U.T.",
"= = : : : : : : : : : : : : : : > 1 > 1 1 1 t t t t u u u i i d d d f f l z g g g V H J J J K I E E E E Q Q ~ ~ &.&.>.>.>.>.1.,.2.<.1.1.1.1.2.2.2.2.2.2.2.2.2.2.2.2.2.2.2.2.D.D.D.D.D.D.D.D.D.M.M.M.M.B.B.B.Z._._._._.].'.].].].-X;XzXcXcXnX7XK.k.K.k.k.h.~.~.= y y y M R j.j.n.S.S.^.>X>X>X>X^.>XzXzXzXdXdX>X>X:X:XE.G.:X~.E.~.L.^.L.n.t.h.K.=X6X4X6X4XL.H.H.H.K.K.K.K.H.H.L.L.H.H.H.H.H.H.K.K.L.K.K.H.H.H.K.H.H.H.L.L.L.L.H.H.H.H.n.k.k.u.k.k.k.k.k.u.y.t.y.y.n.K.L.L.L.L.L.K.H.H.H.K.L.L.L.P.P.P.L.J.J.V.J.n.R L f H z T d Z d &.[.}.;X;X X|.|.|.|.|.|.}.}.}.[.[.*X*X*X].].].].OXOXOXXXOXOXXXXXXXoXoXoXoXoXoX@X@X@X@XoXoXoXoXXXXXXXXXXX`.F.F.G.G.G.G.G.G.V.N.B.N.b.b.b.b.d.d.a.a.a.a.a.y.y.y.y.y.! R R R R R I I J K J K K K K K Z Z Z C C C C C C C C V C C J J P P I U U U ^ ^ / ( ( p.p.p.p.v.c.v.M.m.M.M.M.v.A.D.D.D.D.D.D.D.D.D.D.D.U.U.U.U.U.U.U.T.T.T.T.T.T.T.U.U.U.U.U.U.U.T.T.T.T.T.T.T.U.U.U.U.T.T.T.T.U.U.U.U.U.",
"= = : : : : : : : : : : : : : : : 1 > 1 1 1 t t t t u u u i i d d f f f z g g g g V J J J J J I E E Q E Q Q ~ Q %.&.&.>.>.>.1.,.1.<.1.1.1.1.2.2.2.2.2.2.2.2.2.2.2.2.2.2.2.2.D.D.8.8.D.D.D.D.M.M.M.M.M.B.B.B.B.Z._._._.'.'.].].].-X;XmXnXzX7X/.P.K.k.t.h.t.~.~.# y a y M h.j.h.j.l.S.^.>X>X>XdX^.>XxXzXzX>X>X~.~.~.~.~.S.~.L.~.^.S.K.L.K.j.L y.L.=X=X/.4X4XK.H.L.K.H.H.K.K.K.L.L.H.H.K.K.K.K.K.K.L.K.K.H.H.H.H.H.H.H.L.L.L.L.L.H.H.H.n.u.u.k.k.k.k.k.u.u.y.t.y.y.k.H.L.L.L.L.L.J.K.K.K.K.L.L.P.P.P.{.P.H.L.n.V.k.y.h.L M H g z &.Y C `.[. X;X X X|.|. X|.}.}.}.-X[.[.*X*X*X*X*X`.].`.OXOXXXXXXXXXXXXXoXoXoXoXoXoX@X@X@X@X@XoXoXoXXXXXXXXXXXE.`.F.G.G.G.G.G.G.V.N.B.N.b.b.b.b.d.d.a.a.a.a.a.y.y.y.y.y.! R R R R U L I K K J K K K K K Z Z Z C C C C C C C C V C C J J P P I U U U ^ ^ / ( ( p.p.p.v.v.c.v.M.M.M.M.M.A.M.A.D.D.D.D.D.D.D.D.D.D.U.U.U.U.U.U.U.U.U.U.T.T.T.T.U.U.U.U.U.T.T.T.U.U.T.T.T.T.U.U.U.T.T.T.T.T.U.U.U.U.T.",
": : = : : : : : : : : : : : : : 1 1 1 1 1 1 u u t u u u u i i d l l f f z g g g g g V J J J J I K E Q Q E ~ ~ ~ ! ! &.&.>.:.1.,.,.,.1.1.1.1.2.2.1.2.2.2.1.1.2.2.2.2.2.2.2.2.D.D.8.8.A.D.D.A.M.M.M.M.B.B.B.B.B.Z._._._.'.'.'.'.].-X;XMXMXzX7XL.K.H.k.g.t.j.^.^.i a y y Y &.l.j.j.S.S.^./.>X>X>X>XzXzX<X>X>X:X>X>X=X^.S.L.~.~.~.S.S.L.j.~.n.S.n.y.K.=X6X4X4XP.P.L.P.J.H.H.K.K.K.K.J.J.L.L.K.H.H.J.L.H.H.H.H.H.H.H.H.L.L.L.L.L.L.K.H.n.k.k.k.k.k.k.k.k.k.u.y.t.y.t.u.n.K.L.L.L.L.J.P.L.L.L.L.P.P.P./.=X{.L.L.J.H.n.k.n.t.R L H L ! ~ J ~ *X-X}.;X;X;X}. X|.|.|.}.-X-X-X*X[.].].`.`.`.`.OXOXXXXXXXXXXXXXoXoXoXoXoXoX@X@X@X@X@XoXoXoXXXXXXXXXXXXX`.F.G.G.G.G.G.G.V.N.N.N.b.b.b.b.d.d.d.a.a.a.a.y.y.y.y.y.y.R R R R U I P J J J K K K K K Z Z Z C C C C C C C C C C J J J J I I I U U ^ / ( ( ( p.p.a.v.v.c.m.m.M.M.M.M.M.D.M.D.D.D.D.D.D.D.D.U.U.U.U.U.U.U.U.U.U.U.U.U.U.U.U.U.U.U.U.T.U.T.T.U.U.T.T.T.T.U.U.U.U.T.T.T.T.U.U.U.U.U.",
": : : : : : : : : : : : : : : : 1 1 1 1 1 1 u u t u u u u i i j l l f l l g f g g g V J J J J I K E E E E ~ ~ ~ ! ! &.&.>.>.1.,.,.,.1.1.1.1.2.2.1.1.2.2.1.1.2.2.2.2.2.2.2.2.D.D.8.8.A.A.A.A.M.M.M.M.B.G.B.B.B.Z._.Z._.'.'.'.'.].-X-XnXnXcX6XL.K.H.k.t.y.n.>X>XR M l H ! h.A.S.S.K.K./.(.6XzX6X7XzXzXzXzX>X>X>X:X~.~.n.S.S.S.L.S.S.S.j.S.n.n.j.t.k.L.4X4X=X=XP.L.K.K.H.H.K.J.J.L.L.L.L.L.H.H.H.K.L.H.H.H.H.H.H.H.L.L.L.L.L.L.L.K.H.n.k.k.k.k.k.k.k.k.u.y.y.t.r.r.u.n.H.K.K.K.K.H.L.L.L.L.L.P.P.P.=X=XP.L.L.J.K.n.k.n.n.k.y.R y.v.v.( `.].*X2X[.'.1X}.|.|.|.-X-X-X-X[.*X[.].].].`.`.`.OXOXXXXXXXXXXXXXoXoXoXoXoX@X@X@X@X@X@XoXXXXXXXXXXXXXXXXXF.F.G.G.G.G.G.G.V.N.N.N.b.b.b.b.d.d.d.a.a.a.y.y.y.y.y.y.! R R R R U I P I I K K K K K K Z Z Z C C C C C C C C C H J J P P I I U U ^ ^ ( ( ( ( p.p.a.v.c.c.m.m.m.M.M.M.M.A.A.D.A.D.D.D.D.D.D.U.U.U.U.U.U.U.U.U.U.U.U.U.U.U.U.U.U.U.U.T.T.T.T.U.U.T.U.T.T.U.U.U.U.T.T.T.T.U.U.U.U.U.",
": : : : : : : : : : : : : : : : 1 1 1 1 1 1 u u t u u u u i i d l l f l l z f g g g V J J J J J K E Q Q E ~ ! ! Q ! &.&.>.>.1.,.,.,.1.1.1.1.2.2.2.2.2.2.1.1.2.2.2.2.2.2.2.2.A.A.2.8.A.A.D.A.M.M.M.M.M.M.G.B.B.Z._._._.'.'.].].].*X-X9XnXcX>XL.K.H.k.t.h.K.>X>XS.R L R &.v.S.~.~./././.6XzXcXzXzXcXcXMXcXzXzX>X>X/.^.~.~.~.L.S.S.j.h.j.y.h.h.y.L R n./.=X=X/.P.P.K.H.H.H.J.L.P.P.P.L.L.L.H.H.H.K.L.H.H.H.H.H.H.H.L.L.L.L.L.L.L.K.H.n.k.k.k.k.k.k.k.k.u.y.t.t.r.t.k.H.H.K.K.K.K.H.L.L.L.L.L.P./././.P.P.P.L.J.K.n.k.n.H.n.n.y.b.c.c.M.*XD.-X*X;XmX-X}.;X}.-X-X-X-X-X[.[.[.].].].`.`.`.OXOXXXXXXXXXXXXXoXoXoXoX@X@X@X@X@X@X@XoXXXXXXXXXXXXXXXXXF.F.G.G.G.G.G.G.G.V.V.N.b.b.b.b.d.d.a.a.d.a.a.a.y.y.y.y.y.! ! ! U U U I I I K J K K K K Z Z Z Z Z C C z C k C Z H J J P I I I U U ~ / ( ( ( p.p.a.s.v.c.c.m.m.m.M.M.M.M.A.A.D.A.D.D.D.D.D.D.U.U.U.U.U.U.U.U.U.U.U.U.U.U.U.U.U.U.U.U.T.T.U.U.U.U.T.T.T.T.U.U.U.U.U.U.U.U.U.U.U.U.8.",
": : : : : : : : : : : : : : : : 1 1 1 1 1 1 u u t u u u u i i d l l f l k l f g g g C H J J J I K E E E E ! ! ! ! &.&.&.>.>.1.,.,.1.1.1.1.1.2.2.2.2.2.2.1.1.2.2.2.2.2.2.2.2.A.2.8.8.D.D.D.D.M.M.M.M.m.B.B.B.B.Z._._._._.'.'.'.'.].*X7XnXzX=XL.K.H.k.t.k.~.>X~.~.&.&.&.h.S.L././.>X6XzXzXzXzXzXzXcXMXMXMXxXzXzX7X>X>X^.^.~.~.S.h.R R h.N t.t.t.R L n.L.P.=X/.P.P.P.H.H.H.J.L.P.P.P.L.L.L.K.H.H.H.L.H.H.H.H.H.H.H.H.H.L.L.L.L.L.H.H.n.k.u.k.k.k.n.k.k.y.t.t.t.L t.k.K.H.H.K.L.L.K.P.L.L.L.J.P.=X=XP.P.P.P.L.J.K.k.k.n.n.H.H.K.n.n.c.G.<XHXJXPXbX-X`.2X;X}.}.}.-X-X-X[.[.[.].].].].`.OXOXOXXXXXXXXXXXXXoXoXoXoX@X@X@X@X@X@X@XoXXXXXXXXXXXXXXXXXF.F.G.G.G.G.G.G.G.V.V.N.b.b.b.b.d.d.d.a.a.a.y.y.y.y.y.y.y.R ! U U U U I I I K K K K K K K K Z Z Z C C z C C Z Z H H J P I I I U U / ( ( ( ( p.p.a.a.v.c.c.m.m.m.M.M.M.M.A.A.D.A.D.D.D.D.D.D.D.U.U.U.U.U.U.U.U.U.U.U.U.U.U.U.U.U.U.U.U.U.U.U.U.U.U.U.U.U.U.U.U.U.U.U.U.U.U.U.U.U.8.",
": : : : : : : : : : : : : : : : 1 1 1 1 1 1 u u t u u u u i i j f l i l k f f g g g z H H H K K K K E E E E Q Q ! ! &.&.>.>.1.,.,.,.1.1.,.,.2.2.1.1.2.2.1.1.2.2.2.2.2.2.2.2.2.2.2.2.A.A.D.M.A.m.M.M.m.M.B.B.B.Z._._._._.'.'.'.'.].].=XzXnX=XL.K.H.k.t.k.L.=XG.:XS.S.:X>X>X6X>X/././.BXvXcXcXzXcXMXMXcXzX7X>X>X:X~.~.~.~.S.S.j.z.h.R N N N N M R N R n.P.=X/././.P.L.H.n.K.L.P.P.P.P.P.L.H.H.H.H.K.K.H.H.H.H.H.H.H.H.H.H.L.L.L.H.H.u.u.u.k.k.n.n.n.k.y.t.t.t.r.t.n.K.P./.K.L.P.L.P.L.L.P.L.P.4X=XP././.P.L.L.K.k.k.n.H.k.H.H.L.K.n.S.Y.sXSXPXJXVX,X`.-X}.|.}.}.-X[.[.[.[.].].].].`.OXOXOXXXXXXXXXXXXXoXoXoXoX@X@X@X@X@X@X@XoXoXoXoXoXXXXXXXXXF.F.G.G.G.G.G.G.G.V.V.N.b.b.b.b.d.d.d.a.a.a.u.y.y.y.y.y.y.R ! ! U U U I I P K K K K K K K K Z Z Z C C C C C Z Z H H J P I I U U U ^ ( ( ( p.p.p.v.v.v.c.c.c.c.m.M.M.M.M.A.A.D.A.D.D.D.D.D.D.D.D.U.U.U.U.U.U.U.U.U.U.U.U.U.U.U.U.U.U.U.U.U.U.8.8.U.U.U.U.8.8.8.8.U.U.U.8.8.8.8.8.8.",
": : : : : : : : : : : : : : : : 1 1 1 1 1 1 u u t u u u u i i j f f i l k f f g g g z H H H K K K K E E E ~ ! Q Q ~ &.&.>.>.1.,.1.1.1.1.2.,.1.2.1.,.2.2.1.1.2.2.2.2.2.2.2.2.2.2.2.2.A.A.A.A.A.v.m.M.m.M.B.B.B.Z._._.Z.Z.'.'.'.'.].'.].;X7X=XL.K.H.k.t.k.K.^.^.>X~.^.zXzXzXcXcXcXcXcXcXzX6X6X6X>X^.^.~.L.S.S.h.h.R R N N M M M N N x M x a p y a a M y.K.=X4X=X/.P.L.H.H.K.L.P.P.P.P.P.L.H.n.H.H.K.K.L.H.K.H.H.H.H.H.K.K.L.L.K.H.H.u.u.u.k.k.n.n.k.u.t.t.t.t.r.u.n.H.P./.K.P./.P.=XP.P.P.L.P.4X=XP.=XP.P.L.L.K.k.k.k.K.H.H.H.K.K.n.S.A.%.PXPXJXPXVXOX-X}.}.}.}.}.[.[.[.[.].].].`.`.`.OXOXXXXXXXXXXXXXoXoXoXoXoX@X@X@X@X@X@X@XoXoXoXoXXXXXXXXXF.F.G.G.G.G.G.G.G.V.V.N.b.b.b.b.d.d.d.a.a.a.a.y.y.y.y.y.y.y.! ! U U U I I P K K K K K K K K Z Z Z C C C z C Z Z H J P P I I U U ^ ^ ( ( ( p.p.p.a.v.c.c.c.c.c.m.M.M.M.M.A.A.A.A.D.D.D.D.D.D.D.D.U.U.U.U.U.U.U.U.U.U.U.U.U.U.U.U.U.U.8.8.8.8.8.8.8.8.8.8.8.8.8.8.8.8.8.8.8.8.8.8.8.",
": : : : : : : : : : : : : : : : 1 1 1 1 1 1 u u t u u u u i i j f f l l k f f f g g g H H J J K I K E E E ~ ! Q Q ~ &.&.>.>.1.,.,.1.1.1.1.1.1.1.1.,.1.1.1.1.2.2.2.2.2.2.2.2.2.2.2.2.A.A.A.A.A.v.m.m.m.M.B.B.B.Z._._.Z.Z.'.'.'.'.].'.].*X;X;XP.J.n.u.t.k.K.^.>X>X>XxXMXMXMXMXBXnXcX6X/.~.K.K.K.z.h.t.R R L M M M f a a x x x x x a y y y = # # # x M L H.=X4X6X=XP.L.K.K.K.L.P.P.=X4X=XP.H.n.n.H.J.L.L.L.K.H.H.H.H.K.K.K.L.H.H.H.n.u.u.u.k.k.k.n.k.y.t.t.t.t.t.k.H.K.K.P.L./.=X/.4X/.P.=XP.P.4X=XP.=X=XP.P.L.K.n.k.n.K.L.H.H.K.K.n.S.%.kXPXPXJXJXPXVX-X}.}.}.}.|.[.[.[.[.].].].`.`.`.OXOXXXOXXXXXXXXXoXoXoXoX@X@X@X@X@X@X@X@XoXoXoXoXXXXXXXXXF.F.G.G.G.G.G.G.G.V.V.N.b.b.b.b.d.d.d.a.a.a.a.y.y.y.y.y.y.y.! ! ! U U I I P K K K K K K K K Z Z Z Z C C C C Z K J J I I I U U U ^ ^ ( ( p.p.p.p.a.v.c.c.c.c.c.m.M.M.M.M.D.A.D.A.D.D.D.D.D.D.D.D.U.U.U.U.U.U.U.U.U.U.U.U.U.U.U.U.U.U.8.8.8.8.8.8.8.8.8.8.8.8.8.8.8.8.8.8.8.8.8.8.8.",
": : : : : : : : : : : : : : : : 1 1 1 1 1 1 u u t t u u u i i j l l l k l f f g g g g J H J J K I K E E E ~ ! Q Q Q &.&.>.>.%.,.,.,.1.1.1.1.,.,.,.,.1.1.1.1.1.2.2.2.2.2.2.2.2.2.8.A.D.A.A.A.M.m.m.m.m.m.B.B.B.Z._._._._.'.'.'.'.].[.*X*X*X5X=XL.n.y.t.h.K./.:X~.zXZXZXZXZXBXBXcX/.K.g.g.t.t.R N N M N M a a M M a a x M M N N M y # # # # # X # #.l.R H./.=X4X4X=XP.L.L.K.P.P.=X=X4X/.P.K.n.n.H.J.L.L.K.H.H.H.H.H.H.K.K.K.H.H.n.n.k.k.u.u.u.n.k.u.y.t.t.t.t.t.k.n.H.K.P.L./.=XP.=XP.P.=XP.=X4X=XP.=X=XP.P.L.H.n.u.n.H.P.K.K.K.H.H.S.Q.PXPXUXPXJXJXPX,X-X-X-X-X-X[.[.[.[.].].].`.`.`.OXOXXXOXXXXXXXXXoXXXoXoX@X@X#X#X@X@X@X@XoXoXoXoXXXXXXXXXF.G.G.G.G.G.G.G.G.V.V.N.b.b.b.d.d.d.a.a.d.d.a.y.y.y.y.y.y.y.! ! ! ! U I I K K K K K Z Z Z Z Z Z Z Z C C C C H H J P P I U U U U ~ ^ ( ( p.p.p.p.p.v.c.c.c.c.c.m.M.M.M.M.D.A.D.D.D.D.D.D.D.D.D.D.U.U.U.U.U.U.U.U.U.U.U.U.U.U.U.U.U.U.8.8.8.8.8.8.8.8.8.8.8.8.8.8.8.8.8.8.8.8.8.8.8.",
": : = = = = = = = = = = : : : : > > 1 1 1 1 u u t u u u u i i j l l l k f f f g g g V J H J J K I K E E E ~ ! Q Q Q &.&.>.>.%.,.,.,.,.,.1.1.1.1.1.1.1.1.1.1.1.1.2.2.2.2.2.2.2.2.2.2.A.A.A.A.v.v.m.m.c.M.B.B.B.V._._._.Z.'.'.'.'.].].[.[.{.{.=XL.n.y.y.h.S./.K.=XMXMXZXNXBXzX6XL.k.t.g.R N N N R M N R N R a M R R #.R > y x x = y = y # # # X A.>X~.K.k.L.5X6X4X=XP.P.P.J.P.P.=X=X4XP.P.J.d.n.H.H.H.H.H.H.H.H.H.H.H.H.K.K.H.H.n.k.k.k.u.u.u.n.k.k.u.t.t.t.t.u.n.H.K.L.P.P./.=XP./.P.=X=X=X4X4X=X{.=X=XP.P.L.H.d.u.n.H.H.P.H.H.K.k.j.LXPXPXPXPXPXPXPXPX<X*X-X-X].].-X[.[.].].].`.`.`.OXOXXXOXXXXXXXXXoXXXoXoX@X@X@X@X@X@X@X@XoXoXOXOXXXOXXXXXXX`.G.G.G.G.G.G.G.V.V.V.N.b.b.b.d.d.d.d.d.d.d.d.y.y.y.y.y.! ! U U U U I K K K K K K K K C C H Z Z Z Z Z C Z H K P I I U U U U U ^ ^ ( p.p.p.p.p.a.v.c.c.c.c.m.M.M.M.M.M.A.D.D.D.D.D.D.D.D.D.D.D.U.U.U.U.U.U.U.U.8.8.8.8.8.8.8.8.8.8.8.8.8.8.8.8.8.8.8.8.8.8.8.8.8.8.8.8.8.8.8.8.8.",
": : = = = = = = = = = = : : : : : : 1 1 1 1 u u t u u u u i i j l l l k f f f g g g V J H J J K I K E E E ~ ! Q Q Q %.&.&.%.%.,.,.,.,.,.,.,.1.1.,.,.1.1.1.,.,.1.1.2.1.2.1.2.2.2.2.2.A.A.A.A.A.v.M.m.m.M.B.B.B.C._._._.Z._._.'.'.].].[.[.{.{.{.J.n.y.y.h.S.~.~.7XZXBXzX>XK.z.z.g.t.R N R N N x M M #.#.#.l.# x N #.N y = = = a = y y > # # # S.dX~.S.n.k.L.4X6X4X=XP.L.L.L.L.P.=X=X4X=XP.L.n.d.H.K.H.H.H.H.H.K.H.H.L.K.L.K.H.n.n.k.k.k.u.y.u.k.k.k.u.t.t.t.t.k.H.H.L.P././.=X=X=X=X=X=X4X4X4X=X=X{.=X=XP.P.L.H.n.u.n.L.L.L.H.L.K.h.vXPXIXIXIXPXPXPXPXJXHX:X:X-X-X[.[.[.[.].].].`.`.`.`.OXXXXXXXXXXXXXXXXXoXoX@X@X@X@X@X@X@X@XoXoXOXOXXXXXXXXXXXG.G.G.G.G.G.G.G.G.V.V.N.b.b.b.d.d.d.a.d.d.d.u.y.y.y.y.y.R ! ! U U U I I K K K K H H H C C H Z Z Z Z Z Z Z H J P P I U U U U U ^ ^ ( p.p.p.p.p.v.v.c.c.c.c.M.M.M.M.M.M.D.D.D.D.D.D.D.D.D.D.D.D.D.D.U.U.U.U.U.U.8.8.8.8.8.8.8.8.8.8.8.8.8.8.8.8.8.8.8.8.8.8.8.8.8.8.8.8.8.8.8.U.8.",
": : = = = = = = = = = = : : : : : : 1 1 1 1 u u t u u u u i i j l l k l f f f g g g V J H J H K I I E E E ~ ! Q Q Q %.&.&.%.%.,.,.,.,.,.%.%.,.,.,.,.1.1.1.1.,.1.1.2.1.2.1.2.2.2.2.2.A.A.A.A.v.v.m.m.m.M.M.B.B.C._._._.Z._._.'.'.].[.[.[.[.{.{.J.n.y.n.k.S.~.~.nXMX>Xn.h.R R t.t.R N M N R N #.R R l.^.~.l.> # # = y = y > t x a y p y y y N vXzXK.S.n.k.n.L.6X4X=XP.L.L.L.L.P./.4X4X=X=XL.d.u.H.J.J.L.H.H.H.L.K.J.P.P.P.K.n.n.n.k.k.k.u.y.u.k.k.u.u.t.r.r.u.n.H.K.L.P./.=X=X=X4X4X4X4X4X4X4X=X=X=X=X{.P.P.L.H.n.d.n.H.4XH.L.L.n.>XJXPXIXIXIXPXPXPXPXPXJXGXXX*X-X-X-X*X[.].].].`.`.`.OXOXXXXXXXXXXXXXoXoXoXoX@X@X$X$X$X$X@X@X@XoXoXoXXXXXXXXXE.G.G.G.G.G.G.G.G.G.V.N.N.b.b.d.d.d.d.a.d.d.d.u.y.y.y.y.y.y.R ! ! ! U L I I P J J K K K C C H C H Z H Z Z C K K I I I U U U U U ^ ^ ( p.p.p.a.a.v.c.c.c.c.m.M.M.M.m.M.M.D.D.A.D.D.D.D.D.D.D.D.D.D.D.U.U.U.U.U.U.8.8.8.8.8.8.8.8.8.8.8.8.8.8.8.8.8.8.8.8.8.8.8.8.8.8.8.8.8.8.8.8.8.",
": : = = = = = = = = = = : : : : : > 1 1 1 1 u u t u u u u i i j f l l k f f f g g g g H H J J K I I E E E ~ ! Q Q Q %.%.&.>.>.%.,.,.,.,.1.1.1.1.1.,.1.1.1.1.1.1.1.2.1.1.2.2.2.2.A.A.A.A.A.A.A.A.m.v.c.m.M.B.B.C._._._._._._.'.'.].].].[.[.[.;X{.V.n.n.k.n.L.~.bX>Xj.L L L R R R N N N M N #.S.#.l Y x a # = # > = y i x y M #.N y y M #.l.>X>X>X~./.K.n.y.n.6X4X=XP.L.L.L.P.P./.=X4X=X=XP.n.u.H.J.L.P.L.K.L.L.H.L.P.P.P.K.n.n.n.k.k.k.y.y.u.k.k.u.t.t.L r.k.H.H.K.L.P.=X=X4X4X4X4X4X4X4X4X4X=X=X{.{.{.P.P.P.J.d.d.n.K.H.4XL.n.h.HXPXPXPXPXPXPXPXPXPXLXPXJXVXXX-X-X*X*X[.].].].`.`.`.OXOXXXXXXXXXXXXXoXXXoXoXoX@X$X$X@X@X@X@XoXoXoXoXXXXXXXXXE.F.G.G.G.G.G.G.G.G.V.N.N.b.b.b.b.d.d.a.a.d.u.y.y.y.y.y.y.y.! ! ! ! U L I I P J J J J K K K C C Z Z C C Z C K P I I I U U U ^ ^ ^ ( ( p.p.p.p.a.v.c.c.c.c.m.m.M.M.M.M.M.M.D.D.D.D.D.D.D.D.D.D.D.D.D.U.U.U.U.U.U.8.8.8.8.8.8.8.8.8.8.8.8.8.8.8.8.8.8.8.8.8.8.8.8.8.8.8.8.8.8.8.8.8.",
": : : : : : = = = = = = : : : : > > 1 1 1 1 u u t u u u u i i j h l l k f f f f g g g H H J K J I I K K E ~ ! Q Q Q %.%.&.&.%.%.,.%.,.,.%.,.,.,.,.,.,.,.,.,.1.1.1.1.1.1.1.2.2.2.>.>.A.A.A.v.v.v.v.v.c.m.M.B.N.B._._.Z.Z.Z.Z.J.'.].'.].].].[.;X{.J.n.n.h.n.G.~.zX~.h.R R L N N N M M R &.I.^.I.Y # # # = # # y # # > x > a ~.MXxXS.#.I.~.>XxX>XcX7X/./.H.y.y.L.=X/./.P.L.L.P.P./.=X=X4X=XP.H.u.n.K.L.P.P.K.L.K.K.P.P.P.P.K.n.n.k.k.k.k.u.y.k.k.k.y.t.L L t.n.K.n.K./.=X=X4X4X4X4X4X4X4X4X4X4X=X{.{.P.P.P.P.P.J.n.H.J.P.K.=XG.&.VXPXPXPXIXIXIXIXIXIXPXLXLXLXJXVXF.*X-X*X*X[.].].].`.`.OXOXXXXXXXXXXXXXoXY.Y.oXoX@X$X@X@X$X$X@XoXoXoXoXoXoXXXXXE.E.G.G.G.G.G.G.G.V.V.V.N.b.b.b.b.b.d.a.a.d.d.u.y.y.y.y.y.y.! ! ! U U I P P P J J J K J H H H H C C C C C H K P I I I U ^ ^ ~ ~ ^ ( ( p.p.p.p.a.v.c.c.c.c.c.m.M.M.M.m.M.M.D.D.D.D.D.D.D.D.D.D.D.U.U.8.8.8.8.U.U.8.8.8.8.8.8.8.8.8.8.8.8.8.8.8.8.8.8.8.8.8.8.8.8.8.8.8.8.8.8.8.8.8.",
": : : : : : = = = = = = : : : : > > 1 1 1 1 u u t u u u u i i j h l l l f f f f g g g H H J K J I I K K E ~ ! Q Q ! %.%.&.%.%.%.,.,.,.,.%.%.,.,.,.,.,.,.,.,.1.1.1.1.1.1.1.2.2.>.>.>.A.A.A.v.v.v.v.v.c.m.M.B.N.B._._.Z.Z._._.'.'.].].[.].].[.{.{.J.n.n.h.j.S.S.>XS.R R Y N N R R R #.#.Y f # X # # # # = a = y # #.I.a M S.ZXZXZXxX>X~.^.^.>XzXcXcX4X4XP.n.r.H.P././.P.L.L.L.P.P.P.=X4X=XP.H.H.H.H.H.P.P.K.H.H.K.P.P.P.P.H.H.n.k.k.u.k.u.u.u.k.h.y.t.L t.u.n.K.K.L./.=X4X4X4X4X4X4X4X4X4X4X4X=X{.P.P.P.P.P.P.J.n.H.J.P./.~.S.:XPXPXPXIXIXIXIXPXIXIXPXPXLXLXJXJXsX:XOX*X*X[.].].`.`.`.OXOXXXXXXXXXXXoX#XXXY.R.R.@X@XR.@X$X@XoXoXoXoXoXoXXXXXXXE.E.G.G.G.G.G.G.Z.V.V.V.N.b.b.b.b.b.d.a.a.d.u.y.y.y.y.y.y.y.R ! ! U U U I I I P I P P P K H H H C C C C Z H K I I U U ~ ~ ~ ^ ^ ^ ( ( p.p.p.p.a.a.c.c.c.c.c.m.M.M.M.m.M.M.A.A.A.D.D.D.D.D.D.D.D.U.U.8.8.8.8.D.D.8.8.8.8.8.8.8.8.8.8.8.8.8.8.8.8.8.8.8.8.8.8.8.8.8.8.8.8.8.8.8.8.8.",
": : : : : : = = = = = = : : : : > > 1 1 1 1 u u t u u u u i i i h h l l f f f f g g g H H J K J I I K K E ~ ! Q Q Q &.&.&.%.%.%.%.%.,.,.%.%.,.,.,.,.,.,.,.,.1.1.,.1.1.1.1.2.2.2.>.>.A.A.A.v.v.v.v.v.c.m.M.B.B.B._._.Z.Z._._.'.'.].].[.].].[.{.{.J.b.n.n.n.n.j.>Xh.L R x x N #.#.#.#.# = = # # y # # # # y > # y VXZXvX>X~.MXDXZXxXK.K.6X/.=XcXcX7X5X4X=XL.y.k.L././.P.L.L.K.L.P.P.=X=X=XP.K.H.H.H.K.P.P.L.H.H.K.P.P.P.L.K.H.n.k.k.u.u.u.u.u.u.t.t.t.N r.n.H.L.L.P./.=X4X4X4X4X4X4X4X4X4X4X4X=X{.P.P.P.P.{.P.J.n.H.J./.~.~.E.JXPXUXPXPXIXIXIXPXPXIXPXIXPXLXLXJXPX,X`.*X*X].].`.`.`.`.OXOXOXXXXXXXoXoX#XoXoX@X%XsX%X@X@X@X@XoXoXoXXXXXoXXXXXXXE.E.E.G.G.G.G.G.Z.G.V.V.N.b.b.b.b.b.d.a.a.d.u.y.y.y.y.y.y.y.! ! ! ! U U E E I I I I I I K K H H H H H H H K I I I U U ~ ^ ^ ^ ^ ( ( p.p.p.p.a.a.c.c.c.m.M.M.M.M.M.M.m.M.M.A.A.A.D.D.D.D.D.D.D.D.U.U.8.8.8.8.U.D.8.8.8.8.8.8.8.8.8.8.8.8.8.8.8.8.8.8.8.8.8.8.8.8.8.8.8.8.8.8.8.8.8.",
": : : : : : = = = = = = : : : : : > 1 1 1 1 u u t u u u u i i i l l l l f f f f g g g H H J J J I I K K E ~ ~ Q Q ! ! %.%.%.%.%.%.%.,.,.%.%.,.,.,.,.1.,.,.,.1.1.,.1.1.1.1.2.2.2.>.>.A.A.A.A.v.v.v.c.c.m.m.N.B.B.Z.Z.Z.Z._._.'.'.].].].].].[.'.{.L.V.M.n.j.j.j.>Xh.R N a a M @.x h t t = # = = # # = = # X # # ~.JXvXxXvXdX>X>X~.S.^.6XcX/.7X8X5X4X4X=X4X4XH.k.H.L.P.P.K.H.H.K.P.P.=X=X=XP.K.u.n.H.L.P.P.L.K.H.K.L.P.P.L.H.n.n.k.u.y.u.k.u.y.t.t.t.R N u.H.L.L.P./.P.4X4X4X4X4X4X4X5X5X4X4X4X=X{.{.P.{.{.P.P.H.H.H.K.L.>Xl.DXPXJXPXPXPXIXIXIXPXPXIXPXPXLXLXLXPXPXHXXX*X*X*XOXOX`.`.`.`.OXOXXXXXoXoXoXoX.X#XsXkXkXkXsX$X@X@XoXoXoXXXXXoXXXXXXXE.E.E.G.G.G.G.G.G.V.V.V.N.b.b.b.b.b.d.d.d.d.d.u.y.y.y.y.y.y.! ! ! ! U U U E I I E I I I K P K J H H H H H K P I I U U ~ ^ ^ ^ ^ ( ( ( p.p.p.a.a.c.c.c.m.M.M.M.M.m.M.M.M.A.A.A.A.D.D.D.D.D.D.D.D.8.U.U.U.U.U.U.U.8.8.8.8.8.8.8.8.8.8.8.8.8.8.8.8.8.8.8.8.8.8.8.8.8.8.8.8.8.8.8.8.8.",
": : : : : : : : : : : : : : : : > 1 1 1 1 1 u u t u u u u i i i l l l l f f f f g g z H H H J K I K K K E E Q Q Q Q Q %.%.%.%.%.%.%.%.%.%.%.,.,.%.%.1.1.,.,.,.1.1.1.1.1.2.2.2.1.2.>.2.>.A.A.v.v.v.m.m.M.N.N.N.B.Z.Z.Z.Z.Z.Z.Z.'.'.].].].'.[.{.{.].L.n.n.j.j.R j.j.R M a y a @.h = = 1 # = # # = = # # y xXZXI.xXMXxX^.^.^.^.^.^.>X>X/.=X6X7X8X7X5X4X4X/.L.H.K.H.K.L.P.L.K.H.L.P.P.=X=XP.P.K.n.n.K.K.P.P.L.H.H.K.L.P.L.K.n.n.n.h.t.y.t.h.y.t.t.t.t.N N k.H.P.L.P.P.=X4X4X4X4X4X4X5X5X5X4X4X4X=XP.=XP.=XP.4XP.H.i.i.H.^.S.VXIXUXLXUXPXPXIXIXIXIXIXIXPXPXPXPXLXPXLXLXJXXX#XOXOXOXOX`.OXG.F.XX#X#XoXR.@XT.gXkXsX0.Q.Q.6.8.@X&X#XoXoXoXOXoXXXXXXXE.E.G.G.G.G.G.G.G.V.V.V.N.N.b.b.b.b.d.d.d.d.a.a.y.y.y.y.y.y.y.^ ! ! ! U U U I I I I I I P P P J H H J J J J I I I U ~ ~ ^ ^ ^ ^ ( ( ( p.p.a.a.a.a.c.c.m.m.M.m.m.m.m.M.M.D.A.A.D.D.D.D.8.8.8.8.8.8.8.U.U.U.U.8.8.8.8.8.8.8.8.8.8.8.8.8.8.8.8.8.8.8.8.8.8.8.8.8.8.8.8.8.8.8.8.8.8.8.",
": : : : : : : : : : : : : : : : > 1 1 1 1 1 u u t u u u u i i i l l l k f f f f g g z H H H J K K K K K E ~ Q Q Q Q %.%.%.%.%.%.%.%.,.%.%.%.,.,.,.,.1.1.,.,.1.1.1.1.1.1.2.2.2.1.2.2.2.>.v.A.v.v.m.m.c.m.B.N.N.B.Z.Z.Z.Z.Z.Z.Z.'.'.].].].[.[.[.{.{.*XS.n.n.j.R R #.h.N x y t x h = X # O = # u # # # S.ZXVXvXxX^.^.dXxXxX>X^.^.6X6X6X4X4X6X7X7X7X5X4X4X=XP.H.K.J.L.L.L.P.L.K.L.P.P.P.=XP.P.K.H.n.H.n.P.P.L.K.H.K.L.L.L.H.k.n.k.y.t.t.t.t.t.t.R t.L N N u.H.L.P.P.P.=X4X=X=X4X4X4X5X5X5X4X4X4X4X=X=XP.=X4XP.P.3XH.H.L.I.dXLXPXIXIXIXPXIXIXIXIXIXIXIXPXPXPXPXPXPXPXPXPXHXY.#XOXOXOXOXOXXX*XOXF.Y.oX$XuXCXkXaX0.Q.W.7.0.8.T.@X@XoXoXoXoXOXOXXXE.E.E.E.G.G.G.G.G.G.V.V.V.N.N.b.b.b.b.d.d.d.d.a.a.y.y.y.y.y.y.y.^ ! ! ! U U U U I E I I I I P P K J H J J J J I I I U ~ ~ ^ ^ ^ ( ( ( ( p.p.p.a.a.v.c.c.m.m.m.m.m.M.M.M.M.D.A.A.D.D.D.D.8.8.8.8.D.D.8.U.8.U.U.8.8.8.8.8.8.8.8.8.8.8.8.8.8.8.8.8.8.8.8.8.8.8.8.8.8.8.8.8.8.8.8.8.8.8.",
"= = : : : : : : : : : : : : : : 1 1 1 1 1 1 u u t u u u u i i i l l k k f f f f g z z H H H K K K K K K E E Q Q Q Q Q %.%.%.%.%.%.%.%.%.%.%.%.,.,.,.1.1.1.,.1.1.1.1.1.1.1.2.2.1.2.2.2.>.v.A.v.v.m.m.c.m.B.N.N.B.Z.Z.Z.Z.Z.Z.Z.'.'.].].].[.[.{.[.[.*XL.S.n.h.R R N #.#.N x = t = # X # = = t # # &.vX>XZXxXxXxX~.^.dXxXxXzX6X^./.6X6X6X6X6X7X7X7X5X4X4X=X=XP.L.K.K.J.P./.P.L.K.L.P.P.P.P.P.K.n.k.H.k./.P.L.K.H.H.K.L.K.n.k.k.y.t.t.y.y.t.L R R N N N L r.K.L.P.P.P.=X=X/.=X4X4X5X4X4X4X4X4X5X4X4X{.=X4X5XP.P.3XP.H.n.I.HXIXIXIXIXIXIXIXIXIXIXIXIXIXIXPXPXPXPXPXPXPXPXPXHXY.oXOXOXOXOX*XE.F.XXoX.XsXCXfXtXW.0.0.;.=.<.6.2.U..X.XoXoXoXXXOXXXE.E.E.E.G.G.G.G.G.G.V.V.V.N.N.b.b.b.b.d.d.d.d.a.a.y.y.y.y.y.y.y.y.! ! ! ! U U U U U E I I I P K K K J K K K P I I I U ~ ~ ^ ^ ^ ( p.p.p.a.a.a.a.a.c.c.m.m.m.m.m.m.M.M.M.M.M.A.A.D.D.D.D.8.8.8.U.D.8.8.8.8.U.U.8.8.8.8.8.8.8.8.8.8.8.8.8.8.8.8.8.8.8.8.8.8.8.8.8.8.8.8.8.8.8.8.8.8.8.",
"= = : : : : : : : : : : : : : : 1 1 1 1 1 1 u u t u u u u i i i i l f f f f f f z z z C H H H K J K K K K E Q Q Q Q Q Q %.%.%.%.%.%.%.,.%.%.,.,.,.,.1.,.%.%.1.1.1.1.1.1.1.1.2.2.2.2.>.v.A.A.v.v.c.c.c.m.m.m.N.B.Z.Z.Z.Z.Z.Z.Z.'.'.].].].'.'.'.{.[.*X=XL.n.! h.R N N N M x a t # X # # # X # # ~.ZXvXzX~.^.^.^.^.vXxXxX6X>X^.~.^././.8X7X5X5X5X5X4X4X4X=X=XP.L.L.J.L.P.P.P.P.H.J.L.P.P.P.P.K.u.u.H.H./.P.L.H.H.H.K.K.H.n.y.y.y.R t.t.t.L L L L N M N L t.L.L./.P.P.=X=XP.=X4X5X4X4X4X4X5X4X5X4X4XP.=X5X3X4XP.L.P.V.! VXIXIXIXUXLXUXPXIXIXIXIXIXIXIXIXPXPXPXPXPXPXPXPXIXPXGXD.oX#XOXOXF.XX#X@XgXVXkXiXW.Q.W.0.4.4.6.7.2.,.2.R.oX.X.XoXoXoXXXXXXXE.E.G.G.G.G.G.G.V.V.V.N.b.b.b.b.b.d.d.d.d.a.a.y.y.y.y.y.y.y.! ! ! ! ! U U ! U ~ ~ ~ ~ E I K K J J J J P P I I I U ~ ~ ^ ^ ( ( p.p.p.a.s.s.a.a.c.c.m.m.m.m.m.m.M.M.M.M.M.A.A.D.D.D.D.D.8.8.D.D.8.8.8.8.U.U.8.8.8.8.8.8.8.8.8.8.8.8.8.8.8.8.8.8.8.8.8.8.8.8.8.8.8.8.8.8.8.8.8.8.8.",
"= = : : : : : : : : : : : : : : 1 1 1 1 1 1 u u t u u u u i i i i f f l l f f f z z z C H H H K T T I K L E Q Q Q Q Q Q %.%.%.%.%.%.%.%.%.%.,.,.,.,.1.,.,.,.1.1.1.1.1.1.1.1.2.2.2.2.>.v.v.v.v.v.c.v.c.m.m.m.N.B.Z.Z.Z.Z.Z.Z.Z.'.'.].].].'.'.{.{.[.{.=X=XS.R ! R N M M N N x = = # X @.#.:XHXZXzXMX>X~.K.vXxXvXxX>XxX6X6X6X>X/./././.cX8X5X4X4X6X4X4X4X4X=XP.P.P.L.P.P.P.P.L.K.L.L.L.4XP./.K.u.u.n.L././.L.H.H.K.K.K.n.k.y.y.t.t.t.t.R L N L L N N R u.u.L.L./.P.=X=X=X=X=X4X4X4X4X4X4X5X4X4X4X4XP.4X3X{.4X4XK.=Xv.:XPXIXIXIXUXUXLXUXIXIXIXIXIXIXIXIXIXIXIXIXIXIXIXPXHXPXPXGXU.#XXXD.Y.oXgXGXCXfX+Xw.w.7.6.4.6.0.0.6.0.2.<.8..X@X.XoXoXoXXXXXXXE.E.G.G.G.G.G.G.V.V.V.b.b.b.b.b.b.d.d.d.d.a.a.y.y.y.y.y.y.y.y.^ ^ ! ! ^ U U U ~ U U ~ I I P P P P P J J P I I ~ ~ ~ ~ ^ ^ ( ( p.p.a.a.c.c.s.s.c.c.m.B.B.B.m.m.m.m.M.m.M.A.A.A.D.D.D.D.D.U.U.U.U.8.8.8.U.U.U.8.8.8.8.8.8.8.8.8.8.8.8.8.8.8.8.8.8.8.8.8.2.2.2.2.8.8.8.8.8.8.8.8.8.",
"= = : : : : : : : : : : : : : : 1 1 1 1 1 1 u u t u u u u i i i i h l l k f k f z z z z C H H H T T K K K E Q Q Q Q Q Q %.%.%.%.%.%.%.%.%.%.%.%.,.,.,.,.%.%.%.>.%.1.>.1.1.1.1.1.1.1.>.>.v.v.v.v.v.v.v.m.m.m.m.B.V.C.Z.Z.Z.Z.Z.J.'.'.].].].].'.'.{.{.L.;X*Xv.R R R N N x y y = # X X :.dXxXxX>X^.^.>XxXvXxXxXxX^.xX^.xX6X^.^.6X>X>X>XcX8X5X6X5X5X5X5X4X4X=X=XP.P.P.P.P.=XP.K.K.K.K.K.P.L./.L.u.u.n.L.=X=XL.L.K.H.n.n.k.y.y.t.R R R R L R L L N N L t.k.k.K.L.P.P.=X=X=X=X4X4X4X4X4X4X4X5X4X4X4X4X=X4X{.4XP.4XL.~.A.JXIXIXIXIXIXIXUXLXIXIXIXIXIXIXIXPXIXIXPXIXIXIXPXPXLXLXPXPXGX8.oX$X,XCXGXlXiXiXeX9.w.w.w.0.W.6.6.W.0.6.6.8.R.@X@X@XoXoXoXXXXXE.E.G.G.G.G.G.G.V.V.V.b.b.b.b.b.n.d.d.d.d.a.a.a.y.y.y.y.y.y.y.! ^ ^ ! ^ ^ ^ U U ~ ~ ~ E I I P K P P P P I I E ~ ~ ~ ^ ^ ( ( ( p.p.v.v.c.c.c.c.c.m.B.B.B.B.B.B.M.m.M.M.M.M.A.D.D.D.D.D.U.U.U.U.U.8.8.8.8.U.U.8.8.2.8.8.8.8.8.8.8.8.8.8.8.8.8.8.8.8.8.2.2.2.2.2.8.8.8.8.8.8.8.8.6.",
"= = : : : : : : : : : : : : : : 1 1 1 1 1 1 u u t u u u u i i i i j l l f f k k z z z z C H H K T T K K K E Q Q Q Q Q Q %.%.%.%.%.%.%.%.%.%.%.%.,.%.,.,.%.%.%.>.%.1.1.1.1.1.1.1.1.1.>.>.v.v.v.v.v.v.v.m.m.m.m.B.V.C.Z.Z.Z.Z.Z.Z.'.'.].].].].'.'.].{.L.;X;XL.L L R N M a y y # = t y h.^.dX^.xXxXcXBXxXvX6XxX/.^.xX^././././.6X6X6X6X7X6X5X5X5X5X5X5X4X4X4X=X=X=X=X=X=X4X=XP.L.P.P.P.P.L./.L.k.k.n.H.=X/.L.H.n.n.n.n.k.y.t.L L L R L R L L L L t.t.t.k.n.n.K.P.4X4X=X=X=X4X4X4X4X4X5X5X4X5X4X4X=X4X=X{.4XP.4X=XE.VXUXIXIXIXIXIXIXUXLXIXIXIXIXIXIXIXIXIXIXIXIXIXIXPXPXIXLXPXPXJXSX$XSXHXVXgXjXiXaXiXeXW.Q.Q.qXQ.w.w.Q.7.W.w.0.0.@X@X@X@X.XoXXXXXE.E.F.G.G.G.G.G.V.V.V.B.b.b.b.b.b.d.d.d.d.a.a.a.y.y.y.y.y.y.y.^ ! ^ ^ ^ ^ ^ ^ ^ U ~ ~ ~ U I P I I I I I I I U ~ ~ ~ ^ ^ ( ( p.p.p.c.c.c.c.c.c.c.m.B.B.B.B.B.m.M.M.M.M.M.M.A.D.D.D.D.D.U.U.U.U.8.8.8.8.8.U.U.U.8.8.8.8.U.U.U.U.U.U.U.U.8.8.8.8.8.8.8.2.2.2.2.2.8.8.8.8.8.8.8.8.6.",
"* = : : : : : : : : : : : : : 1 1 1 1 1 1 1 u u t u u u u i i i d l l l f f k k k z z z C H H K K T J I K E E Q Q Q Q Q %.%.%.%.%.%.%.%.%.%.%.%.%.%.%.%.%.%.%.%.%.1.1.1.1.2.2.>.1.1.1.>.v.v.v.v.v.v.c.m.m.m.m.N.V.C.Z.Z.Z.Z.Z.Z.'.].'.'.].].].'.{.[.-X*X*X*X! y.R N a x x i x I.vXVXZXZXZXvXvXvXBXxXxXxX(.^.K.(./.^.K.^./.6X6X6X6X6X4X=X4X4X4X4X4X4X4X4X4X4X4X4X4X4X4X4X4XP.P.P.P.P.4X/.=XL.n.u.k.H.P.L.H.n.n.n.n.k.h.t.t.L L L L L L L L L R y.h.t.k.H.n.H.P.5X4X=X=X=X=X4X4X5X5X4X4X4X5X4X4X=X4X4X3X{.5X=XS.:XPXUXIXIXIXIXUXIXLXUXIXIXIXIXIXIXIXIXIXIXIXIXIXIXIXPXPXUXPXLXUXPXJXCXkXkXjXfXaXrXeXeXe.W.eXtXW.Q.Q.W.7.Q.Q.7.0.W.+X@X@X.X.XoXXX`.`.G.G.G.G.G.V.V.V.V.B.b.b.b.n.n.d.a.d.d.y.y.y.y.y.y.y.y.y.y.^ ! ^ ^ ^ ^ ^ ^ ^ ! ~ ~ ! ~ I I I I I I I I U ~ ~ ~ ^ ^ ( ( ( p.p.p.c.c.c.c.c.c.c.m.B.B.B.B.B.m.m.M.M.M.M.M.A.A.A.A.D.D.D.U.U.U.U.8.8.8.U.U.U.U.U.8.8.8.U.U.U.U.8.8.U.U.8.8.8.8.8.8.8.8.8.8.2.2.8.8.8.8.2.2.2.8.8.",
"* = = = = = = = = = = = = : : 1 1 1 1 1 1 1 u u t u u u u u i i d f f f f f f f z z z z H H H K K K J I K L Q Q Q Q Q Q %.%.%.%.%.%.%.%.%.%.%.%.%.%.%.%.%.%.%.%.%.,.1.1.1.2.2.>.1.1.1.>.v.v.v.v.v.v.v.m.m.m.m.N.V.C.Z.Z.Z.Z.Z.Z.'.].'.'.].].'.'.{.[.{.{.[.*XL.y.! R M N R x dXHXZXdXZXvXMXxXvXvXcXzX^.^.^./././.K./././././.6X6X6X6X=X=X=X=X=X4X4X4X4X4X4X4X4X5X5X5X4X4X=XP.P.P.P.P.P.=X=XL.n.y.u.J.L.J.n.n.n.n.k.k.h.t.R L L L L L N L L L t.y.k.n.n.H.H.K.P.P.4X/.=X=X4X4X4X4X4X=X=X5X5X4X=X4X4X4X(.P./.~.:XPXLXUXIXIXIXIXUXIXIXUXIXIXIXIXIXIXIXIXIXIXIXIXIXIXIXIXIXUXPXIXIXUXJXfXlXfXaXaXe.e.e.Q.W.Q.Q.+XeXeXeXeXQ.W.w.7.W.W.W.+X$X@X.XoXXXXXXXG.G.G.G.G.V.V.V.V.b.b.b.b.b.b.d.a.d.d.u.y.y.y.y.y.y.y.y.y.y.^ ! ! ^ ^ ^ ^ ^ ! U U ! ~ E I I I I I I I U ~ ~ ~ ^ ^ ^ ( p.p.p.p.a.s.c.c.c.c.m.m.B.B.B.M.M.M.M.M.m.m.M.A.A.A.A.A.D.D.D.D.U.U.U.U.U.U.U.U.U.U.U.U.U.U.U.U.U.U.8.U.U.U.U.U.8.8.8.8.8.8.8.8.2.2.8.2.2.2.2.2.2.2.2.",
"* * = = = = = = = = = = = : : 1 1 1 1 1 1 1 u u t u u u u u i i d f f f f f f f f f z z H H H H K T K I K E Q Q Q Q Q Q %.%.%.%.%.%.%.%.%.%.%.%.%.%.,.,.,.,.%.%.,.1.1.1.1.2.2.2.1.1.1.>.>.>.v.v.v.v.c.m.m.m.m.N.V.C.Z.Z.Z.Z.Z.J.'.'.'.'.'.'.'.'.{.{.[.[.[.[.{.n.y.! R R &.M MXHXHXZXZXvXBXxXxXzX(././././././././.^.(./././.4X4X=X=X=X=X4X4X4X4X4X5X4X4X4X4X4X4X4X4X5X4X=XP.P.P.P.P.P.=X/.L.n.y.u.L.L.H.n.n.n.k.k.h.y.t.L L L L L L L L L R t.y.k.n.n.H.H.L.P.P././.=X=X4X4X4X4X4X4X5X5X4X4X4X4X4XP.P.4X=XE.HXPXUXLXIXIXIXIXIXIXUXUXIXIXIXIXIXIXIXIXIXIXIXIXIXIXIXIXIXIXPXUXIXKXhXaXjXaXpXrXe.e.e.Q.Q.Q.Q.Q.Q.Q.Q.Q.eXQ.Q.W.7.6.6.6.+X@X@XoXXXXX`.G.G.G.G.G.B.B.V.V.b.b.b.b.b.d.a.a.a.d.u.y.y.y.y.y.y.y.y.y.y.y.! ! ^ ^ ^ ^ ^ ! U ~ ! ~ ~ I I I I I I U U ~ ~ ^ ^ ^ ^ ( p.p.p.p.a.s.c.c.c.c.m.m.B.B.M.M.M.M.m.M.M.m.M.v.A.A.A.A.D.D.D.D.U.U.D.D.D.D.U.U.U.8.U.U.U.U.U.U.U.U.8.U.8.8.U.U.8.8.8.8.8.8.8.8.8.2.2.2.2.2.2.2.2.2.2.",
"% % = = = = = = = = = = = : : 1 1 1 1 1 1 1 u u t u u u u u i i f f f f f f f f f f z z Z H H H K T I K K E Q Q Q Q Q Q %.%.%.%.%.%.%.%.%.%.%.%.%.,.,.,.,.,.%.,.1.1.1.1.1.1.2.2.1.1.1.>.>.>.v.v.v.c.c.m.m.m.m.N.V.C.Z.Z.Z.Z.Z.Z.'.'.].].'.'.'.'.{.'.{.[.[.[.=XZ.y.y.R R h.N >X>XZXMXZXvXMXxXzX6X(./././.^.~.^./././.(././.P././././././.4X4X4X4X4X5X5X4X4X5X5X5X5X5X5X4X=XP.P.P.P.P.P.P.L.K.n.y.n.K.K.n.n.n.k.k.h.y.t.R R L L L L L L R t.t.y.y.k.n.n.H.K.L.L.H.P.P.=X4X4X4X4X4X4X4X5X4X4X4X4X4X{.P.=X=X~.VXPXIXUXLXIXIXIXIXIXIXUXUXUXUXIXIXIXUXUXUXIXIXPXPXPXPXPXIXIXPXIXIXKXaXfXyXpXyXeXe.!.!.e.e.e.e.W.W.W.W.Q.W.eXQ.Q.W.7.6.6.4.8.@X#XoXF.XX`.G.G.G.G.G.B.B.V.V.b.b.b.b.d.d.a.a.a.d.u.y.y.y.y.y.y.y.y.y.y.y.y.^ ^ ^ ^ ^ ^ ^ ~ ~ ! ! ~ E ~ I I I U ~ ~ ~ ~ ^ ^ ^ ^ ( p.p.a.a.a.s.c.c.c.c.m.m.B.B.M.M.M.M.M.M.M.M.v.v.D.A.A.A.D.D.D.D.D.D.U.U.U.U.U.U.U.U.U.U.U.U.U.U.U.U.U.U.U.U.U.U.8.8.8.8.8.8.8.8.2.2.2.2.2.2.2.1.2.2.2.",
"% % = = = = = = = * = = = : : > 1 1 1 1 1 1 u u t u u u u u i i d f f f f f f f f g z z H H H K K K K I K E Q E Q Q Q Q %.%.%.%.%.%.%.%.%.%.%.%.%.%.,.,.%.,.%.,.,.1.1.1.1.1.1.1.1.1.1.>.v.v.v.v.v.v.v.m.m.m.N.N.V.C.Z.Z.Z.Z.Z.Z.'.'.].].'.'.'.'.{.{.{.{.{.{.{.{.B.R L N h.h.zXS.vXxXMXzXxX^.^./.^.^.^.K.K.z.K.K././././././././././././.4X4X4X4X4X4X4X4X4X5X5X8X5X8X5X5X=XP.P.P.P.P.P.L.L.K.k.y.n.n.n.k.k.k.k.h.y.y.t.L L L L R R R R t.t.t.y.u.k.k.n.H.K.L.H.H.=X4X=X4X4X4X4X4X4X4X4X4X4X4X4XP.P.4X=X*X:XJXUXLXUXKXUXIXIXIXIXIXIXIXIXIXIXIXUXUXUXUXPXPXIXIXPXPXPXPXIXPXUXKXiXjXaXyXeXeX!.9.e.e.e.w.w.w.w.w.W.W.W.W.W.W.w.7.7.w.w.9.2.T.@X.XF.`.`.F.G.G.G.G.G.B.V.V.n.b.b.b.d.d.a.a.d.d.d.y.y.y.y.y.y.y.y.y.y.y.y.^ ^ ^ ^ ^ ^ ^ ~ ~ ~ ! ~ E ~ E I I U U ~ ~ ~ ^ ^ ^ ^ ( p.p.p.a.a.s.c.c.c.c.m.m.B.B.M.M.m.m.M.M.M.m.M.v.A.A.A.A.D.D.D.D.8.8.U.U.U.U.U.U.U.U.U.U.U.U.U.U.U.U.U.U.U.U.U.U.U.8.8.8.8.2.2.2.2.2.2.2.1.1.1.1.1.1.1.",
"= = = = = = = = * * = = = : : > 1 1 1 1 1 1 u u t u u u u u i i d f f f f f f f f f z z C H H H K J K K K K E E Q Q Q Q %.%.%.%.%.%.%.%.%.%.,.,.%.%.,.,.,.,.,.,.%.%.>.1.1.1.1.1.1.1.2.>.>.>.v.v.v.v.v.c.c.m.m.N.V.V.V.V.Z.Z.Z.Z.'.'.'.'.'.'.'.'.'.'.{.{.{.{.[.[.J.v.j.N R S.zX>XzXzX>X^.^.K.~.K.z.g.g.g.k.k.K.K.K.K.K.L.L.L.P.P././././.4X4X4X4X5X4X4X4X5X5X8X8X8X8X8X5X=XP.P.P.P.P.L.L.L.n.h.y.k.n.n.h.h.h.y.y.y.t.R R R R L R R y.y.y.y.y.y.u.k.k.n.H.H.P.K.H.P.P.=X4X4X4X4X4X4X4X4X4X4X4X4XP.P.=X*XG.JXJXPXUXKXUXUXIXIXIXUXUXUXIXIXIXIXIXUXUXUXUXIXIXIXIXIXIXIXIXLXUXKXaXaXaXaXrXQ.9.6.e.7.7.7.9.w.w.w.w.Q.Q.Q.Q.Q.W.w.w.7.7.7.7.5.,.8..XXXXX`.F.F.G.G.G.G.V.V.B.n.n.b.b.b.d.d.d.d.d.d.y.y.y.a.a.y.y.y.y.y.y.y.^ ^ ^ ^ ^ ^ U ~ ~ ! ! ~ ~ U I I I U U U ~ ~ ~ ^ ^ ^ ( p.p.p.a.a.s.c.c.c.c.m.m.M.M.M.M.m.m.M.M.m.m.v.v.>.A.A.A.A.D.D.D.U.U.U.U.U.U.U.U.T.T.U.U.T.U.U.U.U.U.U.U.U.U.U.U.U.U.8.8.2.2.2.2.2.2.2.2.2.1.<.<.<.<.1.",
"= = = = = = = * * * * = = : : > 1 1 1 1 1 1 u u t u u u u u i i f l f f f f f f f f z z C H H H H K K K K K Q W Q Q Q Q %.%.%.%.%.%.%.%.%.%.%.%.%.%.,.,.,.,.%.%.%.>.>.1.1.1.1.1.>.>.>.>.>.v.v.v.v.v.v.c.m.c.m.B.V.V.V.V.Z.Z.Z.Z.'.'.].].'.'.'.'.].].].].'.].{.[.'.B.j.R R h.zX^.~.I.S.h.j.t.j.h.g.t.g.h.j.k.n.S.n.K.K.L.P./.P././.=X=X=X4X5X5X7X5X5X4X4X5X7X8X8X8X8X8X8X4X=XL.P.P.P.L.L.K.n.y.y.h.k.k.h.y.! ! R R R R R R R L R t.y.y.h.h.h.u.u.k.k.n.K.H.P.H.H.H.L.P.4X4X4X4X4X4X4X4X4X4X4X=X=XP.L.M.HXPXPXUXKXUXIXIXIXIXIXUXUXUXUXIXIXIXIXIXUXIXIXIXIXUXIXIXIXIXIXUXJXaXjXaXyX+Xe.rXQ.9.w.7.9.w.w.7.7.7.7.Q.Q.Q.Q.Q.W.W.w.w.7.7.7.1.,.1.T.F.XXXXF.F.G.G.G.G.V.V.B.n.n.b.b.b.d.d.d.d.d.d.a.y.y.a.a.y.y.y.y.y.y.y.^ ^ ^ ^ ^ ^ U ~ ~ ~ ~ ~ ~ U I I I I U U ~ ^ ~ ^ ^ ( ( p.p.p.a.a.s.c.c.c.c.c.m.m.m.M.M.m.M.M.M.M.m.v.v.>.2.A.A.D.D.D.D.U.U.U.U.U.U.U.U.T.T.T.T.T.T.T.T.T.T.T.T.T.U.U.U.U.U.8.8.2.2.2.2.2.2.2.1.1.,.,.,.,.,.,.",
"= = = = = = = * * * = = = : : > 1 1 1 1 1 1 u u t u u u u u i i d l f f f f f f f f z z C H H H H K K K K K E W Q Q Q Q %.%.%.%.%.%.%.%.%.%.%.%.%.%.,.,.,.%.,.%.,.%.>.1.1.1.1.1.>.>.>.>.v.v.v.v.v.v.v.c.m.m.m.N.V.V.V.V.Z.Z.Z.Z.J.'.].].'.'.'.'.].].].'.'.{.{.}.{.L.n.h.R R ^.>X~.~.S.g.h.g.R R R R h.h.j.j.j.n.K.K.L./././././.4X4X4X5X7X7X7X7X8X5X5X5X7X8X8X8X8X8X8X5X=XP.P.L.L.H.H.K.S.k.t.y.h.h.y.R R R R R R R R R R R R R y.y.h.h.h.h.h.k.k.k.n.K.K.P.H.H.H.L.P.P.=X4X4X4X4X4X4X4X4XP.P.P.P.L.bXPXPXPXLXIXUXUXUXIXIXIXUXUXUXUXIXIXIXIXIXUXIXIXIXIXIXIXIXIXIXIXJXyXaXaXiXrX+X+XeXQ.w.w.w.w.w.w.w.w.9.9.Q.Q.Q.Q.Q.Q.Q.W.w.w.9.9.5.,.,.Y.XXXXXXF.F.G.G.G.G.V.V.B.n.n.b.b.b.d.d.a.d.d.d.a.y.y.a.a.y.y.y.y.y.y.^ ^ ! ^ ^ ^ ^ U ~ ~ ~ ~ ~ ~ ~ U E I U U U ~ ^ ~ ^ ^ ( ( p.p.p.p.a.s.s.c.c.c.c.m.m.m.m.M.m.M.M.M.M.m.v.v.v.A.A.A.D.D.D.U.U.U.U.U.U.U.T.T.R.R.T.T.R.R.T.T.R.R.R.R.T.T.T.U.U.U.8.8.2.1.1.1.1.,.,.,.,.,.,.,.,.,.;.",
"= % = = = = * * = = = = = : : > 1 1 1 1 1 1 u u t u u u u u i i h f l f f f f f f f z z C H H H H K K K I K E W Q Q Q Q Q %.%.%.%.%.%.%.%.%.%.%.%.%.,.,.,.,.%.%.%.%.,.1.1.1.1.1.1.1.>.>.>.>.v.v.v.v.v.c.c.c.m.N.B.B.V.V.Z.Z.Z.Z.J.'.'.].'.'.'.'.].].'.'.{.{.{.{.{.'.n.n.h.N ~.^.z.g.g.R h.g.R R t.t.h.h.j.n.n.K.L./.L././.=X=X=X4X6X5X7X8X8X8X8X8X7X5X7X8X8X8X8X8X8X5X4XP.L.L.L.K.H.n.n.n.k.L y.h.y.R R R R L L R R R R R R R t.y.h.h.h.h.y.u.h.k.k.n.K.L.P.H.L.P.P.P.P.P.=X4X4X4X4X4X4X4X/.P.K.L.<XPXPXPXUXPXUXUXUXUXIXIXIXUXUXIXUXUXIXIXIXIXIXIXIXIXIXIXIXIXIXIXIXaXaXQ.0.9.9.9.w.5.9.w.9.w.e.W.w.Q.+XQ.Q.+X+XQ.Q.Q.Q.Q.Q.e.w.w.w.9.6.8.R..XXXXXF.G.G.G.G.B.B.B.V.N.b.b.b.d.d.d.a.a.u.d.a.y.y.a.y.a.y.y.y.y.^ ^ ^ ! ! ^ ^ ^ ~ ~ ~ ~ ! ~ ~ ~ U ~ E ~ ~ U ~ ^ ~ ^ ^ ( ( ( p.p.p.a.s.s.c.c.c.c.m.m.m.m.m.m.m.m.M.m.m.v.v.v.2.8.8.D.D.D.U.D.U.U.U.U.U.T.T.T.T.R.R.R.R.R.R.R.R.R.R.R.R.T.U.U.8.8.6.2.1.1.,.,.;.:.:.;.;.;.;.,.,.;.",
"= * = = = = * * = = : : : : > > 1 1 1 1 1 u u u u u u u u i i i d d l f f f f f g g g g z C H H K K K K I K E E Q Q Q Q Q %.%.%.%.%.%.%.%.%.%.%.%.%.,.,.,.,.%.%.%.%.,.,.1.1.>.>.1.1.>.>.>.>.>.v.v.v.v.c.c.c.c.m.B.B.B.V.Z.V.V.Z._.'.'.'.].].'.'.].].'.'.{.{.{.{.{.{.].h.L L h.<Xj.j.t.g.g.g.g.h.h.h.h.j.j.S.S.K.L.L./././.=X4X6X6X5X7X8X8X8X8X8X8X7X5X7X8X8X8X7X7X5X4X4XP.L.L.L.K.n.n.n.k.L L y.y.R R R R R R R L L L R R R t.t.y.h.h.h.u.y.y.k.u.k.H.H.L.L.L.L.L.H.K.P.P.=X=X{.3XP.5X(.5XP./.>XA.PXPXPXPXUXUXUXUXUXUXIXIXIXIXIXUXUXUXUXIXIXUXUXUXUXUXUXIXUXJXUXUXw.rXrXeXe.Q.5.Q.5.9.9.9.7.9.w.w.9.eXeXeXeX+X+X+X+XeX4.eXeXeXQ.Q.tXeXQ.9.6.1.T.R.Y.F.G.G.B.B.N.N.N.b.f.f.d.a.a.y.y.u.u.a.u.r.y.a.n.y.y.y.y.y.^ ^ ! ! ^ ^ ~ ~ ~ U U U U ~ U U U U U U U U ~ ^ ~ ^ / / ( ( ( p.p.a.s.s.s.s.s.c.c.m.m.m.m.m.m.M.m.m.m.v.v.D.D.A.D.D.A.D.U.D.U.U.T.T.T.T.T.E.E.R.R.E.R.E.E.@X@XE.E.R.E.R.T.U.U.8.6.2.1.1.,.,.:.:.:.;.;.;.;.;.;.:.",
"* * * = = = = * = = : : : : > > 1 1 1 1 1 u u u u u u u u i i i d d f f f f f f f g g g z C H H K K K K K K E E Q Q Q Q Q Q %.%.%.%.%.%.%.%.%.%.%.%.%.%.,.,.,.,.%.%.%.%.1.1.>.>.1.1.>.>.>.>.>.v.v.v.v.c.c.m.c.m.B.B.V.V.Z.V.V.Z._.'.'.'.].].'.'.].].{.'.'.].{.{.[.{.{.Z.y.R R :XS.S.h.h.h.h.t.t.t.y.h.j.j.S.j.S.K.~.=X/./.4X6X5X7X7X8X8X8X8X8X8X8X7X7X8X8X8X7X7X5X4X=X=XP.L.L.L.L.n.k.n.h.L L R R R R R R R R R L L L R R R t.t.y.h.k.k.u.y.y.k.u.k.u.P.L.H.L.L.n.P.P./.=X=X=X=X4X3XP.4X(.4X>XA.HXUXUXUXUXUXUXUXUXUXIXIXIXIXIXIXUXIXIXIXIXIXUXUXUXUXUXLXUXUXUXLXw.yXQ.e.w.w.w.7.w.7.w.9.6.9.9.9.9.9.w.w.w.w.Q.Q.Q.Q.eXe.iXeXeXiXiXyXqXeXeXeXW.W.Q.$XD.M.M.B.B.N.N.N.b.b.f.s.d.d.d.a.u.u.u.u.n.d.y.r.y.y.y.y.y.^ ^ ^ ! ^ ^ ~ ~ ~ ~ ~ U U ~ U U U U U U U U ~ ^ ~ / / / ( ( ( p.p.a.s.s.c.s.s.c.c.m.c.m.m.m.m.M.m.m.m.v.A.v.A.A.D.D.A.D.D.D.U.T.T.T.T.R.R.E.E.E.R.#X#X#X#X#X#X#XE.E.E.E.R.T.U.U.6.2.1.1.,.,.:.;.:.;.:.%.%.%.%.%.",
"* * * = = = * * = = : : : : > > 1 1 1 1 1 u u u u u u u u i i i i d f f f f f f f g g g z C H H K K K K K K E E Q Q Q Q Q Q %.%.%.%.%.%.%.%.%.%.%.%.%.%.,.,.%.,.%.,.%.%.%.,.1.1.1.1.>.>.>.>.>.v.v.v.v.c.c.c.c.m.B.B.B.V.Z.V.V.Z.Z._.'.'.].].'.'.].].{.{.].].{.{.{.{.{.{.Z.y.R G.^.S.h.h.h.h.h.h.h.h.h.j.j.n.j.S.L./.6X=X=X7X7X7X7X7X8X8X8X8X8X8X8X8X8XcXcX7X5X6X6X4X/.P.L.K.S.K.S.n.k.h.y.R L R R R R R R R R R L L L R R R t.y.y.h.k.k.h.u.k.k.k.u.H.k.L.H.H.K.P.H.K.K.L.J.L.L.L.L.(./.6X>X~.ZXPXUXUXUXUXUXUXUXUXUXIXIXIXIXIXIXUXIXIXIXIXIXUXUXUXUXUXUXPXUXUXyXw.w.e.7.7.7.w.W.6.7.W.9.6.w.w.7.7.9.9.9.9.9.e.e.e.e.+X+XtXrXtXtXqX9.eXrXtXQ.Q.0.6.T.E.E.E.G.M.M.B.B.b.c.c.c.p.y.y.y.y.u.u.y.y.y.y.y.y.y.y.y.y.y.y.^ ^ ^ ^ ! ~ ~ ~ ~ U U U U U U U U U U U ~ ^ ~ / / ( ( ( ( p.p.a.a.s.s.s.s.c.c.c.c.m.m.m.m.M.m.m.m.v.v.v.A.A.D.D.D.D.D.D.U.T.T.T.T.R.R.E.R.#X:X:XuX:X:XsXsX:X:X:XE.E.E.R.I.U.8.2.2.2.2.;.;.;.:.:.%.%.%.%.%.%.",
"* * = = = = * * = = : : : : > > 1 1 1 1 1 u u u u u u u u i i i i d f f f f f f f f g g z C H K K K K K K K E E Q Q Q Q Q %.%.%.%.%.%.%.%.%.%.%.%.%.%.%.,.,.,.,.%.%.%.%.%.1.>.1.1.1.>.>.>.>.>.v.v.v.c.c.c.c.c.m.B.B.B.V.V.V.V.Z._.'.'.].].].'.'.].].].].{.{.{.{.{.{.{.-X{.b.y.n.=Xn.R R R R n.n.j.j.j.j.j.n.L.~././.6X6X6X8X8X8X8X8X8X8X8X8X8X8X8X8XcXnXcX7X6X6X4X=XL.L.L.n.n.S.n.y.k.y.R L R R R R R R R R R R L L L R R t.y.y.y.h.k.k.k.h.k.k.k.k.u.K.H.H.H.H.H.K.P.P.L.L.P.P.P.P.4X7X~.:XdXIXUXIXIXUXUXUXIXIXIXIXIXUXUXUXUXUXIXIXIXUXUXUXIXUXUXUXPXUXUXLXrX+XeXW.W.6.4.6.w.+X4.w.w.9.7.w.W.6.6.e.w.w.w.w.w.w.w.w.Q.9.w.tXeXQ.tXaXqXqXqXeXyXtXQ.T.T.I.F.F.F.M.M.M.M.M.m.m.v.v.v.v.a.a.k.y.y.y.y.y.y.a.y.y.y.y.^ ^ ^ ^ ^ ~ ~ U ~ ~ U U U U U U U U U U U U ~ ^ ( ( ( ( ( p.p.p.a.a.s.s.s.s.c.c.c.c.m.m.M.M.M.m.m.m.v.v.A.A.A.A.D.A.D.U.U.U.U.I.T.E.R.E.@X#X:X:XsXsXdXdXsXsXdX:X:X:X~.E.R.R.I.U.U.2.2.2.:.:.%.;.:.%.%.%.$.$.$.",
"* * * = = = * * = = : : : : > > 1 1 1 t t u u u u u u u u i i i i j f f l l f f f g g g z C H K K J K I K K Q W Q Q Q Q %.%.%.%.%.%.%.%.%.%.%.%.%.%.%.%.,.,.,.,.%.%.%.,.%.%.>.1.1.1.>.>.>.>.>.>.v.v.v.c.c.c.c.m.B.B.B.B.Z.B.V.V.Z._.'.'.].].'.'.].].'.'.'.{.{.].{.{.'.'.{.{.J.n.=XL.h.j.n.S.S.j.j.n.S.K.~.=X7X6X6X=X7X8XcXcXcXcXcXcX8X8X8X8X8X8X8X8X8X7X6X6X6X=X~.K.L.K.n.k.j.h.h.y.R R L R R R R R R R R R R R L R R R y.y.y.y.h.k.k.u.u.u.k.k.k.n.H.n.H.H.H.H.L.K.P.L.K.H.H.H.P.=X8XK.>X:XLXIXIXIXIXIXUXUXIXIXIXIXIXIXUXUXUXUXIXIXUXUXUXUXIXUXUXUXIXLXUXyXW.W.eXeXQ.Q.Q.Q.w.eX6.w.w.9.w.W.Q.6.6.Q.6.w.Q.e.e.w.w.w.Q.eXeXrXQ.eXeXaXhXfXrXw.O.Q.sX$XsXsX%X#XE.A.>.>.D.A.>.&.! v.D.v.! ! ! &.! h.h.h.y.y.y.y.y.y.^ ^ ^ ^ ^ ~ U U ~ ~ U U U U U U U U U U U U ^ ^ / ( ( ( ( p.p.p.a.a.s.s.s.s.c.c.c.c.m.m.M.c.m.v.m.v.v.v.A.A.A.A.D.D.A.U.U.U.I.E.E.E.R.@X%X%XsXsXdXdXdXdXsXsXdXdXdX:X:X~.E.E.R.T.U.U.2.2.:.%.%.%.%.%.$.$.$.@.@.",
"* * = = = = * * = = : : : : > > 1 1 1 t t u u u u u u u u i i i d j l l l l f f f g g g z C H H K K K I K K Q W Q Q Q Q %.%.%.%.%.%.%.%.%.%.%.%.%.%.%.%.,.%.,.,.%.,.,.,.%.%.>.1.1.1.>.>.>.>.>.v.v.>.v.c.c.c.c.m.B.B.B.B.B.B.B.Z.Z._.'.'.].].].'.].].'.].'.'.].].'.{.'.'.{.{.L.V.=X~.L.S.S.S.h.S.~.=X6X6XzXzXzX7X7X7X7X7X7X8XcXcXcX8X8X7X5X6X8X8X7X5X5X5X4X=X/./.L.L.K.n.j.j.h.y.R R R R R R R R R R L L L L R R R R R ! y.y.y.h.k.k.k.y.u.u.k.k.n.H.n.L.H.H.H.K.H.P.P.L.H.H.L.P./.=XL.~.Y.JXPXPXPXIXIXIXIXIXIXIXIXIXIXIXIXIXIXIXIXIXIXIXUXIXUXUXUXUXIXUXfXeXw.eXw.Q.Q.W.W.W.w.w.7.9.9.w.W.W.W.9.9.W.7.W.Q.w.7.9.9.w.e.!.rXiXQ.w.qXyXaX=.<.jXCXfXtXtXQ.+XtXuXsX$X#X,XD.Y.oX#XgXVXVXbXbXdXE.A.&.&.&.&.&.y.y.y.y.^ ^ ^ ^ ^ ^ ~ U ~ ~ ~ U U ~ ~ U U U U I I I U ^ ^ / ( ( ( / p.p.p.a.a.s.s.s.s.s.c.c.c.m.m.M.c.m.v.m.v.v.v.v.A.A.A.D.D.A.A.U.I.I.R.E.@X#X:XsXsXdXdXdXdXdXdXdXdXdXdXdXdXdX:X~.E.R.I.U.U.2.2.:.%.%.%.%.$.$.$.$.@.@.",
"* * = = = = * = = = : : : : > > 1 1 1 t t u u u u u u u u i i i d j l f f f f f f g g g z C H H K K K I K K E E E Q Q Q %.%.%.%.%.%.%.%.%.%.%.%.%.%.%.%.%.%.%.%.,.,.,.,.%.,.>.1.1.1.>.>.>.>.v.v.v.>.v.c.c.c.c.m.B.B.B.B.B.B.B.Z.Z._.'.'.].].'.'.].].'.'.'.'.].].{.{.'.'.'.'.{.J.].>X>X~.S.G.S.=XzXzX7X7X7X8X=X=X6X6X7X7X5X5X7X7X7X7X7X5X5X5X7X7X6X4X4X4X=X/.L.L.L.K.n.j.h.y.R R R R R R R R R R R R R R R R R R R R R R y.y.y.h.h.k.y.y.u.u.k.k.n.H.L.k.H.H.H.L.=XJ.P.L.H.H.H.K.K.K.*XD.DXPXUXPXIXUXUXUXUXUXIXIXIXIXIXIXIXIXIXIXIXIXIXIXUXUXUXUXUXUXUXlXrXeXQ.w.Q.w.w.w.w.w.Q.4.W.w.6.w.Q.w.9.W.W.9.w.Q.e.7.7.9.e.Q.iXrX+Xe.iXpXjXpXw 7.aXaXw.7.0.0.*.;.7.T.0.8.T.$XkXVXCXCXVXVXgXsXfXsX#XE.>.&.>.>.&.&.! ! ! ! ! ! ! ! ^ ^ U U U U U U U U U U U U I I I U ^ ^ / / / / / p.p.p.a.a.s.s.s.s.s.c.c.c.m.m.M.c.c.c.m.v.v.v.v.A.A.A.A.A.A.A.A.U.E.E.@X:XsXdXdXdXgXgXgXgXxXxXgXgXgXdXdXdXdX:X:XE.E.I.T.U.2.2.:.:.%.%.%.@.$.$.$.| ..",
"= = = = = = = = = = : : : : > > 1 1 1 t t u u u u u u u u i i i d f l l f f f f g g g g z H H H K K K I I K E E Q Q Q Q %.%.%.%.%.%.%.%.%.%.%.%.%.%.,.,.%.%.%.%.%.%.%.%.,.1.1.1.1.1.>.>.>.>.v.v.v.>.p.s.m.m.m.m.B.B.B.B.B.B.B.Z.Z.Z.'.'.'.'.'.'.].'.'.'.'.'.].].{.{.{.{.'.'.}.J.J.5X7X=X=X7XzXMXMXzX7X7X7X6X6X6X7X7X7X7X6X6X6X6X6X5X5X7X7X5X4X4X=X=X=X=X/./.K.H.K.K.j.h.y.R R R R R R R R R R R R R R R R R R R R ! R R t.y.y.y.h.k.u.k.u.k.k.k.n.H.H.K.H.H.L.P.L.{.P.P.P.P.P.P.~.~.E.gXPXUXLXUXIXIXIXIXIXIXIXIXIXIXIXIXIXIXIXIXIXIXUXIXIXIXUXUXUXUXGXeX7.eXQ.W.9.9.w.w.w.w.W.4.w.7.6.W.W.9.7.+X+X7.W.Q.w.6.w.Q.rXiXrXeXeXQ.fXaXyXe { w.pXrXeXQ.W.Q.eXtXiXaXfXgXCXGXGXCXCXkXgXkXkXgXCXCXVXVXdX@X1.W %.%.&.&.&.&.&.! ! ^ ^ ~ ~ U U U U U U U U I I I I I U U ^ ^ / / / / / / p.p.p.a.s.s.s.s.s.c.c.c.c.c.m.c.c.c.m.m.v.v.A.A.A.A.D.D.I.A.F.D.E.@X%X:XdXdXgXgXvXvXvXvXvXbXvXvXbXgXdXdXdXdXsX:XE.E.I.I.A.:.:.:.:.%.$.$.$.$.@.| | ",
"= = = = = = = = : : : : = > > > 1 1 1 t t u u u u u u u u u i i i f f f f f f f f f f z z C H H H K K J I K E E Q Q Q Q Q Q %.%.%.%.%.%.%.%.%.%.%.%.%.%.%.%.%.%.%.%.%.%.,.,.1.1.1.1.>.>.>.v.v.v.v.p.a.s.m.m.c.m.B.B.B.B.B.B.B.V.Z.Z.J.'.'.'.'.'.'.'.'.'.'.'.].].].'.'.'.'.'.Z.Z.{.;X;X=X>X>XnXzXzXNXzX7X7X6X6X6X6X6X7X7X7X6X6X6X6X4X4X4X6X4X=X/.P.P.P.L.K.n.n.n.j.j.h.y.t.R R R R R R R R R R R R R R R R R R R R R R R t.t.y.y.k.k.t.k.u.k.k.n.H.H.H.K.H.H.L.P.P.H.P.3XH.P.L.K./.~.gXLXUXUXIXUXIXIXIXIXIXIXIXIXIXIXIXIXIXIXIXIXIXUXUXIXIXIXIXKXUXKXW.w.Q.9.Q.w.W.9.w.W.W.w.w.W.w.6.7.w.w.w.6.eX7.w.Q.eX9.e.w.9.rXeXyXQ.iXaXlXaX. [ w.pXfXeXrXfXkXjXjXtX7.;.jXGXGXlXGXGXCXlXCXCXCXCXjXkXlXlXGXCXkXgX%XU.2.1.2.Q &.&.~ ~ ^ ^ ^ ~ ~ U ~ ~ E I I I I I I U U U U ^ / / / / / p.p.p.p.a.s.s.s.s.s.c.c.c.c.m.c.c.m.c.m.m.m.v.A.A.A.A.A.F.U.U.T.E.#X#XsXdXgXxXvXvXVXVXVXVXVXvXvXvXvXbXxXxXdXdXdX:X:XE.E.I.A.2.:.:.:.%.$.$.$.$.@.| | ",
"= = = = = = = = : : : : = > > > 1 1 1 t t u u u u u u u u y i i i d a a f f f f f f f z z C H H H K K J I K E Q Q Q Q Q Q Q %.%.%.%.%.%.%.%.%.%.%.%.%.%.%.%.%.%.%.%.%.%.%.1.1.1.1.1.>.>.>.>.v.v.v.v.a.s.m.m.m.N.B.B.B.B.B.B.B.V.Z.Z.'.'.'.'.'.'.].].'.'.'.'.'.'.].].'.'.'.'._.J.'.;X|.5XnXNXDXZXMXcXMXnX7X6X6X6X6X6X6X6X7X4X=X/.=X=X/./././././.P.P.L.L.H.n.k.h.h.y.y.R R L L L R R R R R R R R R R R R R R R R R ! R R R R y.h.k.h.u.k.u.k.n.n.H.H.H.H.H.K.P.P.P.L.L.P.=XK.H.L.~.l.LXIXUXLXUXUXIXIXIXUXIXIXIXIXIXIXIXIXIXIXIXIXIXIXIXPXIXUXPXIXUX+X+XQ.W.W.W.w.w.9.9.W.W.w.w.W.w.7.9.w.w.w.9.Q.9.w.Q.+Xw.w.w.e.rXyXe.+XrXfX+XO 7 e.w.fXaXfXaXw.+.w.9.w.eXfXGXCXkXCXFXFXFXFXFXFXCXCXGXCXlXfXkXkXkXCXCXgXgXfXsXT.2.W ! ~ ~ I I I ~ ~ ~ ~ ~ E P P I U U I U U U ^ / / / / / / p.p.p.p.a.a.a.a.p.s.c.c.c.c.c.c.c.c.m.v.m.v.A.A.A.A.A.U.I.T.E.:X%XsXdXgXvXvXVXVXVXVXVXVXVXvXvXvXvXvXvXxXdXdXdXdX:X~.E.I.I.A.:.:.:.%.%.$.$.$.@.| | ",
"* = = = = = = = : : : : = > > > 1 1 1 t t u u u u u u u u i i i i d a f f f f f f f f z z C H H H K K J K K E Q Q Q Q Q Q Q %.%.%.%.%.%.%.%.%.%.%.%.%.%.%.%.%.%.:.&.&.&.>.1.1.1.1.1.>.>.>.v.v.v.v.v.v.c.m.m.m.B.B.B.B.B.B.B.B.V.Z.Z.'.'.'.'.'.'.].].'.'.'.'.'.'.].].'.'.'.'.{._.'.}.9X0XmXnXnXMXBXMX7X6X>X/./././././.=X4X/./.~././.=X/././.L.L.K.J.L.K.n.k.y.y.y.R R R L L L L R R R R R R R R R R R R R R R R R ! ! ! R t.y.h.k.h.u.y.k.k.n.k.n.H.H.H.H.K.L.P.P.P.P.L.n.cXK.~.v.JXUXUXLXUXUXIXIXIXUXUXIXIXIXIXIXIXIXIXIXIXIXIXIXIXPXIXUXUXPXUXfX5.tX+Xw.e.W.W.w.9.7.w.w.9.w.w.7.9.w.w.w.w.w.7.e.w.+Xe.Q.w.e.eXeXpXiXlXjXpX@ 4 -.eXeX7.eXyXw.+XaXeXQ.aXlXGXGXlXjXGXCXlXlXlXlXlXlXlXjXjXjXfXjXjXfXfXiXaXkXkXkXgXgXsX>.( Q P E ~ Q E Q Q Q Q Q E P P I I I U U ^ / / / / ( ( p.p.p.p.a.a.a.a.p.s.c.c.c.c.c.m.m.m.m.v.m.v.A.A.A.A.F.U.E.E.:X:XdXdXgXvXvXvXVXVXVXVXVXVXVXVXVXMXvXvXvXbXxXxXdXdX:X:X~.E.I.A.2.:.:.:.%.$.$.$.Y F F ",
"* * = = = = = = : : : : = > > > 1 1 1 t t u u u u u u u u y i i i f a a f f f f f f f g z C H H H K K K K K E E Q Q Q Q Q Q $.$.%.$.%.%.%.%.%.%.%.%.%.%.%.%.&.&.:.:.:.&.:.1.1.2.>.>.>.>.>.>.>.v.v.v.p.c.m.m.c.m.B.B.B.B.B.B.B.V.Z.Z.'.'.'.'.].].].].].].].].'.'.].].'.'.'.'.}.'.'.{.;X9XnXnXcXzXcXMX/.=X>X=X/.4X6X/././././.L.L././.L.L.L.L.L.L.L.L.L.S.n.h.y.R R R L L L L L L R R R R R R R R R R R R R R R R R ! y.R t.y.y.h.h.y.u.t.n.k.H.n.n.H.H.K.H.H.H.P.P.P.P.4X/.n.:X&.JXPXIXLXUXUXUXIXIXIXUXUXIXIXIXIXIXIXIXIXIXIXIXIXIXIXIXUXUXLXIXCX4.+XW.w.w.w.W.W.6.9.7.w.w.6.W.6.6.9.w.w.w.w.eX4.Q.e.eXw.+X9.e.yXeXaXrXjXrX4   +.Q.e.eXiXeXe.Q.+Xe.Q.jXGXGXkXkXFXlXCXGXCXlXkXjXjXjXjXjXkXkXjXjXjXlXlXGXGXGXCXCXCXGXCXSXVXgX,XXXD.1.&.F F F P Q E E E E E I U U ~ / / / / ( ( p.p.p.a.a.a.a.a.p.s.c.c.c.c.m.m.m.m.v.v.v.A.A.A.A.D.F.Y.E.#X:X:XdXdXvXvXVXVXVXVXVXVXVXVXZXVXVXVXVXvXvXvXxXxXdXdX>X:X~.E.I.A.A.:.:.&.%.$.$.$.Y F F ",
"* * = = = = * * = = : : = > > > 1 1 1 t t u u u u u u u u y i i i f a a f f f f f f f g z C Z H K K K I K K E E W Q W W Q Q $.$.$.$.$.$.$.$.%.%.%.%.%.%.%.%.$.$.:.2.2.2.2.2.2.>.>.>.>.&.>.>.>.v.v.v.p.s.c.c.m.m.B.B.B.B.V.V.V.Z.Z.Z.Z.'.'.'.'.'.].'.'.].].].'.'.'.'.'.'.'.'.'.'.'.'.9X5X7XnXMXnX6X>X~./.=X>X=X6X6X4X4X/./.L.L.L.L.L.H.K.K.K.K.K.K.K.S.n.h.y.R R R L L L L R R R R R R R R R R R R R R R R R R R R ! ! R y.y.y.h.h.t.y.t.k.k.n.n.H.n.H.K.L.H.H.L.P.P.=X5XL.~.&.HXPXPXPXUXUXPXIXIXIXIXIXIXIXIXIXIXIXIXIXIXIXIXIXIXIXIXUXIXIXUXHX6.W.Q.w.Q.w.Q.6.w.4.9.9.w.w.4.W.4.5.w.w.w.w.w.eX7.eXe.e.7.Q.9.e.eXpXaXyXjX[   e -.e.rXw.+XeXaXeXyXaXlXlXlXlXkXlXlXCXGXkXkXkXkXjXjXjXjXkXlXlXlXFXlXlXlXlXlXGXGXCXCXlXkXkXkXgXgXgXgXfXsXgXgX&XT.G P T P K K E ~ ~ ~ / / / ^ ( ( p.p.p.a.a.a.a.a.p.s.s.s.c.c.c.c.c.c.m.v.v.v.A.A.D.D.E.E.E.:X:XdXgXvXVXVXVXVXVXVXZXZXVXZXVXZXZXVXVXMXMXvXbXxXxXdXdX>X^.~.I.D.A.>.:.:.%.%.$.$.@.Y F ",
"* = = = = * * * = = : : = > > > 1 1 1 t t u u u u u u u u y i i i f f f f f f f f f f g z C H H K K K K K K E E W W W W W W $.$.$.$.$.$.$.$.%.%.%.%.%.%.%.%.%.2.T.R.@XE.E.E.I.A.>.>.>.>.>.>.>.>.v.v.p.s.c.c.c.m.B.N.N.B.V.V.V.V.Z.Z.Z.Z.J.'.'.'.'.'.'.'.].].'.'.'.'.'.'.'.'.'.'.'.'.5X;X=X=X6X>X/.~./././././././././.^.K.K.K.K.K.K.L.L.K.n.n.n.n.n.n.h.! R R R R L L L R R R R R R R R R R R R R R R #.#.#.R R R ! ! ! y.y.h.k.h.t.t.t.k.k.n.n.H.H.K.H.H.L.P.K.L.=XL.=Xn.G.VXPXPXPXUXPXPXUXIXIXIXIXIXIXIXIXIXIXIXIXIXIXIXIXIXIXIXIXIXUXKXIXeXW.+XeXQ.+XQ.Q.w.w.9.w.w.w.w.7.w.4.6.W.w.w.w.e.Q.w.+Xe.e.w.e.e.+XrXpXaXjX .  w e w.+.eXQ.9.+X+Xe.yXlXjXkXkXlXlXlXlXkXjXkXkXkXkXlXlXlXlXlXlXCXGXGXCXlXkXGXCXlXlXjXhXiXeXiX$XQ.0.tX$X$X$XuXuXkXCXkXsXY.&.Q Q E E ~ ~ ~ ( / / ( ( p.p.p.a.a.a.a.a.p.s.s.c.c.c.c.c.c.c.m.v.A.v.A.D.D.Y.E.E.:X:XdXdXvXVXVXVXVXVXVXZXZXZXZXZXZXZXZXVXVXMXMXMXMXvXxXzXdX>X>X~.I.I.A.A.2.:.:.%.%.$.@.Y @.",
"* * = = = * ; ; : : : : > > > 1 1 1 1 t t u u u u u u u u y i i i f f f f f f f f f f g z C H H K K K K K K E E W W W W W W $.$.$.$.$.%.%.$.%.%.%.%.%.%.%.%.2.@XgXgXbXbXdXdX:XE.F.A.A.v.>.v.>.>.>.v.p.c.c.c.c.m.B.B.N.B.V.V.V.V.Z.Z.Z.Z.J.'.'.'.'.'.'.'.].].'.'.'.'.'.'.'.'.'.'.'.'.{.;X;X7X=X/.~.~././.~.~./.L.K.K.K.K.K.H.H.H.S.H.n.n.k.k.k.n.n.n.h.! R R R R R L R R R R R R R R R #.R R R R R R #.#.#.&.&.R R R R ! y.h.h.k.y.R r.y.u.k.k.H.n.H.H.H.K.P.P.K.L.=X/./.<X<XPXPXJXUXUXPXPXUXIXIXIXIXIXIXIXIXIXIXIXIXIXIXIXIXIXIXIXIXKXUXIXjXw.eXw.yXW.e.Q.w.w.9.w.w.w.7.w.w.w.6.9.eXw.w.w.w.e.eXe.!.Q.+Xe.Q.rXpXaXfX4.  . 7  .5.5.w.9.rX+X+XfXGXlXjXkXlXlXlXlXkXjXjXjXkXkXkXlXlXlXGXGXGXlXlXlXlXlXlXjXfXaXtXeXeXQ.w.W.Q.w.0.7.9.0.0.0.0.0.+XuXsXgX,XY.>.Q E E Q ~ ~ ^ / / / p.p.p.a.a.a.a.a.p.s.s.c.c.c.c.c.c.c.m.v.A.A.M.D.F.E.E.:X:XdXdXbXVXVXVXVXVXZXZXZXZXZXZXZXZXZXZXZXZXVXMXMXMXvXxXzXzXdX>X^.~.I.D.A.A.2.:.&.%.%.%.@.@.",
"= = = = = = : : : : : : > > > 1 1 1 1 t t u u u u u u u u y i i i d f f f f f f f f f z z C C H H K K K I K E E Q Q W W W Q W W $.$.%.%.$.$.%.$.%.%.%.%.%.%.R.gXVXSXDXZXVXvXbXdX:XE.E.D.A.v.v.v.>.v.v.v.c.c.c.c.B.N.N.N.B.B.B.V.V.V.Z.Z.J.'.'.'.'.'.'.'.].].'.].'.'.'.'.'.'.'.'.'.'.'.[.{.L.~.~.~.L.K.K.K.H./.K.z.H.H.H.z.z.z.S.z.z.n.n.n.k.j.h.h.h.y.R R R R R R L L R R R R R &.R &.R R R &.&.&.&.&.R R &.&.R R R R y.y.h.h.j.y.t.t.k.u.k.k.H.k.H.n.K.P.P.K.K.P.L.>X~.E.PXPXPXUXUXLXUXUXPXIXIXIXIXIXIXIXIXIXIXIXIXIXIXIXIXIXIXIXIXIXUXGXw.w.yXQ.W.w.5.w.5.7.5.w.6.9.6.9.Q.w.6.w.tXw.w.w.w.w.iXw.Q.Q.rXe.eXiXaXfXeX  4 4 +.+.7.9.Q.+X0.yXjXjXlXlXjXlXlXkXkXkXkXlXlXkXkXkXkXjXkXlXFXlXlXlXkXlXlXkXjXyXrXeX+X7.w.w.7.5.6.7.7.6.6.9.9.9.w.0.5.6.0.$XsXgXE.&.W Q Q ~ ~ ^ / / / p.p.p.a.a.a.a.a.p.s.c.c.c.c.c.c.c.c.m.m.M.M.M.D.E.E.OX:XdXdXxXvXVXVXVXVXZXZXZXZXZXZXZXZXZXZXZXZXZXZXBXMXMXMXvXxXzXdX>X:X~.I.I.A.A.A.2.:.&.%.%.$.@.",
"= = = = = = : : : : > > > > > > 1 1 t t t u y y u u y y u u i i i d d d f f f f f f g g g z C H H H K K K K E E Q Q Q Q W W W W $.$.%.%.%.$.F %.,.%.1.%.%.A.sXVXDXHXDXDXZXZXMXMXzX<X:X:X:XG.S.G.G.G.G.G.G.G.G.G.B.B.B.B.B.B.B.B.V.V.Z.Z.Z.J.'.'.'.'.'.'.'.].].].'.'.'.'.'.'.'.'.'.'.Z.{.].V.n.S.S.S.K.K.H.H.K.K.S.S.z.z.k.k.z.z.k.k.j.h.y.y.t.t.t.t.R R ! ! R R R R R R R ! &.&.&.&.&.&.&.&.&.&.R R R R R &.h.! R R R y.y.h.k.k.y.y.u.k.k.k.k.n.n.H.n.K.L.P.P.P.P.K.:X8.JXUXLXUXLXUXIXIXIXIXIXIXIXIXIXIXIXIXIXIXIXIXIXIXIXPXPXPXUXUXUXUX+X4.w.w.eX9.7.7.9.9.7.7.7.7.W.9.7.Q.9.;.+X9.W.w.+Xw.e.eXeXe.e.9.w.+XiXfXtXX   & n O.<.5.9.qXQ.jXkXjXkXkXkXkXjXjXkXjXkXkXkXjXkXjXkXkXjXjXjXjXjXkXlXlXjXaXpXrX+XQ.W.w.w.e.e.9.7.9.9.7.7.7.7.7.9.w.5.6.0.6.6.8.8.uX,XD.W Q ! ( ( ^ / / p.p.p.a.a.a.a.a.s.s.c.c.c.c.c.c.m.m.m.m.M.M.D.G.E.~.:XdXdXxXvXvXVXVXVXZXZXZXZXZXZXDXDXDXZXZXZXZXZXZXBXMXMXMXvXxXxX>X>X>X^.E.I.I.A.A.>.:.&.%.%.%.%.",
"= = = = = = : : : : > > > > > > 1 1 t t t u y y u u u u u u i i i i d d f f f f f f g g g z C H H K K K K K E E Q Q W W Q W W W $.$.%.%.$.$.%.%.%.| $.%.1.E.dXZXDXDXDXDXZXZXZXMXMXzXzXdX<X>X>X<X7X7X<X<X<X<X=X].G.B.G.V.V.B.V.V.V.Z.Z.Z._.'.'.'.'.'.'.'.'.'.].].'.'.'.'.'.'.'.'.'.'.J.{.].V.n.n.S.S.S.S.n.z.n.S.z.k.j.k.j.j.j.j.j.j.h.t.R R t.t.t.t.y.! h.! R R R R R R &.&.&.&.&.&.&.&.&.&.&.R ! ! R R R R ! R R R R y.y.h.j.h.y.y.k.k.k.k.k.n.n.n.H.L.L.P.n.k./.y.T.IXUXLXUXUXLXPXIXIXIXIXIXIXIXIXIXIXIXIXIXIXIXIXIXIXUXPXLXLXPXPXUXaX7.eXw.W.+Xw.w.9.7.7.7.9.9.9.9.6.7.7.6.;.w.7.e.w.W.w.w.w.w.w.9.W.rXyXaXfX3 . $ 5 _ <.9.e.W.Q.jXjXjXjXjXjXjXjXjXjXjXjXjXjXjXkXkXkXjXjXjXjXjXjXjXjXfXaXiXrX+XQ.W.e.w.9.7.9.9.6.6.7.7.7.7.7.7.7.9.w.5.7.w.6.6.0.8.8.T.R.E.&.E ~ ^ ^ / / p.p.p.a.a.a.a.s.s.s.c.c.c.c.m.m.m.m.m.m.M.M.G.E.E.:X<XdXbXbXVXMXVXVXZXZXZXZXZXDXDXDXDXDXDXZXZXZXZXZXZXBXMXMXMXxXzXzX>X>X:X~.E.E.I.D.A.:.:.&.&.&.#.",
"= = : : : : : : : : > > > 1 > 1 1 t t t t u y y u u u u u u i i i d d f f f f f f f g g g z C H H H K K K K E E Q Q Q Q Q W $.W $.$.$.$.$.%.,.$.$.$.:.A.D.:XvXZXDXZXZXZXZXZXBXMXMXcXcXzXzXzXnXMXZXZXZXMXMXbX7X<X*X].L.L.G.Z.Z.J.J.J.Z.J.G.'.'.'.'.'.'.'.'.'.].].'.'.'.'.'.'.'.'.'.'.J.{.{.V.n.j.j.j.j.j.j.k.j.j.j.h.h.h.h.y.t.t.g.R R R R R t.y.h.h.h.&.&.! &.&.&.&.&.&.&.&.&.h.&.&.&.&.&.&.R R &.&.R R R R R R R R R y.y.h.j.h.y.h.k.k.k.y.r.r.y.u.H.P.H./.>Xn.~.S.JXUXKXPXUXIXIXLXIXIXIXIXIXIXIXIXIXIXIXIXIXIXIXIXUXLXUXPXUXUXJXUXCX6.Q.rXw.+XW.w.e.w.7.5.w.w.w.w.W.9.eXw.w.w.eX+Xw.W.w.e.w.w.w.w.e.eXiXfXjXw   o 3 w { -.w.w.yXjXlXfXaXjXjXjXjXjXjXfXjXjXjXjXjXjXkXkXjXjXjXjXjXjXfXaXyXrXeXeXQ.w.w.w.w.7.6.7.7.4.4.5.5.5.7.7.7.7.9.w.5.7.w.6.6.0.0.<.2.U.R.Y.>.Q ~ ~ ( ( / p.a.a.a.a.a.s.s.s.c.c.c.c.m.m.m.m.m.M.M.M.G.E.:X:XdXdXbXVXMXVXVXZXZXZXZXDXDXDXDXDXDXDXDXZXZXZXZXZXZXBXBXMXMXvXzXzXdX>X>X:X~.I.I.I.A.A.:.:.&.:.:.",
"= * : : : : : : : : > > > 1 > 1 1 t t t t u y y u u u u u u i i i f d d f f f f f f f g g z C H H K K K K K E E Q Q W W W W W W $.W %.%.%.$.$.G $.1.E.:X^.zXMXZXZXZXBXBXMXcXcXcXcXcXcXcXcXMXBXZXDXDXDXZXBXMXbXzX7X>X>X*X*XL.L.L.L.'.'.'.'.'.'.'.'.'.'.'.'.'.'.'.].].'.'.'.'.'.'.'.].J.].].V.k.j.j.j.j.h.h.h.h.h.h.h.h.h.y.! R R R R R R R ! ! h.h.&.! ! &.&.! &.h.h.h.h.&.&.h.&.h.&.&.&.&.R R ! &.&.R &.&.R y.R R R R y.y.h.h.y.y.h.k.k.k.k.n.n.H.H.n.P.n./.L.>XR HXIXPXIXUXPXKXUXIXIXIXIXIXIXIXIXIXIXIXIXIXIXIXIXIXUXKXUXIXUXPXUXJXw.w.yXw.9.eXw.w.Q.w.6.4.W.W.W.W.9.5.eX4.9.w.W.!.w.+X9.Q.eXe.e.eXyXQ.tXjXO.  X 6 3  .=. .9.aXjXhXaXaXfXjXfXhXfXfXfXfXfXfXfXfXjXjXjXjXjXlXfXfXjXjXyXrXeXeXeXeXe.9.9.9.7.7.4.6.6.4.4.5.5.6.7.7.7.7.7.w.5.6.w.6.6.9.0.W.8.;.2.T.oXXX>.~ ( ( ( p.a.a.a.a.a.a.a.s.c.c.c.c.m.m.m.m.m.M.M.G.G.*X:XdXdXbXvXMXVXVXVXZXZXDXDXDXDXDXDXDXDXDXZXZXZXZXZXZXZXZXBXMXMXbXxXzXdX>X>X:X~.E.I.I.S.A.l.:.:.:.:.",
"= * : : : = > > > > > 1 > 1 > 1 1 t t t t u y y u u u u u u i i i f f f f f f f f f f g g z C H H K K K K K E E Q Q W W W W Q %.Q Q %.%.%.%.W %.D.:XbXMXBXZXBXBXMXcXcXcX6X6X6X6X6X6XcXcXcXvXZXZXDXDXDXDXZXZXMXMXnXnXcX7X>X=X*X=X;X;X;X*X].].'.].].].].'.J.Z.'.'.].'.'.'.'.'.'.'.].].'.].{.*Xn.j.h.h.y.h.h.h.h.h.h.h.h.h.&.&.! ! R ! R ! ! &.h.h.h.&.&.&.h.h.v.j.l.h.h.&.&.&.h.h.h.h.h.h.&.&.! &.&.&.h.h.&.&.h.R L L R y.y.h.h.y.y.h.h.k.h.k.n.n.H.H.H./.K.~.~.&.HXPXLXPXPXLXLXUXPXIXIXIXIXIXIXIXIXIXIXIXIXIXIXIXIXIXIXUXKXUXJXLXUXyX+XeXw.e.eX+X9.+Xw.w.w.7.Q.Q.Q.Q.e.w.eX5.w.W.7.w.w.eXw.Q.yX+XW.Q.eXiXkX<.  O & & { _ [ 5.rXaXaXrXaXaXhXaXaXfXfXfXfXfXfXfXfXaXaXfXfXfXfXaXjXfXyX+Xe.e.e.Q.Q.e.9.9.7.7.6.5.4.7.7.5.5.5.7.7.7.7.9.7.7.w.4.7.7.4.6.9.W.W.0.6.2.8.T.T.D.2.>.>.( p.a.a.a.a.a.a.a.c.c.c.c.c.c.c.c.m.M.B.G.G.E.:X<XdXxXbXMXVXVXVXZXZXZXDXDXDXDXDXDXDXDXDXZXZXZXZXZXZXZXZXBXMXMXvXxXzXdX>X>X>X^.~.I.I.S.A.A.:.:.:.:.",
"= = : : = = > > > > > > > 1 > 1 1 t t t t u y y u u u u u u y i i f f f f f f f f f g g g C C H H K K K K K E E E E W W Q Q %.%.%.Q %.%.%.%.W >.,XVXZXZXZXZXBXBXcXcX6X6X6X(.(.(.(.(.6X6X6XcXZXZXDXZXZXZXZXZXBXBXMXnXMXcX7X7X6X7X7X9X7X7X7X;X<X<X<X;X-X*X[.].].].].'.'.'.J.J.'.'.].'.'.'.L.~.L.j.R h.h.h.y.y.h.h.h.&.&.&.! R R R ! ! ! &.h.h.h.h.h.&.&.&.h.h.v.v.l.h.h.h.&.h.h.h.h.h.h.h.&.&.&.&.! &.h.h.R R t.R L L R R y.h.y.y.u.h.h.h.h.y.y.k.k.n.H.P.K.S.l.ZXLXIXIXLXLXIXUXLXLXLXIXIXIXIXIXIXIXIXIXIXIXIXIXIXIXIXLXUXPXIXUXUXjX9.Q.+X9.w.eX+XtXe.w.w.w.w.e.W.W.W.e.W.w.7.w.W.7.w.W.Q.W.Q.+Xw.w.W.tXjXe.X o o & 7 n [ 7.fXjXyXpXjXhXaXaXpXfXfXfXfXfXfXfXfXfXaXaXfXaXaXfXhXaXyX+Xw.e.e.e.e.e.e.e.w.w.7.6.5.5.7.7.5.5.6.7.9.9.9.9.7.7.w.6.w.7.6.6.9.w.W.0.4.2.1.2.U.8.1.1.>.>.( a.a.a.a.s.s.c.c.c.c.c.c.c.c.c.m.B.M.G.G.*X:X>XdXxXbXMXVXVXZXZXZXZXDXDXDXDXDXDXDXDXDXDXZXZXZXZXZXZXBXMXMXMXvXxXzXzXdX>X>X:X~.I.I.I.A.A.2.:.:.:.",
": : : : : : > > > > > > > 1 > 1 1 t t t t u y y y u u u u u y i i i f i f f f f f f g g z C C H H K K K K K E E E E W W Q Q %.%.$.$.%.%.%.%.&.E.gXDXDXDXZXZXZXBXcX6X(.(././././.P.K././.(.6XBXZXZXZXZXBXBXBXvXcXcXcXcXcXcXzXzXcXnXnXnXbXbXbXbXbXbXbX7X<X;X;X-X-X-X-X}.{.[.{.[.[.[.[.[.{.*X=X=XK.S.S.S.A.j.j.h.h.y.! &.&.&.! ! ! ! ! &.&.h.h.h.h.h.&.&.&.&.&.h.v.l.l.l.l.v.l.l.l.l.l.j.j.h.&.&.&.&.&.h.h.R R R R R R L R t.y.y.y.h.h.y.y.k.k.k.n.H.H.H./.n.S.vXPXPXJXLXUXIXLXKXPXUXPXIXIXIXIXIXIXIXIXIXIXIXIXIXIXIXPXPXUXIXPXUXLXw.rXw.Q.7.9.9.9.Q.6.6.9.w.w.w.w.w.w.e.+X4.w.w.W.7.w.Q.w.Q.W.W.w.w.+XaXtX$   & & 4 w w w.jXfXaXfXfXaXiXyXyXyXfXpXiXfXfXfXfXfXfXfXfXfXaXaXaXaXyXeXQ.w.w.e.e.e.e.e.w.w.w.w.7.6.5.7.9.5.6.7.9.w.w.w.w.9.w.W.7.w.W.7.0.W.W.W.7.4.<.1.1.2.2.2.1.2.>.( a.a.s.c.c.c.c.c.m.m.c.c.c.c.m.m.B.B.G.~.*X:X<XzXbXMXVXVXVXZXZXZXZXDXDXDXDXDXDXDXDXDXDXZXZXZXZXZXZXBXBXMXMXxXxXzXzXdX>X>X>X^.~.E.I.S.A.A.A.2.:.",
": : : : : : > > > > > > > 1 > 1 1 t t t t u y y y u y u u u y i i i i i d f f f f f f g z z C H H H K K K K E E Q Q Q Q Q Q %.$.$.$.%.%.$.%.A.#XbXZXDXDXZXZXZXBXcX(./.K.K.K.K.K.K.x.K.K.K.(.6XcXBXBXcXcXxXxXxXxXzX6X6XzXcXcXcXnXMXnXnXnXMXNXNXmXmXMXmXbXbX9X<X;X<X;X;X;X;X;X;X;X;X;X;X;X;X<X7X7X6X>X=X*X~.G.j.h.! ! &.&.&.&.&.&.&.&.h.&.h.h.h.h.&.h.h.&.&.&.&.v.v.v.v.v.l.h.l.l.l.l.l.j.h.h.&.h.h.h.h.! R R R R R R L R t.y.y.y.y.u.u.h.k.y.u.k.k.n.L.L.n.dXPXLXLXIXIXLXLXIXIXIXKXIXIXIXIXIXIXIXIXIXIXIXUXIXIXIXIXUXUXPXPXUXPX+XyXw.w.e.5.7.Q.Q.9.eX7.7.6.9.w.w.w.w.e.eX+.Q.w.W.7.w.Q.w.eXw.Q.W.+XyXtX7   X & 7 e w w.pXfXfXyXpXaXyXyXyXyXyXjXrXeXaXfXfXfXfXaXfXjXaXjXaXyXeXrXeXe.e.w.e.e.e.Q.e.w.w.w.w.9.7.6.7.9.6.6.7.9.w.w.w.w.9.w.Q.w.w.W.7.0.W.W.W.7.4.2.2.5.5.1.1.1.1.>.v.c.s.s.c.c.c.m.m.M.M.c.c.c.c.m.B.B.G.G.*X:X>XdXzXvXMXVXVXVXZXZXZXDXDXDXDXDXDXDXDXDXDXDXZXZXZXZXZXZXBXBXMXMXcXzXxXzXzX>X>X>X^.~.E.I.I.I.A.A.A.2.",
": : : : : : > > > > > > > 1 1 1 1 u t u u u t t t u t t u u y i i i a a f f f f f f f g z z C H H H K K K K E E Q Q Q Q Q W $.$.%.$.%.%.$.%.2.:XVXDXDXZXZXBXBXcX(.P.K.K.x.x.x.x.x.x.x.x.K.K./.(.6XxXxX6X6X(.(.(./././.(.6X6XcXcXnXnXnXMXMXBXNXZXNXNXNXMXmXmXbXbXbXbX9X9X9X9X9X9X9X7X9X9XbXnXMXMXMXMXnXcX<X>XL.S.v.h.v.h.y.y.! ^ h.h.h.h.h.h.v.v.v.v.v.v.v.v.v.v.&.&.&.&.h.l.l.l.l.l.l.l.j.h.h.j.j.h.y.y.! R R R R R R R t.y.t.y.y.u.k.t.t.K.u.n.u.n.G.>.,XPXPXLXKXUXIXPXPXPXIXIXIXIXIXIXIXIXIXIXIXIXIXIXUXIXPXIXIXUXUXPXIXUXfX9.Q.W.Q.Q.Q.Q.Q.eXQ.9.w.w.w.w.w.w.w.w.Q.w.w.Q.w.7.w.eXQ.Q.yXw.;.tXW.yX} % X O 3 6 6 eXeXeXeXeXeXeXtXyXQ.yXpXyXpXyXrXeXyXiXfXfXfXfXaXiXfXaXrX9.e.+X0.w.9.w.7.e.Q.w.w.7.9.w.9.w.W.7.w.7.7.9.w.w.w.w.w.w.w.Q.W.w.7.w.7.w.W.W.0.7.6.6.6.6.5.1.1.1.1.D.M.c.c.m.c.c.m.m.m.m.m.m.m.m.m.B.G.G.~.*X:X>XdXxXvXMXVXZXZXZXDXDXDXDXDXDXDXDXDXDXDXDXZXZXZXZXZXZXBXBXBXMXMXcXzXzXzXzXzX>X>X>X^.~.E.I.I.I.A.A.A.",
": : : : : : > > > > > > > 1 1 1 1 u t u u u t t t u t t u u y i i d i i f f f f f f f g z z C H H K K K K K E E Q Q Q Q W W $.$.$.$.%.$.%.%.2.:XbXVXZXBXBXcXcX6X(.K.x.x.x.k.k.k.k.k.k.k.k.x.K.K./.(.(./.^.^.K.K.K.K.K.^./.^.6X6X6X7XzXcXnXMXNXNXNXNXNXNXMXMXmXmXnXnXbXbXbXbXnXbXnXbXbXbXnXMXNXNXNXZXNXMXbXzX7X>X=X~.L.G.G.G.G.G.L.*X*X*X*X~.G.G.B.v.v.v.&.&.&.v.M.M.M.A.A.A.A.A.A.A.v.l.j.h.h.j.j.h.h.y.! ! R R y.t.R R t.y.y.y.u.y.r.u.K.t.u.n.u.n.E gXPXPXLXIXUXKXPXPXPXPXIXIXIXIXIXIXIXIXIXIXIXIXIXIXUXIXPXIXIXIXKXPXUXfXyXw.+Xw.w.w.w.w.w.W.w.6.w.w.w.w.e.e.W.W.w.7.7.w.6.6.7.w.w.w.Q.w.eXtXjX;.X   X 0 o e fXe.eXeXeXeXeXeXrXtXqXyXpXtXyXpXaXfXtXtXtXyXaXaXiXyXaXiXeX9.e.Q.7.0.5.9.4.9.w.7.9.5.9.e.7.w.e.7.w.7.7.9.w.w.w.w.w.w.w.Q.W.7.7.W.6.0.w.w.0.7.6.6.6.6.5.<.,.,.%.1.D.v.m.m.c.c.m.m.m.m.c.m.m.m.M.B.G.G.~.*X:X>XzXxXMXMXVXZXZXZXZXZXDXDXDXDXDXDXDXDXZXZXZXZXZXZXZXBXBXBXBXMXMXcXzXzXzXzXzX>X>X>X^.~.~.I.I.I.I.A.A.",
": : : : : : > > > > > > > 1 1 1 1 u t u u u t t t u t t u u y i i d i i f f f f f f f g z z C H H K K K K K E E Q Q W W W W $.$.$.$.$.%.$.$.2.E.dXbXvXcXzX6X6X(./.K.x.x.k.g.g.g.k.k.k.k.g.g.k.x.K.^.^.K.K.x.x.x.z.z.z.x.K.K.^.^./.>X>X7XzXcXnXNXNXNXNXNXNXNXMXMXMXMXmXmXMXMXNXNXMXMXMXmXNXNXNXNXNXNXNXNXMXMXnXzX7X=X*X*X*X*X*X*X*X*XL.~.*X*X>X=X*X~.~.L.G.G.M.v.v.v.v.v.A.A.A.A.A.A.v.j.j.h.h.! ! h.y.y.h.&.&.h.h.h.y.R R y.h.h.y.t.L H.k.u.K.K.y.y.,XHXPXPXLXIXUXKXPXPXPXPXIXIXIXIXIXIXIXIXIXIXIXIXIXUXPXIXIXIXIXIXLXUXlXQ.Q.w.eX9.w.w.w.w.+XeXeXw.w.w.w.w.e.e.W.W.eXe.e.eXw.W.Q.Q.w.W.9.W.eXjXtX% X + o % ;.eXQ.aXeXeXeXeXrXrXeXeXqXyXpXtXyXpXaXfXiXyXeX+XaXiXyXrXeXeXW.6.w.e.5.7.9.e.9.e.Q.w.Q.9.w.e.9.w.e.7.w.7.7.w.w.W.W.w.w.9.w.w.w.6.6.w.6.7.7.7.7.6.4.4.4.4.4.<.,.,.$.%.>.>.m.M.m.c.c.b.m.N.c.M.m.m.B.B.G.G.*X*X:X>XzXxXMXMXBXZXZXZXZXZXDXDXDXDXDXDXDXZXZXZXZXZXZXZXBXNXBXBXBXBXMXcXcXcXzXzXzX6X>X>X>X^.~.E.I.I.I.A.A.",
": : : : : = > > > > > > > 1 1 1 1 t t u u u t t t u t t u u y i i f f d f f f f f f f g z z C H H K K K K K E E E E W W W W $.$.$.$.$.%.%.%.:.E.,XdXzX>X^././.^.K.x.k.g.g.g.g.g.g.k.k.k.k.g.k.z.x.K.K.K.x.x.z.z.k.g.g.k.z.z.K.~.~.^.^.>X>X6XzXMXMXNXZXZXNXNXNXNXNXNXNXNXNXNXZXNXNXMXNXNXNXNXNXNXNXNXMXMXnXnXnXcX7X>X>X-X*X*XL.L.L.].*X*X*X*X].*X*X*X*X*X*X*X*X*XG.B.c.c.v.v.A.A.A.v.j.j.h.h.h.! R h.! ! h.h.h.h.j.n.j.t.t.t.y.t.t.t.k.t.y.n.y.n.j.I.PXUXLXJXIXKXKXIXIXIXIXIXIXIXIXIXIXIXIXIXIXIXIXIXPXUXLXUXIXPXIXIXUXGX0.eX9.e.tX7.Q.Q.Q.Q.e.Q.e.7.w.w.w.w.e.e.e.W.W.9.9.W.5.w.W.w.+XQ.9.tXaXyXn   o X + ;.rXtXQ.9.eXeXeXrXrXrXeX+XQ.yXpXtXpXyXrXeX+XrXtXrXiXyXrXeXQ.+Xw.5.9.w.5.7.5.9.5.9.w.9.w.7.9.w.7.w.w.7.w.7.7.9.w.e.w.w.w.w.w.w.9.6.6.w.6.9.7.6.6.4.4.4.4.4.4.<.<.,.| %.1.>.D.M.M.m.M.c.b.b.M.M.M.M.B.G.G.G.*X*X:X>XzXxXMXMXBXZXZXZXZXDXDXDXDXDXDXDXDXZXZXZXZXZXZXBXBXBXBXBXBXMXcXcXcXcXzXzXzXzXzX>X>X^.~.I.E.I.I.I.I.",
"= = : : = = > > > > > > > 1 1 1 1 t t u u u u u t u t t u u i i i f f f f f f f f f f g z C C H H K K K K K E E E E W W W W $.$.$.$.$.%.%.%.&.A.E.~.^.^.~.K.K.K.x.z.g.g.t.g.g.g.g.g.j.k.j.g.g.z.z.z.z.z.z.z.z.g.g.g.g.g.g.j.z.S.S.K.~././.>X6XcXBXZXZXZXZXNXNXZXZXZXNXNXNXMXNXNXNXNXMXMXMXNXMXMXNXNXNXNXMXMXnXnXnXzX7X<X7X7X7X;X;X;X=X*X*X=X{.{.].].].].{.*X{.*X*X*XG.M.v.h.v.v.v.v.h.h.h.h.h.! R L R R y.h.h.h.j.S.S.h.t.t.t.t.t.t.u.u.n.y.h.S.#.LXPXPXLXLXIXIXKXUXIXIXIXIXIXIXIXIXIXIXIXIXIXIXIXIXPXUXPXUXPXLXIXIXJX+XW.+X9.e.9.9.Q.w.w.Q.eXQ.w.w.7.7.w.w.9.w.e.W.w.5.5.w.4.9.w.7.7.W.w.jXkX0 O X   + W.iXw.yX+XyXeXeXeXrXrXeXeX+XaXrX+XrXyXtXrX+XeXrXtXtXeXeX+XQ.+X+Xw.9.0.e.5.9.5.9.5.9.e.w.Q.w.9.w.9.w.w.7.w.7.7.7.w.w.w.9.w.w.w.w.9.7.7.w.6.7.7.6.4.4.<.4.;.4.4.<.;.;.=.%.;.%.D.D.D.M.m.c.b.b.b.M.B.B.B.G.G.L.*X>X>XdXzXbXMXMXBXZXZXZXZXZXDXDXDXDXDXDXZXZXZXZXZXZXBXBXBXBXBXBXBXnXcXcXcXcXzXzXzXzXzXdX>X^.^.~.E.E.E.I.I.",
"= = : : = : > > > > > > > 1 1 1 1 t t u u u u u t u t t u u i i i i f f a f f f f f f g z z C H H K K K I K E E E W Q W Q Q $.$.$.$.$.%.%.%.%.:.A.I.I.S.S.S.S.z.z.k.g.g.g.t.t.t.g.g.g.g.j.j.j.z.z.z.z.z.z.z.z.j.g.g.g.g.g.j.z.z.S.S.K.~././.6XcXBXZXDXZXZXZXZXZXNXZXNXBXMXMXMXMXMXMXMXMXMXnXnXnXnXMXMXnXnXnXnXMXMXMXnXcXbXbX9X9X7X7X;X-X{.{.=X{.=X{.=X{.{.'.'.{.{.{.{.Z.M.v.h.j.v.j.h.&.h.&.h.h.R R R R R y.h.h.h.S.S.k.y.t.t.t.t.t.t.n.u.h.R Y PXPXPXPXIXIXKXIXIXIXIXIXIXIXIXIXIXIXIXIXIXIXIXIXIXIXPXUXPXUXLXPXUXIXyX9.rX5.9.e.9.w.w.7.7.w.Q.Q.e.w.w.w.w.w.w.w.e.Q.Q.e.e.Q.7.Q.Q.W.6.w.yXfX6.$ o X 7 tX+XyXaX9.yX+XeXrXrXeXrXeXeXeXyXrXeXrXyXrX+XeXrXrXrXtXrX+X+X+X+X+Xe.9.w.e.7.9.e.+Xw.Q.+Xe.eXe.9.w.9.w.w.7.w.7.6.7.9.9.9.w.w.W.w.w.w.7.7.W.6.7.7.4.4.<.<.;.;.4.4.;.;.;.;.=.*.%.1.2.D.M.B.M.b.b.b.b.B.B.B.G.L.L.*X>X<XzXzXMXMXMXBXZXZXZXZXZXZXDXDXDXDXDXZXZXZXZXZXNXBXBXBXBXBXBXMXMXcXcXcXcXzXzXzXzXzXzX>X>X^.~.~.E.E.I.I.",
"= = : : : : > > > > > > > 1 1 1 1 t t u u u u u t u t t u u i i i i i i a i f f f f f g z z C H H K K K K K E E E W W W Q Q $.$.$.$.$.%.%.%.$.&.:.A.A.A.S.S.z.z.j.g.g.g.g.t.t.t.t.t.g.g.g.j.j.z.z.z.z.z.z.z.z.z.j.g.g.g.g.j.j.z.z.S.S.K.~./.6XxXBXZXZXZXZXZXBXBXBXBXBXNXBXMXMXMXMXMXMXMXbXzX7XzXnXnXnXnXcXcXMXMXBXMXMXMXnXnXmXnXnXbX9X9X7X;X{.L.L.J.L.{.{.{.{.{.[.{.[.{.L.V.h.h.h.h.h.&.&.&.&.! &.R R R R h.h.h.h.S.S.n.h.y.t.t.t.t.r.k.y.&.Y LXPXLXIXIXIXIXKXKXIXIXIXIXIXIXIXIXIXIXIXIXIXIXIXIXIXIXPXUXPXUXLXUXIXlX6.+XQ.w.9.e.9.w.+Xw.w.+Xw.e.W.Q.W.!.Q.Q.9.w.e.W.Q.eXeXQ.4.w.W.w.6.fXkXQ.O X   w Q.pXeXrXeXiXrXe.rXrXrXrXrXrXrXrXeXtXyXtXtXeX+XrXrXrXeXrXrX+X+X+X+X+Xe.9.w.e.7.9.7.w.7.w.9.5.w.7.7.9.9.w.9.6.w.7.6.7.7.9.w.w.Q.Q.W.w.w.7.w.W.4.6.6.4.4.<.<.;.;.4.2.;.;.;.<.-.=.O.*.>.>.D.M.M.M.b.b.b.B.B.G.G.].*X*X:X>XdXzXbXMXMXBXZXZXZXZXZXZXZXZXZXZXZXZXZXZXZXNXNXBXMXMXMXBXBXMXMXcXcXcXcXcXzXzXzXzXzX>X>X^.^.~.~.~.E.E.",
"= = : : : : > > > > > > > 1 1 1 1 t t u u u u u t u t t t u i i i i i i i a f f f f f g z z C H H K K K K K E E Q W W W Q Q $.$.$.$.$.%.$.$.$.%.&.&.&.l.l.S.S.j.j.h.g.g.g.t.t.N N N R t.g.h.j.j.z.z.z.z.z.z.z.z.j.j.h.g.j.j.j.j.z.z.S.S.K.~.(.cXBXZXZXZXZXBXBXBXBXBXBXBXBXMXMXMXMXMXMXMXcX7X7X7X7XcXnXcXnXnXnXMXMXMXMXMXMXNXNXNXNXmXnX9X7X7X;X-X{.{.{.{.{.{.{.{.{.{.{.|.=X].c.y.! ! &.h.h.&.&.! ! R R R R j.h.h.j.S.n.n.k.h.t.t.y.y.r.r.h.R HXUXKXKXIXIXIXIXIXKXIXIXIXIXIXIXIXIXIXIXIXIXIXIXIXIXIXIXIXUXPXIXPXUXHX4.e.e.+X+X9.W.9.w.e.7.7.e.9.w.Q.eX+X+X+X+X9.w.e.Q.w.+X+Xw.w.+XeX+XQ.fXW.0 X   n fXtXQ.rX+X+XeXeXiXeXrXrXrXyXiXiXyX+XtXiXyXtXeXeXtXtXrXeX+X+X+XQ.W.+X+Xe.9.0.e.7.9.7.w.7.w.w.9.e.9.7.7.7.w.7.6.w.7.6.7.7.9.w.W.Q.Q.W.w.9.7.W.W.4.4.6.4.4.<.<.;.<.;.;.*.*.=.+.=.-.<.| %.2.D.M.c.c.B.b.b.B.B.G.L.].*X*X>X<XzXzXMXMXMXBXZXZXZXZXZXZXZXZXZXZXZXZXZXZXBXBXBXMXMXMXnXMXMXMXMXcXcXcXcXcXcXzXzXzXzX>X>X>X^.^.~.^.~.E.",
"= = : : : : > > > > > > > > > 1 1 1 t u u u u t u u t t t u i i i i i i i i f f f f f f z z C H H H K K K K E E W Q W W W $.$.$.$.$.%.%.%.%.%.%.%.&.%.&.l.l.l.l.l.j.j.h.g.g.g.t.N N N R t.g.h.j.j.z.z.z.z.z.z.z.l.l.l.l.l.z.z.z.j.j.z.z.z.x./.zXcXBXBXBXBXBXvXMXMXMXBXMXBXBXBXMXMXMXnXMXnXzX7X7X7XzXzXnXcXnXnXnXnXnXMXMXMXMXNXNXNXNXMXnXnX9X7X7X;X{.{.{.{.{.{.{.{.{.{.{.{.;X].B.v.y.h.&.A.v.Y v.&.h.&.! R h.h.h.h.j.H.g.L.t.y.h.t.y.j.! Y DXPXHXKXKXPXPXIXIXIXIXIXIXIXIXIXIXIXIXIXIXIXIXIXIXIXIXIXIXPXLXUXPXPXIXiX<.w.Q.Q.9.+X+X9.9.W.w.W.W.eX+Xw.7.w.+XeX+XW.W.W.W.w.6.w.6.9.w.tXQ.eXjXw     [ yXW.eXeXrX+XeXeXeXeXeXeXrXrXyXiXiXrXeXtXyXtXtXeXtXtXeX+X+X+XQ.Q.W.w.w.w.9.6.9.7.7.7.5.w.7.7.7.6.e.w.=.7.6.;.7.7.w.7.6.7.7.w.9.6.9.W.Q.W.e.e.w.0.6.4.<.<.<.<.<.-.-.-.4.<.-.O.+.+.+.O.*.$.%.>.D.v.c.B.B.N.N.B.G.L.].*X*X>X<XzXzXxXMXMXBXZXZXZXZXZXZXZXZXZXZXZXZXBXBXBXBXBXMXMXnXcXnXnXnXnXcXcXcXcXcXzXzXzXzXzX>X>X>X:X^.^.^.~.E.",
"= = : : : : > > > > > > > > > 1 1 1 t u u u t t t u t t t u i i i i i i d d f f f f f f z z C H H H H K I K E E W Q W W W $.$.$.$.$.%.%.%.%.%.%.%.%.%.&.&.l.l.A.l.j.j.h.h.h.j.g.g.R R R R R #.h.h.j.j.z.l.l.l.l.l.l.l.z.S.S.z.z.z.j.j.z.z.z.K.(.6X8XcXcXcXcXzXzXzXzXzXzXcXcXcXMXMXMXnXnXnXnXcXzXcXcXnXnXnXnXnXnXnXMXMXMXMXNXNXNXNXNXMXMXnXnXbXbX7X7X;X;X{.{.{.{.{.{.{.{.{.'.-X].B.v.R j.&.&.h.v.! R h.&.R h.y.h.y.y.n.K.t.S.y.R j.h.v.i VXPXHXLXJXIXPXPXIXIXIXIXIXIXIXIXIXIXIXIXIXIXIXIXIXIXIXIXIXIXPXUXLXIXUXkXrXW.w.7.W.Q.9.+X7.W.w.w.w.w.e.w.7.5.7.w.7.4.w.w.w.w.7.7.W.W.eXw.W.Q.jX[   X v +XiXe.eXeXeXeXeXeXeXeXeXeXrXrXtXiXtXeXrXtXtXtXtXeXeXeX+X+XQ.Q.Q.Q.W.W.Q.Q.e.9.7.7.7.7.5.w.7.7.7.6.e.w.5.7.7.7.7.7.w.9.7.7.9.w.w.7.9.w.w.9.6.6.7.7.4.<.-.-.-.=.+.O.O.O.=.=.+.O.+.+.O.X.=.;.%.&.D.A.v.B.B.N.N.B.Z.L.L.*X*X>X<XzXzXcXMXMXMXBXZXZXZXZXZXZXZXZXZXZXBXBXBXBXMXMXcXcXcXcXcXcXcXcXcXcXcXcXzXzXzXzXzX6X>X>X>X:X^.:X^.~.~.",
"= = : : : : > > > > > > > > > 1 1 1 t u u u t t t u t t t u i i i i i i i i d d f f f f z z C H H H K K I K T T W Q W W W $.$.$.$.$.%.%.%.%.%.%.%.%.%.%.&.&.&.l.A.l.l.l.l.l.h.j.h.h.g.g.R R R #.#.h.h.h.l.l.l.l.l.l.l.S.S.S.S.S.z.z.z.z.j.z.K././.(.(.(.(.(.(.(.(.(.6X6X6X6X7XcXcXnXnXnXnXnXnXnXnXnXnXnXnXnXbXnXnXnXMXMXMXNXNXNXNXNXMXMXNXNXNXmXnXnXnX9X7X;X;X{.{.{.{.{.{.L.[.-X].B.! R R A.! R j.n.h.h.h.h.y.y.y.y.k.K.S.g.k.S.R R Y VXLXHXLXIXJXKXIXPXIXIXIXIXIXIXIXIXIXIXIXIXIXIXIXIXIXIXIXIXIXIXPXUXLXIXGXW.+XiX9.7.6.eXw.5.Q.7.7.9.w.w.w.w.7.7.W.+XW.7.Q.Q.!.Q.Q.Q.w.w.9.w.W.yX7.    w e.yX+XQ.Q.Q.+XeXeXeXrXrXrXrXrXyXtXeX+XeXrXtXtXrXeXeXeX+X+XQ.W.W.W.W.w.w.0.9.6.5.6.7.7.7.4.w.7.6.6.5.w.9.4.4.4.6.7.w.e.w.9.w.w.Q.+XW.w.Q.W.w.6.<.=.X. .[ [ [ [ S A A A A {  . . . . . . .X.%.%.$.>.D.D.v.B.B.N.V.Z.L.L.*X*X>X<XzXzXcXMXMXMXBXBXZXZXZXZXZXZXZXZXZXBXBXBXMXMXMXcXcXcXcXcXcXcXcXcXcXcXcXzXzXzXzX6X>X>X>X>X>X:X:X^.~.~.",
"= = : : : : > > > > > > > > > 1 1 1 t u u u t t t u t t u i i i i i i i i i d d f f f f z z C H H H H K I K E W E Q W W W W $.$.$.$.%.%.%.%.%.%.%.$.%.%.%.&.&.&.:.A.A.A.A.A.l.j.h.h.h.h.g.#.#.#.#.#.#.h.h.h.h.j.l.l.l.S.S.S.S.S.S.S.z.z.z.z.z.K.K.^./././.^././././././././.>X6X7XcXcXnXnXnXnXMXMXMXMXMXMXMXnXnXnXMXMXNXNXNXNXNXNXNXMXNXNXZXZXZXNXNXmXmXnX9X7X;X;X|.{.{.{.|.[.*X=X*XE.A.&.Y v.R j.j.j.h.h.h.h.h.h.h.S.S.h.j.j.h.h.Y gXPXJXJXJXKXIXKXPXPXIXIXIXIXIXIXIXIXIXIXIXIXIXIXIXIXIXIXIXIXIXIXIXLXUXLXrXeXeX+XrXX.Q.9.Q.7.7.<.7.7.7.w.w.e.W.W.7.Q.+XW.w.w.w.w.w.eXw.eX7.eXW.Q.$ X } ;.eXeXw.eXW.W.W.Q.eXrXrXrXrXrXrXrXyX+XQ.eXtXyXtXrXeX+X+XQ.Q.W.w.0.w.w.9.7.Q.e.w.9.7.7.7.7.5.w.7.6.7.5.w.w.9.7.6.w.w.w.W.e.w.w.e.Q.w.7.5.6.X. .A w w 9 3 ; - - - - 4 3 4 4 6 w e A [ [ [ { n S | F %.D.F.v.B.N.N.B.Z.L.L.*X*X:X>X<XzXcXMXMXMXMXBXZXZXZXZXZXZXZXZXBXBXMXMXMXMXMXcXcXcXcXcXcXcXcXcXcXcXcXzXzXzX7X>X>X>X>X>X>X:X^.^.~.~.",
"= = * * = = > > > > > > > > > 1 1 1 t u u u t t t u t t u i i i i i i i i i a a f f f f z z C H H H H K K K E W W Q W W W W $.$.$.$.%.%.%.%.%.%.%.%.$.$.%.%.%.%.&.:.>.>.A.A.A.l.l.l.z.z.z.z.l.h.#.#.#.#.#.#.h.h.h.l.l.S.S.S.S.S.S.S.S.S.z.z.S.S.K.K.K.K.K.K.K.K.K.K.K.K.~./././.4X6X6X7X8XcXcXnXnXMXBXMXMXMXnXnXnXMXMXMXMXNXMXMXMXMXMXNXNXZXZXZXZXZXNXNXNXMXnX7X<X;X{.{.{.{.=X].].=XdXPXk A.h.h.h.j.j.j.h.h.h.h.h.h.h.S.j.g.j.&.l dXPXJXHXPXLXKXKXUXPXPXIXIXIXIXIXIXIXIXIXIXIXIXIXIXIXIXIXIXIXPXPXPXUXKXLXfX7.eX+X9.eXeX<.w.w.!.eXw.w.e.Q.+Xw.w.w.w.eXQ.w.7.W.w.w.Q.W.4.+X9.Q.eXiXO.  [ 5.-.eXeXQ.w.w.e.W.Q.eXeXrXrXrXrXrXrXtXrX+XrXyXiXyXyXeX+XQ.Q.W.W.w.9.w.9.7.6.Q.e.w.9.7.9.9.9.5.W.9.7.7.w.w.9.9.Q.w.Q.Q.W.e.w.7.5.-.+... .A v w 9 ; $ $ - - $ + + $ + & % & & & & & & 7 w e e [ { S F $.$.2.F.B.B.B.V.G.L.L.*X*X>X>X<XzXzXMXMXMXBXBXZXZXZXZXBXBXBXBXBXBXMXMXMXMXMXcXcXcXcXcXcXcXcXcXcXcXzXzXzXzX7X>X>X>X>X>X>X:X:X^.^.~.",
"= = = = = = > > > > > > > > > 1 1 1 t u u u t t t u u u u i i i i i i i i i a f f f f f z z C H H H H J I I E W W W W W $.$.$.$.$.$.%.%.%.%.%.%.%.%.$.$.$.%.%.%.%.%.&.:.2.2.2.A.A.l.l.S.l.l.l.j.h.#.#.#.h.#.#.#.#.h.l.l.S.S.S.S.S.S.S.S.S.S.S.S.K.K.K.K.S.S.z.z.z.z.z.z.K.K.K././././.6X6X7X7XcXcXnXMXMXMXMXMXMXMXnXMXMXMXMXnXnXnXnXnXMXNXNXZXZXZXZXZXNXNXNXMXcX7X;X}.{.{.{.*X*X*X-XbXPXSXZ &.h.h.j.j.j.h.h.h.h.h.h.g.j.S.R l.N I.JXHXJXJXCXLXIXHXKXPXIXIXIXIXIXIXIXIXIXIXIXIXIXIXIXIXIXIXIXPXPXPXPXUXIXlXw.W.eXw.+XQ.Q.w.6.w.W.6.Q.w.w.W.Q.w.w.w.w.w.w.w.w.Q.w.9.W.Q.4.Q.+XeXeX5.o 3 6.6.7.eX+XW.w.w.!.eXrXyXrXyXrXrXrXrXrXrXtXrXrXyXiXyXyXeX+XQ.Q.W.W.w.w.9.9.7.6.Q.e.w.w.w.w.w.w.6.+XQ.eXeXtXeXQ.9.Q.7.4.-...n 7 6 3 - $ + O O o O O O O o O O $ $ $ $ + O O O O O O + + - 4 6 q e n S S X.| :.E.M.B.B.G.G.L.~.*X=X>X>X>XzXzXxXMXMXMXBXBXBXBXBXBXBXBXBXBXMXMXMXMXcXcXcXcXcXcXcXcXcXcXzXzXzXzXzXzXzX7X>X>X6X>X>X>X>X^.^.^.~.",
"= = = = = = > > > > > > > > > 1 1 1 t u u u t t t u u u u i i i i i i i i i f f f f f g z z C H H H H K K I E W W W W W $.$.$.$.$.$.%.%.%.%.%.%.%.%.$.$.$.$.%.$.%.%.%.%.%.1.>.>.A.A.A.A.S.S.l.j.l.h.h.h.h.h.h.#.#.#.h.l.l.l.S.S.S.S.S.S.S.S.S.S.K.K.K.K.S.z.z.j.j.k.k.k.z.z.z.K.K.K.L././.4X6X7X7XcXnXnXnXnXnXcXnXnXnXnXnXnXnXcXnXnXnXnXnXMXNXNXNXNXNXZXZXZXNXbXzX7X;X{.{.{.{.*X*X*XgXJXJX,X&.h.h.z.j.h.h.h.h.h.h.h.h.l.#.l.#.N LXHXHXHXJXJXPXKXIXHXPXIXPXPXIXIXIXIXIXIXIXIXIXIXIXIXIXIXIXIXPXPXPXPXIXHXQ.eX+XeXQ.+Xw.Q.e.7.W.5.w.w.9.w.e.e.w.w.w.w.w.w.w.w.eXw.7.w.9.7.W.Q.5. .6 X X.W.4.w.+X+X!.Q.eXeXtXtXyXyXyXrXrXrXyXeXeXyXyXrXrXtXtXrXeX+X+XQ.Q.Q.W.W.w.w.9.7.+XW.w.w.w.w.w.w.w.eXQ.Q.Q.w.4.-.A n 3 $ O X .   O O O O + $ + O o X X o O O O + + + + + O O + + + + + + @ - 4 4 q w e n S D @.A.M.B.G.G.G.L.~.*X=X>X>X>X7XzXzXMXMXMXMXBXBXBXBXBXBXBXMXMXMXMXMXnXcXcXzXcXcXcXcXcXzXzXzXzXzXzXzXzXzX7X>X>X6X6X>X>X>X>X>X^.^.",
"= = = = = = > > > > > > > > 1 1 1 1 t u u u t t t u t u u y y y i i i i i i f f f f f f g g z H H H H K K I T T W W W W W $.$.$.$.$.%.%.%.%.%.%.%.%.%.X.X.$.$.$.$.$.%.%.%.%.&.:.:.A.A.A.A.A.A.l.l.l.l.l.l.h.h.&.#.#.h.h.l.l.l.S.S.I.S.S.S.S.S.S.S.~.K.K.S.S.j.j.j.h.j.j.k.k.k.k.k.z.H.K.L././.=X6X7X7X8X8XzXcXcXnXcXcXcXzXzX7X7X7X7X7XzXcXnXMXMXMXMXMXNXNXNXMXbXcX7X;X|.[.[.{.=X-X*X<XPXHXDX:Xh.j.S.j.h.h.h.h.h.h.h.j.&.l.@.N JXJXHXJXJXHXIXJXKXUXKXPXIXIXIXIXIXIXIXIXIXIXIXIXIXIXIXIXIXIXIXPXPXPXPXIXiXeXyX+X+XfXw.w.W.5.eX5.w.7.6.7.w.w.w.w.w.w.w.eXQ.w.7.tXe.7.7.eXeX4.v o   X w w.7.4.W.eXrXrXtXrXrXrXeXeXeXeXeXeXrXyX+XeXtXiXtXeXrXrXtXeX+X+X+X+X+XQ.W.Q.W.W.w.+XQ.W.W.e.e.e.e.Q.eXw.4.O.S 0 % o X   4 S +.9.eXQ.Q.Q.+XQ.e.9.5.5.<.O.| n 8 % & & & & & & & & & & & @ @ @ & 4 4 6 q 7 w 0 c D :.D.M.M.G.G.G.L.*X=X>X>X>X7XzXzXcXMXMXMXMXBXBXBXBXBXMXMXMXMXvXnXcXcXcXzXzXzXzXzXzXzXzXzXzX7X7XzXzXzX6X6X6X6X>X>X>X>X>X>X:X^.",
"= = = = = = > > > = > > > 1 1 1 1 1 t t t u u u t t t t u u y y y y i i i i f a f f f f g g C C H H H J K I T T W W W W W $.$.$.$.$.$.$.$.$.%.%.%.%.%.X.X.%.%.%.%.%.$.%.>.>.>.&.&.&.v.v.h.l.l.A.A.A.A.A.A.S.S.l.h.&.h.h.j.j.l.l.S.S.S.S.l.l.z.S.S.S.I.S.S.S.S.z.z.z.k.k.k.k.k.k.k.k.k.k.z.H.L./.=X6X6X5X7X7X7X7X7X7X7X7X7X7X6X6X>X>X7X7XzXcXnXnXnXnXnXnXnXnXMXbXzX7X7X;X*X=X*X*X*X*X:XPXPXDXVXA.S.z.S.h.j.h.j.R h.z.j.A.Y t HXJXHXHXKXKXKXKXKXKXLXPXIXIXPXPXIXIXIXIXIXIXIXIXIXIXIXIXUXIXPXKXUXPXJXUXkXw.Q.eXQ.eXiXw.w.W.eXrXW.5.5.W.7.rXQ.w.W.w.W.9.+XW.w.w.w.w.eX+XO.7 X     O  .6.W.7.9.Q.eXeXeXeXeXeXeXeX+XeXeXrXeXrXyXQ.rXyXyXeXeXtXeXyXtXeX+X+XeX+XQ.W.Q.Q.Q.W.eXQ.Q.rXW.eXQ.w.4.=.[ ; o + O   $ } W.tXW.Q.e.6.6.4.,.<.,.=.=.<.<.<.4.6.7.6.5.4.-.=.+... . . .{ w w w w 7 6 6 7 6 6 q e v n S | D.XXD.G.G.L.G.*X=X=X>X>X7XzXzXcXcXMXMXMXMXMXMXMXMXMXvXcXcXxXcXxXzXzXzXzXzXzXzXzX7X7X7X7X7X7X7X7X7X6X6X6X6X6X>X>X>X>X>X>X^.",
"= = = = = = > > = = > > > > > 1 1 1 t t t t u u t t t t u u u y y y i i i i a a f f f f g g z C C H H K J K T T P T W W W $.$.$.$.$.$.$.$.$.%.%.%.X.%.X.$.%.$.W W %.%.%.%.>.>.&.&.&.&.h.h.v.v.A.A.A.A.A.A.S.S.S.S.j.j.j.h.h.j.l.l.l.l.j.l.h.l.S.S.S.S.S.S.S.K.S.S.z.z.z.z.z.k.z.k.z.k.k.k.k.H.K.L./.=X=X=X=X5X7X7X7X6X6X6X>X>X>X>X>X6X7XzXzXnXnXnXnXnXnXbXbXnXcXzX7X7X>X*X=X*X*X=X*XOXJXPXHXHXE.~.I.z.S.S.h.h.R g.&.&.l.x VXHXHXJXHXKXKXKXKXKXKXLXIXIXIXPXPXPXPXPXPXIXIXIXIXIXIXIXIXJXIXPXUXLXIXUXGX7.eXw.9.eXQ.7.tXQ.Q.Q.Q.Q.5.;.5.Q.e.4.7.W.w.rXeXQ.W.Q.eXeX6.v o X   X 6 } ;.W.w.w.7.w.Q.eXeXeXeX+XeXeXeXeXeXeXrXrXrXtXeXrXiXtX+XeXiXtXiXyXeX+X+XeX+X+X+X+XeXeXeXiXrXeXyXw.5.-.;. .6 % 3 O X 3 *.eX+X+XW.<.-.X. .{ [ S S S v v S { [ [ }  .O.*.;.5.5.5.4.5.4.<.-. . . . .{ n w 0 n n n n n n m S 2.Y.F.G.G.G.G.*X*X*X>X>X7XzXzXcXcXMXMXMXMXMXMXMXMXMXxXcXcXxXzXzXzXzXzX7X6X6X6X6X6X6X6X6X6X6X6X6X6X6X6X>X>X>X>X>X>X>X>X>X^.",
"= = = = = = > > = = > > > > > 1 1 1 t t t t u u t t t t u u u u i i i i i i d f f f f f g g g C Z H H K J K T T W T W W W $.$.$.$.$.$.$.$.X.%.%.%.X.$.%.%.$.Y W &.D.#X#X,X,X<X,X:X:XS.A.v.v.v.v.v.A.A.A.S.S.S.S.S.S.S.l.j.h.h.j.j.j.h.h.&.&.h.j.S.S.S.S.S.S.K.K.K.K.S.S.z.z.z.z.z.z.z.k.k.k.z.S.H.K.L.L.L./.=X>X>X>X>X>X>X>X>X>X>X>X6X7XzXzXnXnXnXnXnXnXbXbXnXcXzX7X<X>X*X=X=X=X*X*XG.DXPXJXPXsXA.I.~.S.j.S.h.g.h.R &.M E.JXHXHXJXHXKXKXKXKXKXLXLXIXIXPXPXPXPXPXPXPXPXPXPXIXIXIXIXIXIXLXUXLXIXLXUXeX7.eXW.w.Q.W.6.eXQ.Q.Q.Q.Q.w.5.5.9.eXQ.+XQ.9.w.6.W.eXW.-.w +   o   X w -.W.eXQ.9.6.6.w.Q.+X+X+XQ.Q.+XeXtXrXeXeXeXeXtXeXeXtXiXtX+X+XyXeXyXtXeX+X+X+XeXeXeXtXeXeXeXiXeXW.Q.w.;. .{ 6 $ X X w 4.eXtXeX6.=.-.+...X.X. . .X.X.| S S }  .[ S A m m [  .O.+.+.-.4.4.4.-.-.-.-.-.=.O. .[  .}  .} [ [ [ S %.A.F.D.G.G.G.L.~.=X=X>X6X7XzXzXcXnXnXMXMXMXMXMXcXcXcXzXzXzXzXzXzXzX6X6X6X6X6X6X>X>X>X6X6X6X6X6X6X6X>X>X6X6X>X>X>X>X>X>X^.",
"= = = = = = > > > > > > > > > 1 1 1 t t t t u u t t t t u u u u i i i i i i d d f f f f g g g C Z H H K K I T T W T W W W W $.$.$.$.$.$.$.$.%.%.%.X.$.%.%.W &.E.dXbXVXSXSXDXZXZXMXbXdX:XE.G.v.v.v.v.A.S.S.G.G.S.S.S.S.S.S.n.j.j.j.h.h.! R R R h.j.S.S.S.S.S.S.K.K.K.K.K.S.S.S.S.z.z.z.z.j.j.k.k.z.S.S.n.n.K.L.~./.=X=X=X=X=X>X>X>X6X6X7X7XcXcXnXnXnXnXnXbXbXnXcXzX7X<X>X>X=X=X=X*X*XOXSXJXPXPXVX:.#.I.~.A.S.S.l.l.Y f A.JXGXHXJXHXJXKXKXKXKXKXLXPXIXIXIXPXPXPXPXPXPXPXPXPXPXIXIXIXIXIXIXLXPXUXUXfX7.tX9.+XQ.7.W.eX6.9.W.eXtXQ.!.Q.Q.+Xw.4.W.W.w.eXQ.+XO.6 +         w O.9.W.eXQ.5.w.6.w.w.W.Q.Q.Q.Q.Q.+XeXtXtXeXeX+X+XyXeXyXeXiXtX+X+XeX+XeXtXeXeXeXeXeXtXtXeXeXeXeXQ.6.<.<.-.O.c %   o [ Q.aXeX5.9.;.X.O.5.<.=.-.6.6.9.0.e.0.6.5.6.5.,.=.*.} [ S n A [ {  .4.;.=.=.<.<.4.4.4.4.4.-.-.O. . .{ { } D | :.F.D.G.G.~.L.~.=X=X>X6X7X7XzXcXnXnXnXvXcXcXcXcXcXzXzXzXzX7X6X6X6X6X6X>X>X>X>X>X>X>X>X>X>X>X>X>X>X>X6X>X>X>X>X>X>X>X/.^.",
"= = = = = = > > > > > > > > = 1 1 t t t t t u u t t t t u u u u i i i i i i a f f f f f g g g C Z H H K J K T T W T W W W W $.$.$.$.$.$.$.$.%.%.%.$.,.$.W :.dXVXDXHXHXHXHXHXDXDXDXZXZXMXzX=X=X~.S.S.n.n.n.S.n.S.S.S.S.S.S.S.S.S.j.h.y.y.y.y.h.h.j.j.n.S.j.j.S.S.K.K.S.K.S.S.S.S.S.S.S.z.z.z.j.z.z.j.j.j.j.j.S.S.L.~././.^.~.=X=X>X>X>X6X7XzXzXcXcXnXnXnXnXbXcXzXzX7X>X=X=X=X*X*X*X*X-X,XJXPXJXPXQ.l @.~.I.A.S.I.A.Y l SXHXHXHXLXJXHXKXKXKXKXLXLXIXIXIXIXPXPXPXPXPXPXIXPXIXIXIXIXIXIXIXIXLXPXUXGX6.Q.Q.Q.w.W.eXQ.w.Q.6.W.Q.7.eXeXrXaX5.w.W.=.9.eXW.n     X     X 4 O.9.Q.Q.9.eX+XQ.w.w.w.w.w.Q.Q.Q.Q.Q.Q.eXtXeXeXeXeXeXQ.yXeXeXQ.eXeXeX+XeXeXyX+XrXeXtXeXeXtXeXQ.W.Q.Q.5.+.O.v 3 O X ..6.eXeXW.6.;.=.=.4.6.7.7.7.w.w.0.0.0.0.0.0.0.0.0.0.0.6.4.4.;.;.{ [ _ {  .o.+.=.-.-.-.-.-.;.;.;.;.-.=.O.-. .*.| $.:.D.D.F.G.L.G.~.=X=X>X>X6X7XzXzXzXcXcXcXxXxXxXzXzXzXzXzXzX6X>X>X>X>X>X>X>X>X>X>X>X>X>X>X>X>X>X6X6X6X>X6X>X6X6X>X>X>X/./.",
"= = = = = = > > > > > > > > = 1 1 t t t t t u u t t t t u u y y i i i i i i a a f f f f g g V C H H H K K T T T W T W W W $.$.$.$.$.$.$.$.$.%.%.$.$.%.$.A.gXHXHXHXHXHXHXHXHXDXDXDXDXZXZXZXMXMXzX>X^.L.S.S.S.n.n.n.n.S.S.S.S.G.S.n.k.h.h.h.j.j.n.n.n.n.n.j.j.j.z.S.S.S.S.S.S.S.S.S.S.S.S.S.S.S.z.z.z.z.z.j.j.j.k.S.S.L.~.~.~.~.~./.=X>X>X6X6X7XzXzXcXnXnXnXnXzXzX7X<X>X=X=X=X*X*X=X*X<XE.JXJXPXUXVXU.x Y E.:XA.S.I.M :XJXGXJXJXHXKXHXKXKXKXLXLXLXIXIXIXIXPXPXPXPXPXPXPXPXIXIXIXIXIXIXUXLXUXUXKX7.Q.eXW.Q.W.W.Q.w.7.Q.W.w.w.Q.w.qXeXQ.e.6.e.!.7.n + X & X     - w O.6.7.w.w.7.+XQ.W.w.w.w.9.9.Q.Q.!.!.Q.+XeXeXeXeXeXeXeXQ.Q.W.tXeX+X+XeX+XyXeXiXQ.eXeXeXQ.Q.eXQ.6.-.-.O.A w 0 X X 5 =.tXeXQ.4.4.4.;.-.4.7.w.w.w.w.W.e.w.w.e.e.0.0.0.0.w.w.9.7.7.7.9.7.;.+. . .o.+.+.=.+.+.=.=.*.=.-.;.;.;.;.-.<.=.=.$.%.%.>.D.F.G.G.G.~.=X=X=X>X>X7XzXzXzXzXzXzXzXzXzXzXzX6X6X>X>X>X>X>X>X>X>X>X^.>X>X=X=X=X=X=X>X>X>X6X>X6X>X6X6X>X6X>X>X>X=X/.",
"= = = = = = > > > > > > > > = 1 1 t t t t t u u t t t t u u u i i i i i i i a a f f f f g g g C H H H H K K T T W T W W W W $.$.$.$.$.$.$.$.%.%.$.$.$.1.dXDXJXHXHXHXHXDXDXDXDXDXDXDXZXZXDXZXDXZXMXzX6X>X=X=XL.S.n.n.n.S.S.S.G.V.S.n.n.S.n.S.S.S.S.S.S.S.j.j.j.j.z.z.S.S.S.S.S.S.S.S.S.S.S.S.S.S.S.S.z.z.z.z.z.j.j.S.S.S.S.S.K.K.L.~./.>X>X>X6X7X7XzXzXcXzXzXzX7X<X>X>X=X~.~.L.L.~.~.*XF.SXJXPXJXJXCXE.l Y S.G.A.A.E.HXJXHXHXJXHXJXJXKXLXLXLXPXIXIXIXIXIXPXPXPXPXPXPXPXPXPXIXIXIXIXIXLXUXLXLXaX6.W.w.w.W.Q.Q.7.9.W.Q.Q.w.w.eXe.Q.Q.w.5.5.5. .3     O     o 3 <.w.eXQ.eXQ.Q.eXQ.W.w.9.7.7.7.7.Q.Q.!.!.!.+XeXeXeXeXeXeXtXtXW.W.+XeXeXeXeX+XyXeXtXW.+X+X+Xw.6.6.;. .v w 7 % + + % v 4.iXw.7.4.6.-.4.7.W.eXeXeX+X+X!.Q.W.W.e.e.W.e.0.0.w.w.w.0.9.0.w.w.7.6.5.5.;.-.-.=.+.+.+.+.O.O.O.*.=.-.-.;.;.4.5.-.;.,.$.%.F.D.G.G.G.~.=X=X=X>X>X7X7XzXzXzXzXzXzXzXzXzX6X6X>X>X>X>X>X/.^.^.^.^.^.^.^./.^./.^./.=X>X>X6X>X6X>X>X6X>X>X>X>X>X>X/.",
"= = = = = = > > = = > > > > = 1 t t t t t t u u t t t t u u y i i i i i i i a a f f f f g g g C C H H H K K T T T T W W W W $.$.$.$.$.$.$.$.%.%.$.$.F @XVXHXHXHXHXDXDXDXDXDXDXDXZXZXZXZXZXZXZXZXZXMXMXMXnXcX>X~.L.S.n.n.n.B.S.V.B.B.V.L.L.L.G.S.S.S.S.S.S.j.j.j.j.z.j.l.l.S.S.S.S.S.S.S.S.S.S.S.S.S.S.S.S.S.z.z.z.j.j.n.n.n.n.S.S.K.L./.>X>X6X6X6XzXzXzXzXzX7X<X>X>X=X=X~.L.L.L.L.L.S.:X#XPXPXJXUXGXHXR.= h #X&.%.JXHXHXHXGXKXJXHXLXKXLXLXLXIXIXIXIXPXPXPXPXPXPXPXPXPXIXIXIXIXIXIXIXKXUXIXGX6.tX7.W.W.W.Q.W.4.W.Q.Q.0.W.!.eXrXQ.W.W.eX9. .& X o o . + v -.7.5.w.w.7.eXw.Q.eXW.w.w.w.4.6.6.7.Q.Q.!.W.Q.eXeXeXeXeXeXeXtXyXeXyXQ.eX+XaXrX+XtX+XrXe.+XQ.Q.5. .} n 7 % % 4 + o + S W.tX7.6.4.4.4.W.W.W.W.Q.Q.Q.Q.!.!.+X+Xe.W.e.W.0.0.W.W.w.w.0.9.9.w.w.7.6.6.7.7.5.4.-.=.+.o. . ...X.O.O.*.*.=.-.4.7.;.4.8.$.W D.D.M.G.G.L.=X=X=X>X>X>X6X7X7XzXzXzXzXzXzX6X>X>X>X>X>X>X^.^.~.~.~.~.~.~.~.~.~./.~././.=X>X>X>X>X>X4X6X4X4X>X4X>X>X>X",
"= = = = = = > > = = > > > > > 1 t t t t t t t t u u t y u u y i i i i i i i d f f f f f g g z C C C H H H K T T T T Y Y W W W W $.$.$.$.$.$.$.$.$.$.%.gXDXHXHXDXDXDXDXDXDXDXDXZXZXZXZXZXZXZXZXZXZXZXZXZXZXZXNXnX6X~.J.n.b.b.B.V.V.V.Z.G.L.L.L.~.~.S.S.S.S.S.j.j.j.j.h.h.h.j.j.S.S.S.S.S.S.S.S.S.S.S.S.S.S.S.S.z.z.j.j.j.h.k.j.n.S.S.S.~./.>X>X>X6XzXzXzX7X6X>X>X=X=X=X=X~.L.L.L.L.L.S.:XE.JXUXPXJXJXJXGXT.X | %.CXPXHXHXHXHXJXKXKXKXKXKXKXLXIXIXPXPXIXIXIXIXIXIXIXIXPXUXLXIXIXLXLXIXUXUXIXw.Q.7.Q.Q.Q.Q.Q.w.4.W.Q.w.9.W.!.Q.eXQ.W.W.4.7.eX7.+   % w ;.4.5.6.w.w.w.w.9.w.Q.eXtX5.w.w.4.4.7.w.W.W.W.W.Q.+XeXeXeXeXeXtXtXtXeXQ.eXtXeXtXtXrXyXyXtX+Xe.w.6.X.A 0 8 & $ % o + w 4.eXeXQ.w.4.7.w.w.Q.Q.eXtXeXeXQ.W.W.W.Q.+X9.W.0.Q.w.9.W.W.w.w.0.9.9.9.9.9.7.6.5.5.4.4.4.;.-.O. . . . . .O.O.O.O.O.O.=.<.<.;.,.Y >.M.M.G.G.L.*X=X=X=X>X>X>X>X6X6X6X6X6X6X6X>X>X>X>X>X^.^.~.~.~.~.~.K.K.L.L.~.~.~.~./././.>X>X>X6X>X6X=X4X=X>X4X>X>X>X",
"= = = = = > > > = = > > > > > 1 t t t t t t t t u t t t u u y i i i i i i i d f f f f f g g z C C C H H H K T T T T Y Y W W W W $.$.$.$.$.$.$.$.$.$.A.bXDXHXHXDXDXDXDXDXDXDXZXZXZXZXZXZXZXZXZXZXZXZXZXZXZXDXZXMXcX6X=XL.V.B.V.V.V.V.Z.Z.L.L.~.=X^.~.S.S.S.S.S.z.j.j.h.h.h.h.j.j.S.S.S.S.S.S.S.S.S.S.S.S.S.S.z.z.j.j.j.j.h.h.j.n.n.S.S.S.~.~./.=X>X>X7X6X>X>X=X=X=X=X=X=X~.L.L.L.L.L.~.E.F.SXLXIXPXPXKXLXGXW.  ;.UXKXHXHXJXJXJXJXKXKXKXKXKXLXIXIXPXPXPXIXIXIXIXIXIXIXIXLXUXPXLXIXIXLXLXUXtXw.w.eX9.w.W.Q.W.9.9.W.w.7.w.!.Q.w.w.W.Q.Q.+XQ.eXeX4.n [ 4.6.7.w.w.w.w.w.w.W.Q.w.W.W.4.9.9.7.7.7.w.w.w.w.W.Q.Q.eXeXeXeXtXtXtXeXeXQ.rXyXeXiXiXiXiXtX+X0.6.4.} n w 3 $ $ ; 7 w O.7.W.eXQ.Q.Q.+XeXeXtXeX+XQ.Q.Q.+XQ.Q.W.W.Q.Q.7.W.0.Q.Q.0.W.9.9.w.0.9.9.9.9.9.7.6.5.4.5.6.6.4.4.*...X. . . . . . . . . . . ...%.%.F &.D.M.G.G.L.~.=X*X=X=X=X>X>X>X>X>X>X>X>X>X>X>X>X^.^.^.~.~.~.K.S.S.S.S.S.S.K.~.~.~././.=X>X>X>X>X=X6X=X>X>X>X4X>X>X>X",
"= = = = = = > > > = > > > > > 1 t t t t t t t t u t t t u u y i i i i i i i d f f f f f g g z C C C H H H K T T T T Y Y W W W W $.$.$.$.$.$.$.$.$.%.Y.VXDXHXDXDXDXDXDXDXDXZXZXZXZXZXZXZXZXZXZXZXZXBXZXZXDXDXDXZXZXMX7X>X=XL.L.L.Z.Z.Z.Z.L.L.=X>X>X~.S.S.S.S.S.S.S.z.j.h.h.h.h.h.j.j.j.j.S.S.S.S.S.S.S.S.S.z.z.j.j.j.j.j.k.k.j.j.j.j.n.S.S.K.K.~.^.>X>X>X=X^.~.~.=X=X=X=X~.L.L.L.L.L.~.E.F.dXJXPXPXUXKXGXKXCX;.UXIXKXJXJXJXJXKXKXKXKXKXLXLXLXIXIXPXPXPXPXIXIXIXIXIXIXIXLXUXPXLXIXIXLXUXjX;.7.7.Q.9.9.w.w.w.w.W.W.w.w.w.!.!.w.w.w.W.Q.W.W.w.w.iXQ.5.5.9.w.W.W.W.w.w.w.Q.eX7.w.7.4.6.6.7.w.9.7.7.9.w.W.Q.Q.!.+XeXeXtXtXtXeXeXQ.yXiXrXaXiXiXrXQ.6.<.O...e w 9 6 3 w [  .5.Q.yXeXQ.Q.+XeXyXtXtXtXQ.Q.w.w.W.Q.+X+X+XQ.W.w.9.e.0.Q.Q.0.W.9.9.w.w.0.9.9.9.9.6.6.5.4.4.4.6.6.7.;.*.=. . . . . .} } } { [ S S } | D D D.M.G.G.L.L.~.:X:X=X=X>X>X=X=X>X>X>X>X>X>X>X^.^.^.~.~.~.K.S.S.S.S.S.S.S.S.K.~.~./.^./.>X=X>X=X=X=X=X>X>X>X>X>X>X>X",
"= = = = = = > > > > > > > > = 1 1 t t t t t t t t t t t u u y i i i i i i i d f f f f f g g z C C C H H H K T T T T W W W W W W W $.$.$.$.$.$.$.$.$.@XVXDXHXDXZXDXDXDXDXZXZXZXZXZXBXBXBXBXZXZXZXBXBXBXZXZXDXDXZXZXNXMXnX7X=XP.L.J.Z.Z.Z.L.L.>X<X>X>XS.S.S.S.S.S.S.z.j.j.j.h.h.h.h.h.h.j.j.j.S.S.S.S.S.S.z.j.j.j.h.h.h.j.j.j.j.j.j.j.j.j.n.n.n.S.L.~././.^.~.~.~.^.=X=X/.~.L.L.L.L.L.~.~.E.:XHXJXLXIXPXHXLXHXPXIXUXHXKXKXKXKXKXKXKXKXLXLXLXPXIXIXIXIXIXIXPXPXPXPXIXIXPXUXLXIXIXLXLXIXGXw.w.w.9.4.w.W.w.w.w.w.W.w.w.Q.Q.W.w.W.w.w.w.w.w.tXw.4.eXtXQ.-.6.7.w.w.W.w.w.w.W.eX7.Q.7.7.6.6.7.w.w.7.6.9.w.W.!.!.Q.Q.eXeXtXtXtXeX+XQ.yXaXtXaXyXrXW.7.=.X.[ S 0 7 q w [ +.5.5.Q.eXtXeXw.Q.eXeXeXQ.W.w.9.w.W.W.Q.+X+XeX+XQ.W.9.9.W.0.Q.w.7.Q.W.w.w.w.9.9.9.9.9.7.6.5.4.4.5.4.6.9.5.;.;.O. . .} { [ [ } } { S m b m D j D.G.G.G.L.L.~.^.=X=X=X=X=X=X=X=X>X>X>X>X>X^.^.^.^.~.~.~.S.S.S.S.S.S.S.S.S.S.K.L.~.~././.=X=X=X=X>X>X=X=X4X6X6X6X>X",
"= = = = = = > > > > > > > > > 1 1 t t t t t t t t t t t u u i i i i i i i i f f f f f f g g z C C Z H H H K T Y T T W W W W W W W $.$.$.$.$.$.$.$.$.#XvXDXDXDXZXDXZXZXZXZXZXZXZXBXBXBXBXBXBXBXBXBXBXBXBXZXZXZXZXZXNXNXMXnX8X7X=X{.L.J.J.L.L.>X>X>X>XK.S.z.z.z.z.z.z.j.j.j.j.h.h.h.h.h.h.j.j.j.z.j.z.S.S.S.j.j.j.j.j.j.j.j.j.j.j.j.j.j.h.h.h.j.S.K.~.~.~.~.~.~.~.^.^./././.~.~.L.L.~.~.*X*X*XVXHXJXPXIXIXIXGXIXUXKXPXKXKXKXKXPXPXPXPXLXLXLXLXPXIXPXIXIXIXPXPXPXIXIXIXPXUXLXIXPXKXUXJX7.eX5.Q.tX6.4.Q.W.w.w.W.w.w.w.Q.+Xw.w.w.w.w.w.W.tXw.Q.w.tX7.Q.w.W.9.w.W.Q.w.w.Q.w.Q.7.w.<.4.5.4.7.W.W.7.6.w.w.W.!.Q.Q.Q.eXtXyXtXeXQ.Q.eXyXeXe.eXw.7.4.+.X.[ A w 7 w n ..<.4.7.w.tXtXtXQ.W.w.w.6.w.w.9.w.w.+XtXtX+X+X+X+X+XQ.w.9.6.W.9.0.W.9.Q.w.w.w.W.W.w.w.w.9.7.4.4.4.4.5.4.6.7.5.<.-.O. . .{ [ [ { { [ S m n v m 8 h W F.G.G.G.G.~.~.~.^.=X=X:X=X^.:X^.>X^.>X^.^.^.^.~.~.K.S.S.S.S.S.z.z.S.S.S.S.S.K.~.~././.>X/./.>X=X>X/./.4X4X4X4X4X",
"= = = = = = > > > > > > > > > 1 1 t t t t t t t t t t t u u i i i i i i i i f f f f f f g g z C C Z H H H K T Y T T W W W W W W $.$.$.$.$.$.$.%.$.$.E.xXZXZXZXZXZXZXZXZXZXZXZXBXBXBXBXBXBXBXBXBXBXBXBXBXZXZXZXZXZXZXNXNXNXMXnX8X7X=X=XP.L.~.~.=X=X>X~.S.j.h.h.j.z.z.j.j.j.h.h.h.h.h.h.h.j.j.j.z.j.j.S.S.S.A.l.j.j.j.j.j.j.j.j.j.j.j.j.h.h.h.h.k.S.K.K.~.~.~.^./.~.~.~.~./.~.~.L.~.~./.=X*X:XbXSXHXJXHXKXKXKXUXIXJXKXLXKXLXLXLXPXPXPXLXLXLXLXPXPXPXPXIXIXPXPXIXIXIXIXIXIXPXIXKXUXIXfX9.+X7.4.W.w.9.w.W.W.W.W.W.w.w.W.w.9.w.W.W.w.w.+X9.W.eXW.6.9.Q.W.eXw.7.7.9.7.w.eXw.W.6.7.-.;.6.7.w.w.w.w.9.w.W.!.+XQ.Q.Q.Q.tXyXtXtXeXeXtXiXyXe.Q.9.5.+.X.{ A w 7 v { +.5.6.6.W.iXtXeXeXQ.6.4.-.*.4.4.7.w.w.eXyXtX+XQ.W.W.W.W.w.9.6.Q.w.W.+Xw.w.4.7.7.4.4.5.6.w.w.w.7.7.7.7.6.4.5.4.4.;.=.O. . . .} } { [ S n v c w c 8 u D F.F.G.G.G.G.~.~.~.~.^.^.^.~.~.^.^.^.^.^.~.~.~.~.K.S.S.S.S.z.z.z.z.z.S.S.S.S.K.L.~././././././.=X=X/./.>X=X/./.>X",
"= = = = = = > > > > > > > > > > 1 t t t t t t t t t t t u u u i i i i i i i f f f f f f g g z C C Z H H H K T T T T W W W W W W $.$.$.$.$.$.$.%.$.%.S.dXvXvXMXMXZXZXZXZXZXZXZXBXBXBXBXBXBXBXBXBXcXcXcXBXBXNXZXZXNXZXZXZXZXNXNXMXnX8X7X5X4X>X>X>X>X>X>X~.j.h.h.h.h.j.j.h.h.h.h.h.h.h.j.h.j.j.j.j.j.j.S.S.S.S.S.z.S.S.S.S.S.S.S.n.j.j.j.h.h.y.h.j.j.S.K.K.~.~.~.~.~.~.~.~.~.~.~.~././.=X=X=X*X<XgXVXVX0.n LXGXKXIXIXUXLXPXLXLXPXPXPXPXPXPXPXPXPXPXPXIXIXIXPXPXIXIXIXIXIXPXIXIXIXPXlXw.tX7.eX4.9.w.W.w.w.w.w.w.W.Q.Q.w.7.w.W.W.Q.W.w.W.7.+XQ.Q.w.eXQ.w.eXw.7.7.w.6.7.w.6.7.<.4.4.-.w.7.w.w.w.w.w.W.!.+XQ.Q.W.w.W.eXtXtXtXeXeXtXaXeX9.e.9.<.+.{ { v w e A -.9.w.7.w.eXaXQ.W.w.w.-.*.O.O.6.9.w.W.eXtXyXeXW.W.w.w.W.W.w.9.W.eXW.w.9.<.=.} [ [ n n n [  .O.O.O.*.=.6.5.5.4.4.4.-.O...X.O.O... .[ m v v v c 0 8 c h l D.XXM.G.G.G.~.L.~.~.~.~.~.~.~.~.~.~.~.~.~.~.~.~.S.S.S.z.z.z.z.z.z.z.S.S.S.K.K.~.~././././././.>X>X/././.>X/./.>X",
"= = = = = = > > > > > > > > > > t t t t t t t t t t t y u u u i i i i i i i f f f f f f g g z C C Z H H H K T T T T Y Y W W $.$.$.$.$.$.$.$.$.%.%.%.A.:XzXzXcXcXBXBXZXZXZXZXBXBXBXBXBXBXBXBXMXcXcXcXcXcXBXBXBXBXBXBXNXZXZXZXZXNXNXNXNXnXnXcXcXnXMXMXvX>XS.j.h.h.h.h.h.h.h.h.h.y.h.h.h.h.j.j.j.j.j.z.S.S.S.S.S.S.S.S.S.S.S.S.S.S.S.k.j.j.h.h.h.h.j.n.S.K.K.~.~.~.~.L.L.L.L.L.~././.=X=X=X=X>X*X:X<X#X2.GXGXGXIXUXPXUXIXIXPXPXPXPXPXPXLXPXPXPXPXPXPXPXIXIXIXIXIXIXIXIXIXLXUXPXIXKX<.Q.9.tX9.Q.9.7.w.W.w.w.w.w.W.+XQ.w.w.Q.Q.w.W.Q.W.w.eX+X7.Q.W.Q.w.tXW.w.9.W.Q.7.4.4.5.6.;.4.9.;.w.5.W.7.7.W.Q.Q.Q.eX!.Q.w.w.W.eXtXeX+XQ.Q.+XrXe.5.5.7.<...{ { A { [ { 7.Q.9.7.eXtX+XW.w.6.4.-.-.-.-.Q.Q.eXtXtXyXeXW.w.w.w.w.W.W.w.9.w.w.=.} w 6 6 % O O $ % % % % % 6 8 w w [  .*.=.;.;.=... .O.*.*.O. .S n v v v v c w } b x 2.E.D.G.G.G.G.G.E.~.~.~.~.~.~.~.~.~.~.~.~.~.K.S.S.S.z.z.z.j.j.z.z.z.S.S.S.K.~.~.~./././././.>X>X>X/./.>X4X/././.",
"= = = = = = > > = > > > > > > > t t t t t t t u u u u u u u u i i y i i i i f f f f f f g g z C C C H H H K T T T T Y T W W $.$.$.$.$.$.$.$.$.%.%.%.A.I.:X6X7X7XcXcXBXBXZXZXBXBXBXBXvXMXMXMXcXcXzXcXcXcXcXBXBXBXBXBXBXNXZXZXZXZXZXZXNXNXNXNXNXNXZXZXBXzX~.z.j.h.h.h.h.h.h.h.t.t.t.h.h.h.h.h.j.j.j.j.j.j.j.A.z.z.j.j.S.S.S.S.S.S.S.S.k.j.j.h.h.h.h.j.k.S.K.K.K.K.K.K.K.K.K.K.L./././.=X=X=X=X>X>X>X:XsXVXGXJXUXUXPXUXPXPXPXLXPXPXLXLXLXPXPXPXIXIXIXIXIXIXIXIXIXIXIXIXUXUXUXIXLXw.w.Q.W.w.w.w.Q.eXQ.w.w.w.w.w.W.Q.Q.W.W.W.W.w.w.w.W.W.tXW.w.w.w.w.+XtX6.<.Q.w.w.O.7.Q.5.4.4.5.6.7.w.w.W.9.9.W.Q.W.!.eXW.+Xw.w.w.yXW.+X+XQ.Q.Q.+X0.1.6.5.<.+.X.+.{  .<.7.5.5.e.eXQ.w.7.6.-.+.=.O.-.7.W.eXeXeXeXeXeXQ.Q.Q.Q.Q.Q.+X9.-.[ v 0 % ; % 3 0 w n S S S [ v 8 3 3 % % 3 3 6 v [  .O.-.-.-.*.O.=.*.X.[ v n n n v c n m } m %.Y.F.D.S.D.G.G.G.~.~.~.~.~.~.~.~.~.~.~.~.S.S.S.S.S.z.z.z.j.j.z.z.S.S.S.K.K.~.~.~././././././.>X>X/.>X>X4X/././.",
"= = = = = = > = > = > > > > > > t t t t t t u u u u u u u u y i i i i i i i f f f f f f g g z C C H H H H K K T T T Y Y W W $.$.$.$.$.$.$.$.$.$.%.%.>.A.~.:X>X6X7X7XcXcXMXBXBXBXMXMXMXcXcXMXcXzX6XzXcXcXcXcXcXcXnXMXBXBXNXBXBXNXNXNXNXNXNXNXZXZXZXDXZXxX^.K.z.j.h.h.h.h.h.h.t.t.t.y.h.h.h.h.h.h.j.j.j.j.j.j.z.l.j.j.j.j.S.S.S.S.S.S.S.n.j.j.h.h.h.h.j.j.j.z.k.k.S.S.S.S.n.n.K.L./././.^.=X=X=X=X^.:X,XgXHXLXPXUXUXUXKXKXLXLXJXKXLXPXPXPXPXPXIXIXIXIXIXIXIXIXIXIXIXIXUXLXKXPXlX=.+X9.w.Q.W.7.-.9.Q.W.w.w.W.Q.!.W.w.Q.Q.W.W.W.w.9.w.W.eXW.w.w.w.W.Q.Q.5.eXW.aX} 7 ;.4.6.6.6.6.6.7.w.w.w.w.w.W.W.W.Q.eXw.eXW.W.W.yXQ.Q.W.Q.+X+X+X0.,.=.<.<.+.+.+.+.4.0.5.5.e.eXqXw.7.6.5.=.=.<.-.5.w.Q.eXeXeXQ.Q.Q.eXtXtXeXQ.W.=.S 6 ; ; 6 v } =.<.7.6.5.4.4.5.4.-.O. .[ w 5 5 % & ; 5 w m  .O.=.=.=.*.*.*. .[ S m n n n m } | m @.A.F.D.D.S.S.S.G.G.G.G.G.G.E.~.~.~.~.~.S.S.S.S.S.S.S.z.z.z.z.z.S.S.S.K.K.~.~.~.~././././././././././.4X4X4X4X>X",
"= = = = = = > = > = > > > > > > t t t t t t u u t u u u u u u y i i i i i a d f f f f f g g z C C H H H H K K T T T Y Y W W $.$.$.$.$.$.$.$.$.$.%.%.&.:.A.S.~.^.>X6X7XzXzXcXcXcXcXcXcXcXcXcXcX6X6X6X7XzXcXcXcXcXcXcXnXnXMXMXBXNXNXBXNXNXNXNXZXZXDXDXBXzX/.~.S.k.j.h.h.h.h.h.h.h.h.h.h.h.h.h.h.h.j.j.j.j.j.j.j.j.j.j.j.j.n.S.S.S.S.S.S.S.n.j.h.h.h.h.h.h.h.h.h.h.k.S.S.S.S.S.n.K.~./.^.^.^.^./././.^.:XgXSXHXJXUXUXUXUXUXUXUXUXUXUXIXPXPXPXPXIXIXIXIXIXIXIXIXIXIXIXIXPXIXUXJXw.7.w.eX7.6.w.tXeXw.5.6.9.w.W.W.W.w.W.Q.Q.Q.eXW.w.W.!.Q.Q.w.W.w.Q.Q.+X7.7.eXtX4.$ v n ;.6.6.6.6.6.7.w.w.w.w.w.w.w.Q.Q.Q.w.eXW.W.Q.eX+XQ.W.Q.+X+XW.5.*.X.,.=.+.+.4.5.9.e.5.e.eXrXQ.5.4.5.<.=.=.5.7.w.W.Q.tXtXeXQ.W.Q.eXeXtX9.O.[ 8 8 0 v 6.4.6.6.6.6.<.4.6.7.7.7.6.5.;.-.4.O. .S v 7 % & % 6 w n {  .O.+.=.-.*.O. .} S m m [ | ..| @.2.A.D.D.A.A.A.S.S.S.S.S.S.S.I.I.I.S.S.S.S.S.S.S.S.S.S.S.S.S.S.S.S.K.K.K.~.~.~.^././././././././././.4X4X4X4X>X",
"= = = = = = > > > > > > > > > > t t t t t t u u t t t t u u u i i i i i i i f f f f f f g g z C C C H H H K K K T T W W W W $.$.$.$.$.$.$.$.$.$.%.%.%.%.&.&.A.S.L.=X>X6X6X6XzXcXcXcXzXcXcXcX7X6X6X6X7XzXcXcXcXcXcXcXcXcXcXcXcXcXcXnXnXnXnXMXZXZXZXZXMX6X/.K.K.z.j.h.h.h.h.h.j.h.h.h.h.h.h.h.h.j.j.j.j.j.j.j.z.z.j.j.j.j.j.j.S.S.S.S.S.S.S.j.j.h.h.h.h.t.h.t.t.h.z.z.S.S.S.S.S.S.K.~.^.^.^.^.^.~.^.~.*X,XbXVXGXLXIXPXUXUXUXPXIXIXUXUXIXPXPXIXIXIXIXIXIXIXIXIXIXIXIXIXIXUXIXw.Q.7.W.w.Q.Q.w.6.6.eXtXw.Q.W.w.w.w.W.Q.Q.Q.eXQ.w.w.Q.eXQ.!.!.W.w.eXeXW.6.9.yXw.o o [  .4.4.4.4.6.6.7.w.w.w.w.w.9.w.Q.Q.W.w.eXw.W.Q.eXeXQ.+X+XQ.W.6.<.*.*.=.,.=.=.7.7.7.7.e.eXrXeXe.4.+.5.-.+.-.6.W.Q.Q.eXyXtXQ.w.tXeXQ.W.=.[ 0 3 8 m =.7.<.6.6.<.4.6.w.w.9.7.7.6.5.<.;.;.4.4.5.-.4.X.v 8 3 3 % 5 0 v [  .-.-.-.=.+.O. .} } }  .....| :.D.A.v.A.A.A.A.S.S.S.S.S.S.S.S.S.S.S.S.S.S.S.S.S.S.S.S.S.S.S.S.K.K.K.~.~.~.~.~./././././.>X/./.=X/././.>X>X>X",
": = = = = = > > > > > > > > > > 1 t t t t t u u t t t t u u u i i i i i i i a f f f f f g z z C C Z H H H J K K T T W W W W $.$.$.$.$.$.$.$.$.$.%.%.$.%.%.%.&.v.M.S.~./.>X>X>X6X6X7XzXzX7X7X6X(.6X6X7XzXcXcXcXcXcXcXcXcXcXcXcXcXcXcX8XcXcXcXBXZXZXZXzX/.K.K.S.z.j.h.h.h.h.j.j.j.j.j.j.j.j.h.h.j.h.j.j.j.j.j.j.l.j.j.j.j.j.j.j.S.S.S.S.S.S.j.j.h.h.h.g.t.t.t.h.h.j.z.S.S.S.S.S.S.K.K.~.~.~.~.~.~.~.~.~.:X:X:XdXHXIXUXUXUXIXIXUXUXUXIXIXIXIXIXIXIXUXPXIXIXIXUXUXIXIXIXIXUXkX6.Q.6.Q.w.w.w.w.Q.Q.7.7.Q.Q.W.w.9.w.W.W.W.Q.Q.W.w.W.+XeXw.Q.Q.W.Q.!.W.W.Q.Q.Q.% X w  .6.5.5.5.4.6.7.9.w.w.w.w.w.w.w.Q.Q.w.w.eXW.W.eXQ.tXQ.+X+XW.0.5.,.,.<.<.<.9.0.w.9.7.5.eXeXeX+X5.4.+.o.<.5.9.Q.Q.Q.+X+XtXQ.w.w.eXw.4. .8 n S ..<.7.w.9.9.w.w.w.0.9.9.0.7.7.7.7.7.7.4.4.<.4.;.-.-.+. .} [ 6 $ % % 5 w S ..O.=.-.-.-.O... . . ...| | @.F.A.A.A.A.A.A.S.S.S.S.S.S.S.I.S.S.S.S.S.S.K.K.K.K.S.S.K.K.K.K.K.K.K.K.~.~.^.^././././.>X>X=X>X/./././.>X>X(.",
": = = = = = > > = > > > > > > > 1 t t t t t u u t t t t u u u y i i i i i i a f f f f f g z z C C Z H H H K K K T T Y Y W W $.$.$.$.$.$.$.$.$.$.%.%.%.%.%.%.&.&.v.A.S.L.~.~.^./././.>X>X6X6X/././.6X7X7XzXcXcXcXcXcXcXcXcXcXzXzX7X7X7X7X7XcXBXBXBXBX6X/.K.K.z.z.j.h.h.h.h.j.j.j.j.j.j.j.j.j.h.h.h.h.h.h.j.h.j.j.j.j.j.j.j.j.j.j.n.S.S.S.S.j.j.j.h.h.g.t.g.g.h.h.j.z.z.z.z.z.S.S.S.K.~.~.~.~.~.~.~.L.S.~.^.*X~.dXVXGXGXHXJXLXIXIXUXUXIXIXIXUXIXKXUXUXUXUXUXUXUXUXIXIXUXKX4.yX7.eXW.w.w.Q.W.6.6.+X+Xw.9.w.w.w.w.w.W.w.w.9.w.W.eXeXQ.w.Q.Q.Q.eX7.6.w.eXQ.7 X v } 6.6.7.5.5.4.7.w.w.w.w.w.w.w.w.W.Q.Q.w.9.+Xw.w.eXQ.tXQ.+XQ.w.0.5.<.<.<.<.<.7.9.9.9.e.Q.yXeXw.7.4.-.+.+.4.7.e.Q.eXQ.W.!.eXQ.Q.Q.w.=.[ w m O.4.7.9.w.w.7.6.7.w.W.W.w.w.w.9.9.7.7.7.7.4.4.<.4.;.-.-.=.-.O.O.[ w 6 & % 3 7 n [ }  .-.-.;.=.O.O.....| F D 2.>.>.v.v.A.A.A.S.S.S.G.S.I.I.S.S.K.S.K.K.K.K.K.K.K.K.K.K.K.K.K.~.~.~.~.^./././././.>X>X>X>X>X4X>X/./.=X=X/.",
": = = = = = > > > = > > > > > > 1 t t t t t u u t t t t u u u y i i i i i i a f f f f f g z z C Z H H H H K K K T T W Y W W $.$.$.$.$.$.$.$.$.$.%.%.%.%.%.$.%.%.&.v.A.S.S.S.S.~.~.~.^.^./././././.6X6X6XzXzXcXcXcXcXcXcXzX7X6X6X6X6X4X4X6X6X7XcXcXcX6X/.~.S.z.z.j.h.h.h.h.j.j.j.j.j.j.j.j.j.h.h.h.h.h.h.h.h.h.h.j.j.j.j.j.j.j.j.j.n.n.n.n.j.j.j.j.h.g.g.g.g.h.h.z.z.z.z.k.z.z.z.S.K.K.K.K.K.L.K.K.K.K.K.~.:X^.~.E.:XR.Q.%XuXuXkXHXPXIXUXUXUXHXkXGXLXLXIXUXUXUXUXIXIXUXiX+X5.Q.7.w.Q.eXw.7.w.w.w.w.w.w.w.w.w.w.w.w.w.9.9.w.W.+X!.Q.Q.Q.W.Q.eXeXeXQ.+Xm X 7 *.;.9.4.7.4.4.6.9.W.W.Q.W.W.w.w.W.W.Q.Q.w.9.+Xw.w.tXW.tXQ.+XW.0.6.5.<.<.<.4.6.9.0.9.w.Q.eXrXQ.5.-.-.-.+.+.5.w.W.Q.tXeXw.w.Q.Q.Q.w.+.[ n  .4.7.W.W.w.w.Q.eXtX+XW.w.9.7.7.7.7.7.7.7.7.7.4.4.<.4.;.;.;.;.;.=.*.O. .v 5 3 3 3 5 w n [  .O.=.-.-.*.O...} S x %.>.>.>.>.v.v.A.A.A.S.S.S.I.I.I.~.K.K.~.~.~.~.~.~.~.~.~.~.~.~.~.~.~.^.~.^././././.>X>X>X>X=X=X4X>X/./.>X>X/.",
"= = = = = = > > > > > > > > > > 1 1 t t t t u u t t t t u u u y i i i i i i i f f f f f g z z C C H H H H K T T T T Y Y W W W $.$.$.$.$.$.$.$.$.%.%.%.%.%.%.%.%.%.&.&.v.v.v.S.S.S.K.~.~.~.~./.~.^./.6X6XzXzXzXzXzXzXcXcXzX7X6X6X6X4X/././././.6X6X/./.^.~.z.z.j.j.h.h.h.h.h.j.j.j.j.j.j.j.j.h.h.h.h.h.h.h.h.h.h.h.j.j.j.j.j.j.j.j.j.j.j.j.j.j.j.j.h.h.h.h.h.j.z.z.S.z.j.j.j.k.z.S.S.K.K.K.K.K.K.K.K.~.K.S.~.~.:X>X:X:XR.U.:.@.:.$XVXIXUXUXUXGXW.tXfXlXGXPXIXUXUXIXIXHXjXW.yX9.eX7.W.7.w.Q.W.W.w.w.w.w.w.w.W.w.w.9.9.W.Q.W.w.w.9.W.tXQ.Q.eXQ.eXtXW.<.X O *.-.w.<.4.7.4.6.7.w.W.Q.Q.W.w.w.w.!.W.!.Q.w.w.Q.w.w.eXQ.tXQ.Q.0.6.6.5.<.<.5.7.9.e.Q.Q.Q.+XeX+Xw.5.-.+.-.-.=.9.w.W.Q.tXeXQ.w.w.w.6.4. .[ +.W.7.6.9.+XeXQ.Q.eX+XQ.W.w.w.w.w.0.7.7.7.7.7.7.6.4.<.4.;.-.;.4.;.O.O.=.+.{ w 7 7 3 3 5 8 c c m | O.O.+.=.*.| m j Y >.>.&.>.&.&.v.v.A.S.S.S.S.I.~.~.K.~.~.~.^.^.^.^.^.^.^.^.~.~.~.~.^.^.^.^././././.>X>X>X>X>X>X4X4X/././././.",
"= = = = = = > > > > > > > > > > 1 1 t t t t t t u u u u u u y i i i i i i i d f f f f f z z C C Z H H H H K T T T T W W W W $.$.$.$.$.$.$.$.$.$.$.$.$.$.%.%.$.%.$.%.%.&.&.v.v.v.S.S.S.S.K.K.K.~.~.~./.>X6XzXzX6X6X6X7X7X7X7X6X6X4X/././././././././././.K.S.z.j.h.h.h.h.h.h.h.h.h.h.h.h.h.h.j.h.h.h.h.h.h.&.&.h.h.h.j.j.j.h.j.j.j.j.j.j.j.j.j.j.j.h.h.h.j.j.z.S.S.K.z.z.j.j.j.z.z.S.S.K.K.K.S.S.K.S.L.K.K.S.~.~.^.:X:X:XI.A.#.Y D %.sXHXJXJXGX..=.;.;.Q.lXHXUXPXKXUXHXCXjXyXQ.eXeXW.W.W.9.7.7.9.7.7.7.7.7.7.Q.;...-.7.eXyXtX+Xw.w.w.W.+XQ.7.iXtXw.X $ -.6.6.6.6.6.6.6.7.9.9.w.W.W.W.Q.Q.w.Q.W.Q.W.w.w.Q.w.W.eXQ.tXQ.W.7.<.*.6.;.6.7.9.w.Q.+X+X+XQ.w.w.6.<.-.=.=.-.<.6.W.eX+Xw.W.W.w.7.4.+. .-.4.6.9.W.Q.Q.eXeXQ.W.Q.W.W.W.W.W.w.0.0.w.7.7.7.7.7.4.4.4.;.4.-.-.<.;.-.=.+.O.O.} m 0 5 3 3 3 7 v m m } <.;.-.*.} D x F >.>.&.v.&.&.v.v.A.S.S.S.S.S.~.~.~.~.^.^.^.^.^.^.^.^.^.^.^.^././.^./.^.^././././.>X>X>X>X(.4X4X(./././././.",
"= = = = = = > > > > > > > > > > 1 1 t t t t t t y y u u y y y i i i i i i i f f f f f f z z C C Z H H H H J T T T T W W W W $.$.$.$.$.$.$.$.$.$.$.$.$.$.%.%.$.$.$.%.$.%.%.&.&.>.v.v.A.S.S.S.S.K.K.K.~.^./.>X>X^.>X>X>X6X6X6X6X6X(./././././././././././.K.S.j.h.h.h.h.h.g.g.g.g.h.g.h.h.h.h.h.j.h.h.h.h.h.h.&.h.h.h.h.h.h.h.j.h.j.j.j.j.j.j.j.j.h.h.h.h.h.j.z.S.S.K.S.z.j.j.j.z.z.z.S.S.K.K.S.S.S.S.S.S.S.S.S.~.~.~.>X:X:XE.:.@.x x ;.gXGXlXtX; 0 n n ..w.jXKXIXPXLXKXGXlXjXeXeXeXw.9.7.7.w.W.w.7.5.7.7.7.7.9.O. .5.*.4.6.6.W.Q.Q.eXW.eX6.7.+XyXO O } W.w.6.6.6.6.7.7.7.9.w.w.w.w.W.Q.Q.w.Q.Q.!.w.w.W.+Xw.Q.+X+XeXQ.w.7.4.,.7.4.W.w.Q.+XeXeXeX+XW.7.5.;.+.+.+.=.<.5.6.W.eXeXeXeXQ.W.7.6.5.4.6.7.w.W.W.W.+XeX+Xw.w.W.W.W.W.W.W.W.W.W.W.W.w.7.6.4.4.4.4.4.4.-.;.;.;.-.-.*.O.O... .m c 5 3 3 3 0 v c n } ..*.;.*.$.D k 1.>.&.>.&.&.v.>.A.S.S.S.S.~.~.~.^.^.^.^.^.^.^.^.^.^.^././.^.^./.^.^.^.^././././././.>X>X4X4X4X(.(././././.",
"= = = = = = > > > > > > > > > > 1 1 t t t t t t y y u u y y y i i i i i i i f f f f f f z z C C Z H H H H J T T T T W W W W $.$.$.$.$.$.$.$.$.$.$.$.$.$.$.$.$.$.$.$.%.%.%.%.&.&.&.h.h.v.v.A.S.S.S.K.K.~.~.^.^.^.^.^././././.>X/././././././././././././.K.S.j.h.h.h.R R R R R R R R R &.g.h.h.h.h.h.h.h.h.h.&.h.h.h.h.h.h.h.h.h.j.j.j.j.j.j.j.h.h.h.h.h.h.j.z.S.S.K.S.z.z.j.j.z.z.z.z.S.n.S.S.S.S.S.S.S.S.S.S.S.E.~.:X>X>X:XI.A.R l h ..2.| c X % 0 0 0 [ w.lXKXIXKXLXHXGXCXaXtXQ.W.w.w.w.w.W.w.7.5.7.7.7.7.7.;.-.4.-.*.=.4.9.Q.Q.w.W.+XtXfXeX6 X X.6.Q.4.4.6.6.6.9.w.w.w.w.w.w.W.W.Q.Q.w.+XQ.W.w.W.Q.eXW.+XeXeXQ.W.w.9.9.5.0.9.+X+XtXtXeX+XQ.W.w.4.=.+.+.+.+.-.5.7.6.W.eXeXtXtXQ.w.-.;.4.4.w.Q.+XeXeX+XW.w.w.w.w.Q.+XQ.Q.Q.Q.W.W.0.7.6.6.6.6.7.7.9.<.4.4.<.<.;.;.-.=.*.O.O.O... .} w 6 3 3 5 0 0 w w n  .*.;.%.F Z %.>.%.&.&.&.v.&.A.D.S.G.E.~.~.^.^.^.^.^.>X>X>X>X>X>X^./.^././././.^././././././././././.(.(.(.(./././././.",
"= * * * = = > > > > > > > > > > 1 1 t t t t t t y y u u u u y i i i i i i f f f f f f f z z C C C H H H K K T T T T W W W W $.$.$.$.$.$.$.$.$.$.$.$.$.$.$.$.$.$.$.$.$.$.$.%.%.&.&.&.&.&.&.v.v.n.S.S.S.I.~.~.~.~.~.~.~.~././././././././././././././././.K.S.j.h.h.t.R R R R R R R R R R R g.h.h.h.h.h.h.h.h.h.&.h.h.h.h.h.h.h.h.h.j.j.j.j.j.h.h.h.h.h.h.j.j.z.S.S.K.S.z.z.j.j.z.z.z.n.n.S.S.S.S.S.S.S.S.S.S.S.S.S.S.~.*X:X:X>X*XS.&.@.b j j % % $ ; ; 8 w [ e.CXJXKXLXJXGXCXfXrXQ.Q.tXeXW.w.9.7.7.7.7.7.7.7.w.eXw.O.+. .} O.[ ;.W.+XtX7.yXtX-.  } 6.9.6.O.-.6.6.7.0.w.W.w.w.w.w.W.W.Q.Q.w.+XQ.w.w.e.Q.Q.w.Q.eX+XQ.W.w.0.0.0.W.W.tXiXtXeX+XQ.W.6.5.4.O.+.+.+.+.<.7.w.6.W.eXeXeX+X9.5.;.5.w.Q.+X+X+X+X+XQ.Q.W.Q.W.Q.eXeX+X+X+XQ.Q.W.W.0.7.7.7.4.4.4.6.4.<.4.<.<.;.-.-.=.*.O.X... . .} m w 5 5 5 5 6 8 0 w n m ..%.%.W W >.&.Q &.&.v.v.A.A.S.S.E.~.^.^.^.>X^.>X>X6X>X>X6X6X>X>X/././././.^././././././.=X=X=X=X/././././././././.",
"* * * * : : > > > > > > > > > 1 1 1 t t t t t t y y u u u u y i i i i i i f f f f f f f z z C C C H H H K K T T T T W W W W W W $.$.$.$.$.$.$.$.$.$.$.$.$.$.$.$.%.%.%.%.%.%.%.%.%.&.&.&.&.&.&.v.v.n.S.S.S.S.L.L.L.L.L.L.~.~.~./././././././././././././.K.S.z.h.h.R R R N N N N N N N R R R #.h.h.h.h.h.h.h.h.#.h.h.h.h.h.h.h.h.h.h.h.j.j.j.h.h.h.h.j.j.z.z.z.S.S.S.S.z.z.z.j.z.j.z.k.S.z.S.S.S.S.S.S.n.k.j.j.S.S.S.S.~.^.>X>X>X:XI.I.:.| b % ; O - ; ; 3 8 [ aXHXLXKXLXHXGXjXeXw.Q.eXeXeXW.w.9.9.7.w.Q.Q.w.<.7.W.w.=.*.6.+X9.Q.Q.9.W.+XQ.<.  <.6.6.7.4.9.6.0.w.Q.Q.W.W.W.W.W.W.W.W.Q.7.w.Q.!.w.w.W.Q.W.w.Q.Q.+XW.W.Q.w.W.W.Q.Q.tXeXeXQ.Q.Q.w.4.;.-.+.O.+.+.=.4.9.w.5.W.eXeXeXQ.9.4.5.7.w.Q.tXeXeXeX+XeXiXfXfXfXiXyXyXyXeX+XyX+XW.w.w.w.9.7.6.4.4.4.4.4.4.4.<.;.-.=.=.*.O.X. . . . .} n 0 5 ; 5 3 8 8 w w n m D | $.F 1.&.%.&.&.&.v.A.S.S.G.~.~.^.^.^.>X>X>X6X6X6X6X6X6X6X6X^././././././././././././././././././././././././.",
"= = * * : : > > > > > > > > > 1 1 1 t t t t t t y y u u u u y i i i i i i f f f f f f f z z C C Z H H H H K T T T T W W W W $.$.$.$.$.$.$.$.$.$.$.$.$.$.$.$.$.$.$.%.$.$.%.%.%.%.%.%.%.&.>.&.! &.&.h.v.n.A.S.n.S.S.S.S.S.L.L.L.L.K.K.~.~././././././././.~.K.S.z.h.R R R R N N N N N N N R R R R #.h.#.h.h.h.h.h.h.h.h.h.h.h.h.h.h.h.h.h.j.j.h.h.h.h.j.z.z.S.S.S.S.S.S.z.z.z.z.z.j.j.j.z.z.k.S.S.n.n.n.j.j.j.j.j.n.S.S.S.~.>X>X>X>X:XI.:.@.b % - @ - - ; ; ; 7 eXGXHXKXLXJXGXkXeXw.w.+XeXtXeXQ.W.9.6.Q.9.9.W.W.w.W.Q.W.-.=.;.<.7.w.W.7.eXtX$ [ 9.4.w.9.6.w.6.0.w.Q.Q.Q.W.W.W.W.W.W.W.Q.7.w.W.eXw.w.Q.Q.W.W.+Xw.eXw.W.+XW.W.W.W.W.eX+XQ.Q.Q.W.6.4.-.*.O.O.=.=.<.7.w.w.w.Q.eXtXW.w.7.4.5.9.Q.eXyXyXyXiXiXyXtXeXw.9.6.4.4.6.7.w.W.w.W.W.W.w.9.9.w.0.6.4.4.4.<.<.<.;.=.=.*.O.O... . . . .} m c 8 3 ; ; 3 6 7 0 w c b b Z D 1.>.&.&.&.&.v.A.S.S.I.~.^.^.^./.>X>X6X6X6X6X6X6X6X6X6X(././././././././././././././././././././././././.",
"= = = = : : > > > > > > > > > 1 1 1 t t t t t t y y u u u u y i i i i i i f f f f f f f z z C C C H H H H K T T T T W W W W $.$.$.$.$.$.$.$.$.$.$.$.$.$.$.$.$.$.%.$.%.%.%.%.%.%.%.%.%.%.&.>.! ! ! &.h.v.v.v.v.v.B.S.S.S.S.K.K.K.K.K.K.K.~.~.~././././././.K.S.S.j.h.R R R R N N N N N M N N N N R R R R R R R h.h.h.h.h.h.h.h.h.h.h.h.h.j.h.h.h.h.h.j.z.S.S.S.S.K.S.S.S.z.z.z.z.j.j.j.j.j.n.S.S.n.k.j.j.j.j.j.j.j.n.S.S.~.=X>X>X>X>XdXI.@.8 % + - @ & % ; ; % w.CXHXKXKXKXHXlXtX7.6.w.Q.eXeXeX+XW.w.w.7.7.w.Q.W.w.W.9.4.<.7.9.w.Q.tXw.W.6 } Q.Q.=.Q.w.7.W.9.0.w.Q.Q.Q.W.W.W.W.W.W.W.Q.7.W.W.eXW.W.Q.Q.W.W.+Xw.tX7.Q.eXW.Q.+X6.Q.eXW.eXQ.w.6.;.<.-.O.O.O.=.-.4.9.w.w.Q.eXtXeXW.W.w.7.W.eXtXyXfXiXeXQ.7.-.[ 0 3 3 4 ; ; 6 w v O.<.9.Q.W.w.w.7.6.6.4.4.;.<.<.<.<.;.=.+.O.O.X. . . . . . .[ n 0 5 5 ; ; 5 6 6 7 8 8 h j D 2.>.>.&.&.&.A.A.S.S.E.~.^.^.^./.>X>X6X6X6X6X6X6X6X6X6X(././././././././././././././././././././././././.",
"= = * * : : > > > > > > > > > 1 1 1 t t t t u t y u u u u u y i i i i i i d f f f f f f g g C C C H H H H K T T T T W W W W $.$.$.$.$.$.$.$.$.$.$.$.$.$.$.$.$.$.$.$.$.$.%.%.%.%.%.%.%.%.%.>.~ ~ &.! ! ^ ( p.v.c.c.c.n.n.S.S.S.K.K.K.K.K.K.~.~.~.^././.^.^.~.K.S.z.j.h.g.t.R R N N N N M M M M N N N R R R R R R h.h.h.h.h.h.h.h.h.h.h.h.h.h.h.h.h.j.z.S.S.S.S.S.S.S.S.S.z.z.j.z.j.j.j.j.j.n.n.n.j.j.j.j.j.j.j.j.j.j.n.S.K./.=X>X>X>XI.:.D < - O - + $ % % % o 6.CXHXKXKXKXKXCXyX6.4.4.6.w.W.+XeXeXeX6.w.w.6.4.7.w.W.w.W.Q.Q.W.7.7.W.e.} ; 7.eX<.tXW.W.9.Q.9.9.w.Q.Q.W.W.W.W.W.!.Q.W.W.7.w.W.eXQ.W.Q.Q.W.W.+Xw.yX6.Q.+XQ.Q.+X7.eXtXQ.eXQ.w.4.*.-.-.*.O.O.+.-.7.w.w.W.eXtXtXQ.Q.eXeXQ.yXiXfXfXQ.6.X.n $ O X X X X X X o O $ & - 6 c } =.4.w.9.w.w.7.7.4.4.4.4.<.;.=.+.O.O. . . . . . . .} m w 7 5 3 3 3 6 6 3 5 5 < < k 1.>.>.>.>.A.A.A.S.S.G.~.^.^.^.>X>X>X6X6X6X6X6X6X6X6X/.(.(./././././././././././././././././././././././.",
"= = * * = = = = = = > > > > > > 1 1 1 1 1 1 t t t t u t u u u y i i i i i a f f f f f f g g C C Z Z H H H K T T T T W W W W $.W $.$.$.$.$.$.$.$.$.$.$.$.$.$.$.$.$.$.$.$.%.%.%.%.%.%.%.%.%.&.&.&.&.&.>.! ( ( p.p.c.c.c.M.n.S.G.S.S.S.K.K.K.K.K.~.~.^.^.~.~.~.S.S.j.j.h.h.h.g.t.R R N N N N N N N N N N N N N R R R &.h.h.h.h.h.h.h.h.h.h.h.h.h.h.h.j.z.S.S.S.S.S.S.S.S.S.S.z.z.z.z.z.z.z.j.z.z.z.S.z.j.j.j.h.h.j.j.j.j.k.K./.=X=X=X~.I.:.b 6 + + O + + $ $ $ O 5.lXHXKXKXKXHXGXfX7.O.-.;.4.7.w.Q.eXtX+XW.Q.Q.Q.9.6.7.W.W.+XQ.9.eX6.w.<.3 7.9.7.Q.eX+XQ.+X9.w.+XW.W.W.Q.Q.W.W.W.!.Q.W.w.7.w.W.Q.W.W.Q.Q.w.w.W.w.Q.W.w.W.W.Q.W.w.eXtX+XQ.w.6.;.O.+.+.O.+.O.+.-.w.w.eXiXiXeXQ.eXw.tXiXyXyXtXeX7.[ 3 X     + 9 A [ [ [ { { { A { { { n n {  .-.5.w.7.7.4.4.4.5.4.4.;.=.=.+.O. . . . .} }  .} m c w 7 3 4 4 6 6 3 3 ; : : j 1.1.>.>.>.A.A.D.S.S.G.~.^.^.^.>X>X>X6X6X6X6X6X6X6X(././././././././././././././././././././././././././.",
"= = = * = = = = = = > > > > > > 1 1 t t 1 1 t t t t t t u u u y i i i i i f f f f f f f g g C C Z H H H H K T T T T W W W W W W $.$.$.$.$.$.$.$.$.$.$.$.$.$.$.$.$.$.$.$.%.%.%.%.%.%.%.>.%.%.&.&.&.&.&.( ( ( ( p.s.c.c.c.n.B.S.S.G.S.S.K.K.K.K.K.~.~.~.~.~.K.S.S.j.h.h.h.h.g.t.R R R N N N N N M N N N N N N N R R R &.&.y.y.t.t.h.h.h.h.h.h.h.h.h.j.z.S.S.S.S.S.S.S.S.S.S.z.S.z.S.z.z.j.j.j.j.j.j.z.j.j.h.h.h.h.h.h.j.j.n././.=X=X~.A.@.j < + + O + + $ $ $ O 5.lXHXKXKXKXJXGXfXw.+.O.*.-.;.4.7.w.Q.eX+XW.Q.Q.w.7.w.Q.0.eX0.4.tX0.Q.; O.Q.W.w.+X7.tXW.+X9.W.W.Q.W.W.Q.+X+XQ.Q.Q.Q.W.w.7.w.W.w.w.w.w.W.w.w.W.w.9.9.9.w.W.W.W.Q.eXtXeXw.6.<.=.O.O.O. ...+.=.+.9.eXyXeXyXeX+XtXiXfXfXiXw.5. .5 X o 4 w =.4.9.6.5.5.5.5.4.<.<.<.<.<.-.=.=.+.+.-.4.4.6.6.6.5.5.4.<.;.=.=.*.O. . . . .} }  .} m n c w 7 6 5 6 6 5 5 < : : j 1.1.>.>.v.A.A.D.S.S.G.~.^.^.>X^.>X>X>X6X>X6X>X6X/./.^.^.^./././././././././././././././././././././././.",
"= = * * = = = = = = > > > > > > 1 1 t t 1 1 t t t t t u u u y y i i i i i f f f f f f f g g C C Z H H H H K T T T T W W W W W W W W $.$.$.$.$.$.$.$.$.$.$.$.$.$.$.$.$.%.%.%.%.%.%.%.>.>.%.%.%.&.&.&.&.! ( ( ( p.v.c.c.c.c.M.B.S.G.S.S.K.K.K.K.K.K.L.~.K.K.S.S.S.j.j.h.h.h.h.t.t.R R R R L L N N N N N M N N N N N R R R R R R R y.h.h.h.h.h.h.h.h.j.z.S.S.S.S.S.S.S.S.S.S.S.S.S.S.S.S.z.j.j.j.j.j.j.j.j.h.h.h.h.h.y.h.h.S.~.~./.~.S.:.b 8 ; + O + + + $ $ $ O 5.lXHXKXKXKXHXGXjXw.-.=.+.O.=.-.4.6.7.W.eX+XW.W.w.w.+XQ.Q.Q.7.eXW.Q.S 8 tXQ.0.W.+X6.+Xw.Q.w.Q.9.+XQ.w.+X+X+XQ.Q.Q.Q.W.w.7.w.W.Q.W.W.Q.+XQ.Q.eX+XW.Q.Q.W.W.W.W.+XeXeXW.7.<.O.+.O.........-.4.4.W.iXiX+XtX+XeXyXtXtXeXw.[ w % o 3 n ;.9.5.9.e.Q.W.e.e.e.w.w.w.w.w.w.9.9.9.7.5.5.6.7.9.w.9.7.4.<.<.;.=.=.*.O. . . . .} { [ [ [ S n c w 7 5 6 6 5 5 3 : : j >.1.>.>.v.A.A.D.S.S.E.~.~.^.>X^.>X/.>X>X>X^.^.^.^./././.^././././././.^././././././././././././././././.",
"* * * * = = = = = = > > > > > > 1 1 1 1 1 1 t t t t t t u u u i i i i i i f f f f f f f g g z C Z H H H H K T T T W W W W W W W W W $.$.$.$.$.$.$.$.$.$.$.$.$.$.$.$.$.%.%.%.%.%.%.%.>.%.&.&.>.&.&.&.&.! ! ( ( p.s.s.c.c.c.c.b.B.B.V.G.G.G.L.K.K.K.K.L.K.K.S.S.S.j.j.h.h.h.h.y.t.t.R R R L L R L N N N N N M M M N N R R R R R R t.h.h.h.h.h.g.h.h.j.z.z.S.S.S.S.S.S.S.S.S.S.S.S.S.S.S.z.j.j.j.j.h.h.h.h.y.t.R R R R h.h.S.~.~.G.S.h.Y j < : + + + O + $ $ $ O 4.lXHXKXKXKXHXGXjXW.;.=.=.*.*.=.-.;.4.5.w.eX+XW.w.Q.tXw.tX5.w.+X0.5.; W.+X0.Q.W.Q.W.6.7.Q.w.eX7.Q.Q.W.W.W.Q.W.W.Q.Q.W.w.9.w.Q.+XQ.Q.Q.W.9.9.w.W.w.W.W.W.W.W.W.W.Q.w.6.<.=.O.O..... ...;.4.6.W.eXpXyXrXeXQ.eXiX9.5.O.S 5 o o 5 +.7.W.W.eXeXrXtXtXtXeXeX+X+X+X+X+X+Xe.e.e.Q.+XQ.+XQ.W.w.w.7.4.<.;.;.=.=.*.O. . . . .} [ [ [ [ [ S n w 0 9 4 6 6 3 5 < : j 1.>.>.>.v.A.A.M.D.S.E.~.~.^.^.^././.>X>X>X^.^./././.^.^././././././.^.^././././././././././././././././.",
"= * * * = = = = = = > > > > = > 1 1 1 1 1 1 t t t t t t u u u i i i i i i f f f f f f f g g z H H H H H H K T T T W W W W W W W W W $.$.$.$.$.$.$.$.$.$.$.$.$.%.$.$.%.%.%.%.%.%.%.%.%.%.~ Q >.~ &.&.&.! ^ ( ( p.a.s.s.c.s.c.b.b.B.V.Z.Z.G.G.G.S.S.K.S.S.S.S.S.S.j.j.h.h.h.h.h.g.y.t.t.R R R R R R R L L N N N M N N L R R R R R R R R R g.g.h.h.h.h.j.z.z.S.S.S.S.S.S.S.S.S.S.S.S.S.z.l.l.j.j.h.h.h.h.h.R R R R R R &.h.j.S.S.E.S.&.D 8 ; $ O O + + + + $ O $ 0.GXKXKXKXKXHXGXjXQ.<.=.=.*.+.*.=.=.=.4.5.7.W.w.W.Q.Q.Q.tX0.W.9.iXw =.eX4.Q.7.9.w.W.Q.7.Q.w.W.7.+XQ.w.W.W.W.W.w.W.Q.W.W.w.w.+XeXQ.W.W.W.w.w.W.W.w.W.W.W.W.W.W.6.6.7.7.5.+... . .{  .+.7.w.eXiXyXeXeXyXW.w.7.5...A 7 &   $ 0 +.6.Q.eXQ.rXrXeX+Xe.e.w.9.9.9.5.5.5.5.4.<.-.<.5.5.5.6.5.5.4.<.;.-.=.=.=.=.*.O... . . .} [ S S S S m n v v 9 6 7 6 6 5 5 : D 1.>.>.>.v.A.A.A.S.G.G.~.~.^.^.^./.^.>X^.^.^.^././././.^./././.^.^.^.~.~.^.^./././././.P.P.P././././././.",
"= = * * = = * = = = > > > > > > 1 1 1 1 1 1 t t t t t t u u u i i i i i i f f f f f f f g g z H H H H H H T Y T T T W W W W W W W W $.$.$.$.$.$.$.$.$.$.$.$.$.%.$.%.%.%.%.%.%.%.%.%.>.( ( ( ~ ~ &.&.&.! ^ ( ( p.a.s.s.s.s.s.c.b.B.V.Z.Z.Z.Z.V.S.S.S.S.S.S.S.S.n.j.h.h.h.h.h.h.h.h.h.h.h.y.t.R R R R R R R R R N L N N N N R R R R R R R R R g.h.h.h.h.j.j.z.z.S.S.S.S.S.S.S.S.S.S.z.z.z.l.j.j.h.h.g.g.R R R R R R R R h.j.S.S.I.l.#.b 6 ; O O + O O O O O O % W.GXHXKXKXKXHXGXkXQ.<.=.=.+.*.*.=.=.=.-.;.4.5.6.w.Q.eX+XeXQ.Q.w.X.8 W.W.9.+X6.+XQ.W.w.9.W.7.Q.9.+XW.w.W.W.W.W.w.w.W.W.W.w.w.Q.Q.W.W.W.Q.Q.Q.Q.W.W.Q.Q.W.w.w.w.<.<.-.=.+... .{  . .+.-.w.Q.tXiXyX+XQ.Q.w.<. .S n 3 o   $ v ;.w.Q.yXaXiXrXrXeX+Xw.9.<.+. .{ A A 9 q 6 6 6 6 7 7 q w A [ {  .+.=.=.=.=.=.O.O. . . . .} [ S m m n n n n n w 9 7 8 7 6 < < D 2.>.>.>.v.A.A.A.D.S.G.~.~.^.^.^./././.^.^.^./././.^.K.~.~.K.K.K.K.K.K.K.K.~.^.^.^.~.~.P.P.^.P.^.^./././.",
"= = = = = = * * = = > > > > > > 1 1 1 1 1 1 t t t t t t u u u i i i i i i f f f f f f f g g z H H H H H H T Y T T T W W W W W W W W $.$.$.$.$.$.$.$.$.$.$.$.$.%.$.%.%.%.%.%.%.%.%.%.>.Q ( ( ~ ~ >.&.&.! ! ( ( p.a.s.s.s.s.s.c.b.b.V.Z.Z.Z.Z.Z.V.S.S.S.S.S.S.S.S.j.h.h.h.h.h.h.h.j.h.j.h.h.h.h.h.g.g.R R R R R R R R R R N N L L L L N L L R R R R t.g.h.h.h.z.S.S.S.S.S.S.S.S.S.S.z.z.z.j.h.h.h.t.R R R R R R R R R R h.l.S.S.S.h.@.j < $ o O O O O O O O O ; eXGXHXKXKXJXHXGXkXQ.4.=.*.*.*.*.=.=.=.-.-.-.;.-.5.9.Q.+XQ.+X+XiX;  .7.9.e.Q.w.Q.W.w.0.7.w.9.+Xw.Q.w.W.W.W.W.W.w.w.W.W.w.7.w.W.W.W.W.W.w.w.w.9.7.6.9.9.0.9.9.9.-.=.X... . .{ { O.=.4.6.Q.eXeXeXQ.e.7.4.o.[ q 3 4 + + 3 -.7.Q.eXeXtXeXw.eXeX+XQ.5.<.o.{ A w w 9 6 6 - - & & & O o + & 4 6 w A  ...+.=.+.O. . . . . .} [ S m m n n n n A v 9 7 7 0 6 5 < D 2.2.>.>.v.A.A.A.D.S.G.E.~.^.^.^././././.^.^././.^.K.K.K.K.K.K.K.K.K.K.K.K.K.K.K.K.K.K.K.K.P.P.P.P.L.L.L.",
"= = = = = = * * = = > > > > > > 1 1 t t t t t t t t t t u u u y i i i i i f f f f f f f g g C H H H H H H T T T T T W W W W W W W $.$.$.$.$.$.$.$.$.$.$.$.$.$.%.$.%.%.%.%.%.%.%.%.%.%.%.Q Q >.>.>.&.>.! ( ( ( p.a.a.a.s.s.s.s.f.b.N.V.V.Z.Z.V.V.V.V.S.S.S.S.S.j.j.j.h.h.h.h.h.h.j.j.j.j.j.h.h.h.h.h.h.h.h.&.&.R R R R R R R R R R R L N N N R R R R R g.g.h.j.z.S.S.S.S.S.S.S.S.S.z.z.z.j.h.h.g.R R R R R R R R R R ! &.l.S.S.l.#.N 8 ; + o O + $ O O O O O 5 iXGXGXKXKXKXJXGXkX+X4.=.*.+.+.*.=.=.=.-.-.-.-.=.;.4.7.Q.W.tXQ.6.} W.0.9.9.w.eX4.6.w.w.7.W.w.+Xw.w.w.Q.w.w.W.W.w.w.W.W.w.9.w.w.w.w.Q.!.Q.+X+XW.9.7.w.9.9.7.0.7.<.=.O. . . .{ { ;.5.7.e.rXrX+Xw.7.7.;. .6 3 - $ X o w ;.tXeXeX+XeXyXiXrXeX+XQ.e.6.5.5.<.+.X. . .{ A w w 7 4 4 @ O o o O $ 4 7 w n { ..O. . .{ {  . .} [ S m m n n n n b A w q 7 0 8 6 < F 1.>.>.>.v.A.A.A.D.D.G.E.~.^.^.^.^.^./.^.^./././.~.K.K.x.x.x.x.x.x.x.x.K.K.K.K.K.K.K.K.K.K.^.~.~.L.L.L.P.",
"= = = = = = * * = = : : : > = > > 1 1 t t t t t y y y y u u y y i i i i i f f f f f f f g g C H H H H H H K T T T T W W W W $.W $.$.$.$.$.$.$.$.$.$.$.$.$.$.$.$.%.%.%.%.%.%.%.%.%.%.%.%.Q Q >.>.>.&.( ( ! ( p.p.a.a.a.a.s.s.s.b.N.N.V.V.V.V.V.V.Z.Z.G.S.S.S.S.S.j.j.h.h.j.h.j.j.j.j.j.j.j.j.j.h.h.h.h.h.h.h.&.&.&.R R R R R R R R R N N N N N N R R R R t.g.h.j.z.S.S.S.S.S.S.S.S.S.z.z.j.j.h.g.t.R R R R R R R R R ! &.l.S.S.l.#.x ; @ O O + + O O O O $ O b fXGXGXKXKXKXHXGXkXeX4.*.+.O.O.+.*.=.=.-.-.-.-.-.-.-.-.7.w.w.w.w.w.Q.+XW.9.7.7.9.w.w.w.9.w.w.W.w.w.W.7.9.w.w.w.w.w.W.W.W.W.W.W.w.w.Q.!.Q.+X+XQ.w.9.7.7.5.4.-.-.=.O. . .O. . .+.4.7.!.yXeXQ.9.5.+. .v 7 3 4 $   & [ 9.eXtXtXyXtXrXeXQ.w.w.e.e.Q.e.0.7.9.9.5.5.9.+X+XQ.Q.e.w.7.7.O.[ 7 & & $ & 4 6 7 v [  ... .{ S [ [ [ ..m v S n n n b b v w w w 0 8 < F 2.>.>.>.A.A.A.A.D.F.E.E.~.^.^.^.^./.^././././.~.K.K.x.x.x.x.x.x.k.k.x.x.K.K.K.K.K.K.K.K.K.~.~.^.~.L.L.L.",
"* * = = = = = = = = : : : > = > > 1 1 t t t t t y y y y u u y y i i i i i f f f f f f f g g C H C H H H H K T T T T W W W W W W $.$.$.$.$.$.$.$.$.$.$.$.$.$.$.$.%.%.%.%.%.%.%.%.%.%.%.%.Q Q >.>.&.&.( ( ! ( p.p.a.a.s.s.s.s.s.b.N.N.V.V.V.V.V.V.Z.Z.V.S.S.S.S.S.l.j.j.j.j.j.j.j.h.h.h.h.j.j.j.h.h.h.h.h.h.h.h.&.R R R R R R R R R R L N N N N N N N R t.t.g.h.j.z.S.S.S.S.S.S.S.S.S.z.z.z.j.h.h.g.t.t.t.t.t.R R R R &.h.l.S.A.l.@.x % O O O O + O O O O $ O S fXGXLXKXKXKXKXGXkXeX4.*.+.O.O.+.*.=.=.-.-.-.-.-.-.-.-.<.6.9.9.w.W.+XeXeXQ.W.0.7.7.9.9.6.6.9.w.w.w.Q.7.W.w.9.7.7.9.W.Q.Q.Q.Q.W.W.W.Q.Q.Q.Q.Q.W.w.7.6.4.=.*.O.X. . .X.X. . .+.4.6.e.eXrXQ.9.4.=. .e 6 & & o X 3 =.+XiXyXyXrX+XQ.7.4.-.=.-.<.5.5.7.9.Q.eXrXeXeXyXyXrX+XQ.rXeX+XQ.Q.9.4.+...e - $ 3 6 7 w [  ... .S S [ [ } S n S n n n b b v w w c c 0 8 F 8.>.>.>.A.A.A.A.D.F.E.E.~.^.^.^.^.^.^.^./././.K.K.K.x.x.x.x.x.k.k.k.k.x.x.x.K.K.K.K.K.K.K.K.K.K.K.K.K.K.",
"* * * * = = = = = = : : : : = > > 1 1 t 1 t t t t t y y u u y y y y i i i f f f f f f f g g C H C H H H H K T T T T W W W W W W $.$.$.$.$.$.$.$.$.$.$.$.$.$.$.$.%.%.%.%.%.%.%.%.%.%.%.%.Q Q >.&.&.&.! ( ( ( p.p.a.a.a.s.s.f.f.b.N.N.V.V.V.V.V.V.Z.Z.Z.G.G.S.S.S.l.j.j.j.j.h.j.j.h.h.h.j.j.j.j.h.h.h.h.h.h.h.&.R R R R R R R R R R R L N N N N N N N R t.t.g.h.j.z.S.S.S.S.S.S.S.S.S.S.z.l.j.j.h.h.g.g.g.g.g.R R R R h.j.S.S.A.:.N h O O O O + O + O O O O O *.jXGXPXKXKXKXJXGXlXeX4.*.+.O.O.+.*.=.=.=.=.-.-.-.-.-.-.=.=.4.6.7.9.W.+XeXeXtX+Xw.9.7.6.6.6.9.w.w.w.Q.7.W.w.9.7.7.9.W.Q.Q.Q.Q.Q.W.W.Q.Q.Q.W.W.w.7.6.5.<.=.O... . .X.O.O.O.-.4.6.e.eXqXw.7.5.=. .w 6 @ o $ O 6 =.tXfXiXeXQ.w.5.4.+.....+.S ..4.9.+XeXyXiXQ.w.w.Q.Q.e.e.w.9.7.5.4.<.-.=.+.5.O.{ w 7 6 3 7 w [  ...[ S S [ n [ [ [ n n n b b v w c n b b j F 8.>.>.>.v.A.A.A.D.F.E.E.~.^.^.^.~.^.^.^.~.^.K.K.K.x.x.k.k.k.k.k.k.g.k.k.x.x.x.x.x.K.K.K.K.K.K.K.K.K.K.K.",
"* * = = = * * * = = : : : : = > > 1 1 1 1 t y y t t y y u u y y i i i i d f f f f f f f g z z H C H H H H K Y T T T W W W W W $.$.$.$.$.$.$.$.$.$.$.$.$.$.$.$.$.%.%.%.%.%.%.%.%.%.%.%.%.Q Q >.&.&.&.! ( ( ( ( p.a.a.a.s.s.f.f.b.N.B.V.V.V.V.V.V.Z.Z.J.G.S.S.S.S.S.l.j.j.j.j.j.j.h.h.j.j.j.h.h.h.h.h.h.h.h.&.R R R R R R R R R R R R N N N N N M M M N R g.h.h.j.z.z.S.S.S.S.S.S.S.S.S.z.z.z.j.h.h.h.h.h.h.h.g.R R R h.j.S.S.A.#.x = O + + + O O O O O O O O <.CXHXHXKXKXKXHXGXlXtX4.+.+.O.O.*.*.=.=.=.=.-.-.-.-.-.-.=.O.=.-.<.4.7.w.Q.+XtXeX+XW.w.w.9.9.w.W.w.9.Q.7.9.w.w.w.w.w.!.W.W.Q.Q.!.W.W.Q.W.w.w.W.W.9.6.4.;.-.*.O.O.O.O.O.O.4.5.7.9.eXeXw.5.4.=. .e 4 - O . o w 5.yXiXeXw.W.5.-.O. ...+.+.-.7.w.W.+X+X+XQ.e.5.4.4.5.4.5.9.e.9.7.5.4.[ { }  .{ O.<.=...A q 7 7 w [  .} [ S [ w [  .[ n n n b A b w v m m b b G D.1.>.>.A.A.A.A.D.F.I.E.~.~.^.^.~.~.^.~.~.K.K.K.x.x.k.k.k.k.g.g.g.g.g.k.x.x.x.x.x.x.K.K.K.K.K.K.K.K.K.K.",
"= = = = * * * * = = : : : : = > > 1 1 1 1 t t y t t y t u u y y i i i i d f f f f f f f g z z H H H H H H K T T T T W W W W W W $.$.$.$.$.$.$.$.$.$.$.$.$.$.$.$.%.%.%.%.%.%.%.%.%.%.%.%.Q Q >.&.&.&.( ( ( ( ( p.a.a.a.s.f.f.f.N.N.B.C.V.V.V.V.V.Z.Z.Z.Z.G.S.S.S.S.S.j.j.j.j.j.j.j.h.j.j.j.h.h.h.h.h.&.R &.&.R #.#.R R R R R N N N N N N N N N M M M N R g.h.j.j.z.z.z.z.S.S.S.I.S.S.S.S.z.z.j.h.h.h.h.h.h.h.g.g.t.t.g.j.S.S.l.Y h % O + + O O O O O $ ; O 5 W.GXHXLXKXKXKXHXHXlXtX;.*.O.+.*.*.=.=.=.-.-.-.-.-.-.-.-.-.-.-.-.-.;.<.4.7.w.+XeXtXtXeXW.w.w.w.w.w.7.W.w.w.w.W.W.W.W.+XtXW.W.Q.Q.W.W.W.W.W.W.W.W.w.7.4.4.;.-.+.O.O.=.<.6.;.9.Q.Q.eXe.6.<.o.{ e 6 4 + o O e 5.eXpXrX0.4.5.5.-.O. .+.5.W.Q.eXQ.w.9.7.5.4.-.=.+.+.+.=.;.4.5.w.w.w.w.4. .{ [ { [ {  .+.O...S w w 7 w  . . .[ w v m n n n n S S b v v n b b j F 8.1.>.>.A.A.A.D.F.I.E.~.~.:X:X:X^.~.~.~.~.K.K.K.x.x.k.g.g.g.g.g.g.g.g.k.x.x.x.x.x.x.K.K.K.K.K.x.x.K.K.K.",
"= = = = = = * = = = : : : : = > > 1 1 1 1 t t t t t t t u u y y i i i i d f f f f f f f g z z H H H H H H K T T T T T W W W $.W $.$.$.$.$.$.$.$.$.$.$.$.$.$.$.$.%.%.%.%.%.%.%.%.%.%.%.%.Q Q ~ ~ &.&.>.( ( ( ( p.a.a.a.s.s.f.f.N.N.B.C.V.V.V.V.V.V.Z.Z.Z.J.L.L.L.G.S.S.S.j.j.j.j.j.j.j.j.j.j.j.j.h.h.h.&.h.g.#.&.&.&.&.R R R R N R R N N N N N N N N N R g.h.j.j.z.z.z.z.S.S.S.S.S.S.S.S.z.z.j.j.h.h.h.h.h.g.t.t.t.t.g.j.l.S.&.x h % O + + O O O O o X X = ;.fXGXHXLXKXKXKXHXHXlXeX-.O.O.+.+.*.=.=.=.-.-.-.-.-.-.-.-.-.-.-.-.-.-.;.;.-.5.w.Q.eXeXtXeX+XQ.w.w.7.6.W.e.Q.Q.Q.Q.Q.Q.Q.Q.W.W.!.!.Q.Q.Q.Q.Q.Q.W.w.7.7.7.7.=.*.O.O.=.4.9.w.7.Q.eXqXe.6.<.O.[ w 6 4 O O & 7 7.rXrXe.7.<.-.5.=.4.9.e.eXeX+XQ.7.5.-.+.+.+.+.+.{ { {  . .O.O.=.=.=.;.<.5.=.A e n A n [ {  ...O. .S w w n  . .{ [ w 7 m [ S b v v v c w c 0 8 8 D 2.>.>.>.A.A.D.F.E.E.E.~.^.:X:X:X:X:X~.~.~.~.K.K.K.x.k.g.g.u.g.g.g.g.g.g.k.x.x.x.x.x.x.x.x.x.x.x.x.x.x.x.",
"= = = = = = = = = = : : : : = > > 1 1 1 1 t t t t t t t u u u u i i i i d f f f f f f f g z z H H H H H H K T T T T T W W W W W $.$.$.$.$.$.$.$.$.$.$.$.$.$.$.$.%.%.%.%.%.%.%.%.%.%.&.&.Q Q ~ ~ &.&.>.( ( ( ( p.a.a.a.s.s.f.f.N.N.B.B.B.V.V.V.V.Z.Z.Z.Z.J.L.L.L.L.S.S.S.n.n.n.j.j.j.j.j.j.j.j.j.j.h.h.h.h.h.h.h.h.h.h.#.&.R R R R R R R R R R N N N N R g.h.j.z.z.z.z.z.S.S.S.S.S.S.S.S.S.z.z.z.j.h.h.&.&.g.t.t.t.t.g.g.h.h.@.x : O O + + O O O O o X 3 ;.fXGXJXJXLXKXKXKXHXGXlX+X=.O.O.+.+.*.=.=.=.-.-.-.-.-.-.-.-.-.-.-.-.-.-.-.-.=.;.6.w.w.W.Q.+XeXeX+XW.w.6.e.W.Q.Q.Q.Q.Q.W.W.W.W.W.Q.+XeX+X+X+XQ.Q.W.w.7.7.7.7.-.-.;.4.4.9.W.W.w.Q.eXe.5.<.O._ q 3 & @ o & n +.rXyXe.5.5.4.5.w.w.Q.eXrXiXQ.5.=.-.+. .{ { A w w w w w w n A { {  .O.=.<.7.7.<. .v v n v v n S {  . . .S w v [ { [ v w v S S b v c v 0 0 7 8 6 < Z 1.1.A.A.A.A.D.G.E.E.~.:X:X:X>X>X>X>X:X^.^.^./.K.K.x.k.g.g.u.g.g.g.g.g.g.g.k.k.x.x.x.x.x.x.x.x.x.x.x.x.x.",
"= = = = = = = = = = : : : : = > > 1 1 t 1 1 t t t t t t u u u u i i i i f f f f f f f g g g z C H H H H H K T T T T T W W W $.$.$.$.$.$.$.$.$.$.$.$.$.$.$.$.$.$.%.%.%.%.%.%.%.%.%.%.( ( ( ~ &.&.&.&.&.! ( ( ( p.a.a.a.s.s.f.f.f.N.B.B.B.V.V.V.V.Z.Z.V.Z.J.Z.G.G.G.G.S.G.G.S.S.A.n.j.j.j.j.l.A.l.l.l.l.j.h.j.l.h.h.h.h.h.h.#.&.&.h.h.#.h.#.#.R R R R R R t.g.h.z.j.z.z.z.z.S.S.S.S.S.S.S.S.z.z.z.j.h.h.&.&.g.t.g.g.g.g.h.h.&.M h = O O O O O O O O o 8 -.kXGXHXLXKXKXKXKXKXHXGXkXQ.=.O.O.+.+.*.=.=.=.=.=.-.-.-.-.-.-.-.-.-.-.=.=.=.-.;.<.4.4.5.6.w.w.W.Q.eX+XQ.9.W.w.w.W.W.w.w.w.Q.Q.Q.W.Q.+X+XeXeX!.W.W.Q.Q.W.w.6.5.4.6.7.w.w.w.W.w.w.Q.Q.w.<.O.n 7 - @ O o O 7 +.eXeXe.9.9.w.9.w.eXaXpX+Xe.-.+.+...{ n w q q w q q q q 7 8 7 7 q w w n {  .-.<.4.+.{ w w e q w w v m {  . .v 0 w S v S S w w b S S v 0 0 7 6 6 < < Z 1.>.A.A.A.D.Y.E.E.*X:X:X:X>X>X>X>X>X>X>X>X^././.K.x.x.g.g.u.g.g.g.g.g.g.g.k.k.k.k.x.x.x.x.z.k.x.x.x.z.x.",
"= = = = = = = = = = = = > : = > > 1 1 t 1 1 t t t t t t t u y y y i i i f f f f f f f f g g z C H H H H H K T T T T T Y W W $.$.W W $.$.$.$.$.$.$.$.$.$.$.$.$.$.%.%.%.%.%.%.%.%.%.%.( ( &.&.&.&.&.&.&.! ! ^ ( p.a.a.a.a.s.s.s.f.N.N.B.B.B.V.V.V.Z.Z.Z.Z.Z.Z.Z.Z.Z.Z.G.G.G.G.S.S.S.n.n.n.n.n.l.l.l.l.l.l.l.l.l.j.l.l.j.h.h.h.h.h.h.h.h.h.h.h.g.#.R R R t.t.g.h.z.z.z.z.z.z.z.S.S.S.S.S.S.S.S.z.z.l.h.h.&.g.g.g.g.g.g.j.h.#.#.b = X + O O O O X o O 4 w.fXCXHXKXKXKXKXKXJXJXHXGXjXW.;.+.+.+.+.*.*.=.=.=.=.=.=.-.-.-.-.-.-.-.=.=.=.=.=.-.-.-.;.;.4.5.6.9.w.Q.Q.Q.Q.Q.w.9.W.Q.W.W.Q.Q.+XQ.W.+XQ.!.eXeX!.W.W.Q.Q.W.w.7.6.4.6.7.7.w.Q.W.w.Q.Q.9.4.+.{ w 6 + 4 4 . 4 5.aXrXQ.w.0.Q.+XeXyXaXrXQ.7.+. .{ A n e w 7 6 q w w w w w w w w 7 6 8 & 4 7 w {  .-.<.+. .w 3 w w q 7 w v [ } } n w b v } [ 8 6 v S S v 0 0 6 3 3 < < Z 8.>.A.A.D.D.E.OX:X:X:X:X>X>X>X>X>X>X>X>X>X>X^.^.~.K.x.k.g.g.g.g.g.g.u.g.g.g.k.k.k.k.k.k.k.k.k.k.k.z.z.k.",
"= = = = * * * * = = = = > > = > > 1 1 t 1 1 t t t t t t t y y y y i i i f f f f f f f f g g g z C H H H H K K T T T T T W W $.$.$.W $.$.$.$.$.$.$.$.$.$.$.$.$.$.%.%.%.%.%.%.%.%.%.%.%.Q &.&.&.&.&.&.&.! ! ^ ( p.a.a.a.a.s.s.f.f.f.N.B.B.B.V.V.V.Z.Z.Z.Z.Z.Z.Z.Z.Z.Z.Z.L.L.L.G.S.S.S.S.S.n.A.A.S.l.S.A.A.l.l.l.l.l.l.l.l.h.h.h.h.h.h.h.h.h.h.h.h.#.R R g.g.h.h.j.j.z.z.z.z.z.z.S.S.S.S.S.S.S.z.z.z.h.h.h.h.g.g.g.g.g.z.h.Y x 1 = + O o o o o o o 7 6.aXkXGXHXJXJXJXJXJXJXHXHXGXjXW.;.+.+.+.+.*.*.=.=.=.=.=.=.-.-.-.-.-.-.-.=.*.=.=.=.=.-.-.-.-.;.4.4.5.6.9.w.W.Q.+XQ.Q.eXeX+X+XeXeXeX+XW.+XQ.!.eXeXQ.W.Q.Q.W.w.w.9.7.6.7.7.w.W.Q.Q.W.qXw.5.+.{ w 6 3 4 - @ $  .eXrXQ.9.9.e.eXaXaXyXe.9.4.O. .[ A A n n A [ {  ... ...O.+.+.+.[ n w w w 7 6 6 6 0 n { -.+...A 4 4 4 6 7 7 w w v S S S v v b [ S 9 9 v b b w 8 3 6 6 8 j D.>.A.D.D.G.*X:X:X:X:X>X>X>X<XdXdXdX>X>X>X>X>X^./.~.K.x.x.g.g.u.g.g.g.g.g.g.g.g.k.k.k.k.k.k.k.k.k.k.k.k.",
"* = = = * * * * = = = = > > = > > 1 1 t 1 1 t t t t t t y y y y i i i i f f f f f f f f g g g C C Z H H H K K K T T T T W W $.$.$.$.$.$.W W $.$.$.$.$.$.$.$.$.$.%.%.%.%.%.%.%.%.%.%.%.Q &.&.&.&.&.&.&.! ! ^ ( p.a.a.a.a.s.s.f.f.N.N.B.B.B.V.V.V.Z.Z.Z.Z.Z.Z.Z.Z.Z.Z.Z.J.J.L.G.G.S.S.S.S.S.S.S.S.S.S.A.A.A.S.l.l.l.l.l.l.l.j.j.h.h.h.h.h.h.h.h.h.g.#.g.h.h.h.h.h.j.z.z.z.z.z.z.S.S.S.S.S.S.S.S.z.z.z.j.h.h.g.g.g.g.h.h.#.M t % O + o o o o o $ v 6.fXCXGXHXHXHXHXHXHXHXHXHXHXCXfXw.-.*.*.+.+.*.*.=.=.=.=.=.=.-.-.-.-.-.-.-.=.*.*.=.=.=.-.-.-.-.-.-.;.4.4.5.6.9.w.W.Q.+XtXeX+XQ.+X+X+XQ.W.eXQ.Q.eXeXQ.W.Q.Q.Q.w.w.9.7.7.7.w.w.W.w.W.eXe.6.=. .w 6 3 & 3 @ 4 { e.yXQ.w.Q.rXaXaXpXtX5. .+. . . .{ {  . .o.+.<.4.6.6.5.5.6.7.6.7.5.;.=.O...S w 7 4 3 6 0 {  .+.O.n 7 ; & % ; 3 6 3 v [ S S 0 v | | 0 6 0 S S n 0 7 8 9 0 j D.A.D.D.F.E.*X:X:X:X<X<X<X<X<X<X<XdX<X>X>X>X>X^././.~.K.x.x.g.g.g.u.u.g.g.g.g.g.g.g.g.k.k.k.k.k.k.k.k.k.",
"* * * * = = = = = = = = > : = > > 1 1 1 1 1 t t t t t t y t t y i i i i f f f f f f f f g g z C C Z H H H J K K T T T T W W W W W W $.$.$.$.$.$.$.$.$.$.$.$.$.$.%.%.%.%.%.%.%.%.%.%.%.%.%.%.>.! &.&.! ! ! ^ ( ( a.a.a.a.s.s.s.f.N.N.B.B.B.B.V.V.V.V.Z.Z.Z.Z.Z.Z.Z.Z.Z.Z.Z.J.J.G.G.G.G.G.S.S.S.S.S.S.S.I.I.S.S.S.S.S.S.l.l.j.j.h.h.h.h.h.h.h.h.h.h.h.h.h.h.h.h.h.l.l.z.z.z.z.z.z.S.S.S.S.S.S.S.z.z.z.j.j.j.h.h.h.j.h.Y M x 1 $ X O X o o o o  .9.fXCXCXGXGXHXHXHXHXHXHXHXHXGXCXfX9.=.*.*.+.O.+.+.*.*.=.=.=.=.-.-.-.-.-.-.=.=.=.=.=.=.=.=.-.-.-.-.-.-.-.;.<.4.4.6.0.w.+XeX+XQ.W.Q.Q.+XQ.W.eXQ.W.+XeXQ.W.W.W.W.W.w.7.7.7.w.w.w.w.7.9.Q.7.;. .[ 6 4 & $ 3 & [ w.yXQ.eXQ.eXpXaXrX+Xe.5.+. . .O.+.O.+.<.4.5.7.7.9.9.9.9.7.6.5.5.5.4.5.6.4.4.=.O. .A w 7 7 w A  .=.-. .w & O + $ % ; 7 n n S S v v v S b 0 v } S v 0 0 0 j j D.A.F.F.G.E.:X:X:X>X<X<X<X<X<X<X<X<X<XzX>X>X>X^.^././.K.K.x.x.k.k.g.g.g.g.g.g.g.g.g.g.g.g.k.k.k.k.g.g.g.",
"* * = * = = = = = = > > > > > > 1 1 1 1 t 1 t t t t t t y t t y i i i i f f f f f f f f g z z z C H H H H J K K T T T Y Y W W W W W $.$.$.$.$.$.$.$.$.$.$.$.%.%.%.%.%.%.%.%.%.%.%.%.%.%.%.%.>.&.>.>.! ! ! ^ ( ( a.a.a.a.s.s.f.f.N.N.B.B.B.B.V.V.V.V.Z.Z.Z.Z.Z.Z.Z.Z.C.C.Z.Z.J.J.Z.Z.L.G.S.G.S.S.S.S.I.I.I.I.S.S.S.S.S.S.l.l.l.j.h.h.h.h.h.h.h.h.h.j.h.h.h.h.h.z.z.z.z.z.z.z.z.z.S.S.S.S.S.S.S.z.z.j.j.j.j.j.j.j.h.#.@.x 1 %   X o O X o 6 O.eXfXlXCXGXGXGXGXGXHXHXHXHXHXHXGXCXfXw.=.=.=.O.O.O.+.+.*.*.*.=.=.-.-.-.-.=.=.*.*.*.*.=.=.=.=.=.-.-.-.-.-.-.-.-.-.<.<.6.7.w.+X+XW.W.Q.+XeX+XW.eXW.W.Q.eXQ.W.W.!.!.+Xw.7.7.w.w.w.w.w.w.w.7.=. .[ w 4 4 - - o 6 w.iXeXQ.pXtXeXeXeX+X9.5.+.O.o.+.4.4.4.5.9.9.9.7.7.7.7.9.w.e.w.w.7.7.6.4.5.5.5.4.<.=.+. .v 6 n v n [ =.-.=.{ 3 O o O 3 3 ; 3 0 n b v 9 b S 9 w S [ S S 0 0 A j D.A.F.F.E.E.:X:X>X>X<X<X<X<X<X<X<XzXzXzX6X>X>X>X^././.~.K.K.x.x.x.g.g.g.g.g.g.g.g.g.g.g.g.g.k.k.g.g.g.g.",
"= = = = = = = = = = > > > > > > 1 1 t t t t t t t t t t y t t y i i i i f f f f f f f f g z z z C H H H H J K K T T T T Y W W W W W $.$.$.$.$.$.$.$.$.$.$.$.%.%.%.%.%.%.%.%.%.%.%.%.%.%.%.%.>.&.>.>.( ( ( ( ( ( a.a.a.a.s.s.s.f.N.N.B.B.B.B.V.V.C.C.Z.Z.Z.Z.Z.Z.Z.Z.J.C.J.Z.Z.Z.J.J.L.L.G.G.E.G.G.G.I.I.I.I.I.S.I.I.I.S.S.l.l.l.l.j.h.h.h.l.j.j.l.h.h.h.h.h.j.z.z.S.z.z.z.z.z.z.S.S.z.z.z.z.z.z.z.j.j.j.j.j.l.h.&.Y M 1 # O O X     o n 7.yXkXCXGXGXGXGXGXGXGXGXHXHXHXHXHXGXlXaXw.-.=.=.O.O.O.+.*.*.*.*.=.=.=.-.-.=.=.*.+.*.+.+.*.*.=.=.=.=.-.-.-.-.-.-.-.-.-.-.<.4.6.w.Q.Q.Q.+XeXeXeXW.eXW.w.Q.eXQ.Q.Q.eXtXeXw.9.w.W.W.9.6.Q.eXw.-.o.{ v 6 4 4 - - 3  .eXpXw.tXfXyXaXeXw.5.+.<.<.<.5.9.w.9.e.e.eXeX+X+X+X+XeXrXrXrXtXeXeXQ.w.9.6.6.4.5.5.4.5.;.+. .n e w n  ...O.=. .8 + o + $ $ % 3 w b b b 9 w S w 0 n [ [ v 0 c j U.D.E.E.:X*X<X:X>X<X<X<XdXdXdXzXzXzXzXzX6X6X>X>X/./.^.~.K.K.x.x.x.k.k.g.g.g.g.g.g.g.g.g.g.g.g.g.g.g.g.g.",
"= = = = = = = = = = > > > > > > 1 1 1 t t t t t t t t t y t t y i i i i f f f f f f f f g z z z C H H H H K K K T T T T Y W W W W W $.$.$.$.$.$.$.$.$.$.$.$.%.%.%.%.%.%.%.%.%.%.%.%.%.%.%.%.&.&.! ( ( ( ( ( ( ( a.a.a.a.s.s.s.s.f.N.B.B.B.B.V.V.C.C.Z.Z.Z.Z.Z.Z.Z.Z.J.f.J.J.Z.Z.Z.Z.Z.J.L.L.L.G.L.G.E.E.I.I.I.I.I.I.I.I.S.S.S.l.l.l.l.z.z.z.z.z.z.l.l.z.z.z.z.S.S.S.S.S.S.S.S.S.S.S.z.z.S.z.z.z.z.j.l.l.l.l.&.&.@.x j % X o O X o - n w.jXlXCXGXGXGXGXGXGXGXGXGXGXHXHXGXGXGXlXaX9.=.=.=.O.O.O.O.O.O.O.O.+.+.+.*.+.+.+.+.+.+.+.+.+.+.=.=.=.=.=.=.-.-.-.-.-.-.-.-.-.<.4.6.9.W.W.Q.+XeX+XQ.eXW.w.Q.eXQ.Q.Q.eXeXeXW.w.Q.Q.w.7.7.W.Q.6. . .n q 3 4 4 - - e 7.yXtXQ.aXaXyXQ.w.5.<.w.e.+XeXpXaXaXyXiXaXfXaXaXiXiXiXaXfXaXiXiXyXtXeXeXQ.w.9.7.6.4.5.5.5.5.<.O.{ A n { {  .+.4.X.w ; O o O $ % 3 0 b S w w S S w w n S [ n 0 8 2.D.E.E.:X*X<X>X<XdXdXdXdXdXzXzXzXzXzXzX6X6X>X>X/./.^.~.K.K.K.K.x.x.x.k.g.g.g.g.g.g.g.g.g.g.g.g.g.g.g.g.",
"= = = = = = = = = = > > > > > > 1 1 t t 1 1 t t t t t t y t t y i i i i a f f f f f f f g z z z C H H H H K K K T T T F W W W W W W $.$.$.$.$.$.$.$.$.$.$.$.%.%.%.%.%.%.%.%.%.%.%.%.>.>.%.%.&.&.! ! ! ! ( ^ ( p.a.a.a.a.s.s.s.s.f.N.B.B.B.B.V.V.C.Z.V.V.Z.Z.Z.Z.C.C.J.J.J.J.Z.Z.Z.Z.J.J.L.L.L.G.G.G.E.E.E.I.I.I.I.I.I.I.S.I.S.S.S.l.l.l.l.l.S.S.S.z.l.l.l.z.S.S.S.I.I.S.S.S.S.z.S.S.z.z.z.z.z.z.l.l.l.l.l.l.#.@.Y h > o X X X X 3 } eXjXlXCXGXGXGXGXGXGXGXGXGXGXGXGXHXGXGXGXlXiX6.*.=.=.O.O.O.O.O.O.O.O.+.O.O.O.O.O.O.O.O.O.O.O.+.+.*.*.*.*.=.=.-.-.-.-.-.-.-.-.-.-.<.<.4.7.9.w.W.Q.Q.Q.eXQ.W.Q.Q.!.w.w.W.Q.Q.Q.Q.Q.W.w.w.w.9.5.+. .[ w 5 & 4 4 4 4 +.yXtXeXaXfXeXyX7.w.+XrXyXyXyXpXpXpXyXeX+XeXyXpXiXyXyXiXaXaXiXyXjXfXfXfXiXtXeXQ.w.w.7.6.-.;.4.5.5.-.O.[ {  ...O.-.4.-.} % X X O O % ; 0 b [ S A b S w w n | } c < 2.D.XXE.:X*X<X<X<XdXzXzXzXzXzXzXzXzXzXzX6XzX6X>X>X/.^.^.~.K.K.K.K.x.x.k.g.g.g.g.g.g.g.g.g.g.g.g.g.g.g.g.",
"= = : : : : = = = : > > > > = > 1 1 t t 1 1 t t t t t t t t y y i i i i d f f f f f f f z z z C H H H H H H K K T T F T Y Y Y W W W $.$.$.$.$.$.$.$.$.$.%.%.%.%.%.%.%.%.%.%.%.%.%.%.%.%.%.%.&.~ &.! ! ! ! ^ ( p.a.a.a.a.s.s.s.s.f.N.B.B.B.V.V.V.V.V.V.V.Z.Z.Z.Z.Z.C.J.J.J.J.Z.Z.Z.Z.J.J.J.J.Z.J.G.G.G.G.~.E.~.~.~.~.I.I.I.I.I.S.I.S.l.S.h.l.S.j.S.S.S.l.S.z.z.S.S.I.I.I.I.S.S.S.S.S.S.z.z.j.z.l.l.#.l.&.#.@.M x h 1 % $ O X X 8 =.tXkXCXCXGXGXGXGXGXGXGXGXGXCXCXGXGXGXGXGXGXkXtX6.*.=.*.*.*.O.O.O.O.*.*.O.O.O.O.O.O.O.O.O.O.O.O.+.+.*.*.=.*.=.=.-.=.=.=.-.-.-.-.-.-.-.-.<.<.4.6.7.w.W.W.Q.Q.Q.Q.!.!.w.9.w.eXQ.Q.Q.Q.W.w.W.Q.6.-. .n w 6 4 & & 4 O  .Q.eXpXaXrXeXQ.e.iXpXiX+X0.9.9.0.e.Q.Q.e.e.Q.+XrXtXyXyXyXtXiXiXyXaXaXiXiXiXiXiXiXtXeXW.w.7.5.;.;.4.5.4.=.O. . ...X.O.=.-...w O   O $ $ ; 6 S | } b X.X.w n } | A 8 $.Y.Y.*XOX<X<X<X<XzXzXzXzXzXzXzXzXzXzXzX6XzX6X>X^./.^.^.~.K.K.K.K.x.x.x.k.g.g.g.t.g.t.g.t.g.g.g.g.g.g.g.",
"= = : : : : = = = : > > > > = > 1 1 1 1 1 1 t t t t t t t t y y i i i i i d f f f f f f g z z C H H H H H K K K T T T T Y W W Y W $.$.$.$.$.$.$.$.$.$.$.%.%.%.%.%.%.%.%.%.%.%.%.%.%.%.%.%.%.&.~ ! ! ! ! ! ^ ( p.a.a.a.a.s.s.s.s.f.N.B.B.B.V.V.V.V.Z.V.Z.Z.Z.Z.Z.Z.Z.Z.J.J.Z.Z.Z.Z.Z.Z.J.J.J.J.Z.Z.Z.L.L.L.L.~.~.~.~.~.I.I.I.I.A.I.A.A.A.l.l.A.A.S.A.I.S.I.S.I.I.I.I.I.I.I.S.S.S.z.z.I.I.S.z.S.z.l.#.#.@.N x h 1 % $ O X X ; S 4.tXkXCXGXGXGXGXGXGXGXGXGXCXCXlXCXFXGXGXGXGXCXjXtX6.=.*.*.*.O.O.O.O.O.O.O.O.O.O.O.O.O.O.O.O.O.O.O.O.O.O.O.=.=.=.=.-.-.-.-.-.-.-.-.-.-.=.-.-.-.-.<.4.6.7.w.W.Q.Q.Q.Q.+XeXQ.Q.Q.W.w.w.w.W.Q.W.w.4.O.{ w 6 - & 4 4 @ n 4.eXrXpXaXyXyXeXeXQ.7.-.O. . . ...+.5.9.w.4.9.W.+X+XrXtXrXyXiXiXiXiXiXiXyXtXtXtXtXeXeXeXeX+XW.9.6.4.<.4.4.4.-.X...O.=.-.-.4.=.n 6   X O ; 3 8 v } X.S [ } S S S S j $.#X#X:X:XdX<XdXdXzXzXbXbXxXzXzXzXzXzXzXzX6X>X/./.^./.~.~.K.K.K.K.x.x.z.z.k.g.g.t.t.g.t.t.t.t.g.g.g.g.g.",
"= = : : : : = = : : > > > > > > 1 1 1 1 1 1 t t t t t t t t y y i i i i i d f f f f f f g z z C H H H H H K K K T T T T Y W W W W $.$.$.$.$.$.$.$.$.$.$.%.%.%.%.%.%.%.%.%.%.%.%.%.%.%.%.%.%.&.~ ! ! ! ^ ! ^ ( p.p.a.a.a.s.s.s.s.f.N.N.B.B.V.V.V.Z.Z.Z.Z.Z.Z.Z.Z.Z.Z.J.Z.Z.Z.Z.Z.Z.Z.Z.Z.Z.J.Z.Z.Z.Z.J.L.L.L.L.~.~.~.~.~.E.E.E.D.I.A.A.A.I.I.I.I.A.I.I.l.I.l.l.A.A.I.I.I.I.S.S.S.I.I.I.I.l.l.l.l.#.#.x x h = % # O O o o < $.W.fXlXCXGXGXGXGXGXGXGXGXCXCXCXlXkXkXlXGXGXGXGXCXfXeX7.;.*.*.*.O.O.O.O.O.O.O.O.O.O.O.O.O.O.O.O.O.O.O.O.O.O.O.*.*.*.*.*.*.=.=.-.-.-.-.-.-.=.=.=.=.=.=.-.<.5.6.7.w.w.W.!.Q.eXw.w.w.Q.Q.Q.Q.eXQ.w.5.=. .v 6 4 & - - 4 4 4.qXrXyXyXyXyXeXw.5. .A q q 7 q e n  .+.4.w.5.7.e.+X+XeXyXyXiXfXfXiXiXiXtXeXeXeXeXQ.W.W.eXeXeX+XQ.w.7.4.5.6.6.4.4.-.=.-.<.<.4.<.=.| 9 O X X % % 6 v X.S S | } S A c b D %X,X,X:XdX<XdXzXzXbXbXbXbXbXxXzXzXzXzXzX>X>X/.^.^.^.~.K.K.K.x.x.z.z.z.z.k.j.g.g.g.g.g.g.g.g.t.t.g.t.t.",
"= = : : : : = = : : > > > > > > 1 1 t t t t t t t t t t t t y y u y i i i d f f f f f f z z z H H H H H H H K K T T F F W W W W W W $.$.$.$.$.$.$.$.$.$.%.%.%.%.%.%.%.%.%.%.%.%.%.%.%.%.&.&.~ ~ ! ! ! ! ^ ^ ( p.p.p.a.a.s.s.s.s.f.N.N.B.B.V.V.V.Z.Z.V.V.Z.Z.Z.Z.Z.Z.Z.Z.Z.Z.Z.Z.Z.Z.Z.Z.Z.Z.Z.Z.J.J.J.J.J.L.L.L.L.~.E.E.E.E.E.E.@XE.A.U.dXdXdXdXI.R.2.:.:.:.#.:.:.:.:.l.l.l.A.I.A.A.l.l.:.#.#.@.N x h = = # O O O O O 0 ,.Q.fXCXGXGXGXGXGXGXGXGXGXGXCXCXlXkXjXkXlXCXGXGXGXCXfXeX7.<.=.*.*.*.O.O.O.O.O.O.O.....................O.O.O.O.O.*.*.*.*.*.*.*.*.*.*.=.=.-.-.=.=.=.=.=.=.=.=.;.<.5.6.7.w.W.Q.eXQ.Q.+XQ.Q.Q.Q.eXW.4.-.O.[ q 6 - 4 4 4 @ [ eXrXyXyXtXtXeX7. .e 7 6 4 - 4 7 w n +.+.<.7.W.W.Q.+XrXyXiXaXfXfXfXiXiXyXtXeX+XQ.Q.W.w.w.w.w.w.w.Q.w.w.w.7.4.4.6.7.5.-.<.<.4.<.=.-.=.-.w O X X $ % ; S | } } X.X.S 0 b x uXsXdX<XzXdXzXzXbXbXbXbXbXMXMXxXzXzX6X6X>X/./.^./.~.K.K.K.K.K.K.z.z.z.z.k.j.g.g.g.g.g.#.#.R R N N N N ",
"> > > > > > > > > > > > > > = > 1 1 t t 1 1 t t t t t t t t y u u y y i i i f f f f f f g z z M M H H H Z H K K T D F F Y Y Y G W W $.$.$.$.$.$.$.$.$.$.$.$.%.%.%.%.%.%.%.%.%.%.%.%.%.%.Q ~ ~ ~ ~ ~ ! ! ^ ^ ^ ( a.a.a.a.a.a.s.s.b.N.N.N.N.C.V.V.Z.Z.V.V.Z.Z.Z.Z.Z.Z.Z.Z.Z.Z.Z.Z.Z.Z.Z.Z.Z.Z.Z.Z.J.J.J.J.J.J.J.J.L.G.G.G.G.G.E.#XgXsXU.R.VXVXVXuXU.:.@.@.@.@.b m #.#.:.@.@.#.:.:.:.:.#.#.@.@.m x h = # # $ X X X o $ | 8.iXkXGXGXGXGXGXGXGXGXGXGXGXCXCXCXkXkXfXgXlXCXCXCXCXjXtXW.6.<.-.=.*.O.O.O.O.O.O.O.............................O.O.*.O.*.*.*.*.*.*.*.*.*.*.*.*.=.=.=.=.=.=.=.=.=.-.;.<.4.6.w.Q.eXQ.W.W.W.W.Q.Q.!.6.=. .w 7 6 6 4 & q 6 6 4.eXyXaXeXw.4.+.[ q 3 & & 3 6 7 w n  .+.4.9.Q.eXeXeXeXtXiXfXfXfXfXfXaXiXyXtXeXQ.Q.W.w.w.w.9.7.6.6.6.7.7.6.7.w.w.w.9.6.4.<.=.=.<.<.=.O...=. .; O O $ $ 6 b | | S S S v j h T.dXdXdXzXzXzXbXbXbXbXbXMXMXMXvXcXzX6X6X>X/.^.^.~.~.K.K.K.K.S.z.z.z.z.z.z.j.g.g.g.#.R R R N N N N N N ",
"> > > > > > > > > > > > > > > > 1 1 1 1 1 1 t t t t t t t t y u u y y i i i f f f f f f g z z M M H H H Z H K K K T F F Y Y F F W W $.$.$.$.$.$.$.$.$.$.$.$.%.%.%.%.%.%.%.%.%.%.%.%.Q Q ! ! ~ ~ ~ ~ ! ! ^ ^ ( ( a.a.a.a.a.s.s.s.b.b.N.N.N.C.V.V.Z.Z.Z.Z.Z.Z.Z.Z.Z.Z.Z.Z.Z.Z.Z.Z.Z.Z.Z.Z.Z.Z.Z.Z.J.J.J.J.Z.Z.J.J.Z.Z.Z.G.G.G.F.:XgXuX2.iXCXCXkXtX7.;.} } b b b b ;.6.2.@.x b m D D x b b c c 8 = = % # $ % O X $ 9 +.+XfXkXGXGXGXGXGXGXGXGXGXGXGXGXCXCXCXkXjXfXfXfXkXlXlXkXfXQ.7.4.<.-.-.*.O.O.O.O.O.O.O...............................O.O.O.O.O.*.*.O.O.O.O.*.*.*.*.*.*.=.=.=.=.=.=.=.=.=.-.-.4.6.w.W.W.9.6.Q.Q.Q.w.w.4.O.[ w 7 6 7 3 3 q 7  .w.rXyXQ.6.O.[ 7 6 3 4 $ + & 4 n { +.<.7.W.eXyXyXyXiXiXaXfXjXfXjXfXfXaXiXiXtXeXQ.Q.w.w.w.w.7.6.6.6.6.6.4.4.6.6.4.6.7.7.7.7.6.6.=.=.O...X.-.-.O.0 O X O % 6 b | | | X.| j h %.dXdXdXzXbXbXbXbXbXMXMXMXMXMXvXzXzX6X>X>X/.^.^.~.K.K.K.K.S.S.z.z.z.j.j.j.j.h.g.#.#.R R R R N N N N N ",
"> > : : : : > > > > > > > > > > 1 1 1 1 1 1 t t t t t t t t y u u y y i i i f f f f f f g z z z M H H H Z H K K K T F F Y Y F F W W $.$.$.$.$.$.$.$.$.$.$.$.%.%.%.%.%.%.%.%.%.%.%.%.Q Q ! ! ~ ~ ~ ~ ~ ! ( ^ ( ( p.p.a.a.a.s.s.s.b.N.N.N.N.C.C.C.Z.Z.Z.Z.Z.Z.Z.Z.Z.Z.Z.Z.Z.Z.Z.Z.Z.Z.Z.Z.Z.Z.Z.Z.Z.J.Z.Z.Z.Z.Z.Z.Z.Z.Z.G.G.F.XXdXgXT.6.lXGXCXjXtX5.=.} [ w w w w <.Q.tX6.S 8 8 b b j 8 5 5 % $ $ $ $ # $ % 5 6 v ,.iXfXlXGXGXGXGXGXGXGXGXGXGXGXCXCXCXCXkXkXgXiXiXfXfXjXfXfXQ.7.4.4.<.;.-.*.O.O.O.O.O.O.O...............................O.O.O.O.O.*.*.O.O.O.O.*.*.*.*.*.*.=.=.=.=.=.=.=.=.=.=.=.-.4.6.eXyXyXeX+XeXW.6.7.4. .n w 7 6 7 6 q 7 w 4.eXeXQ.+.{ w 6 $ $ $ & & 4 w A O.4.7.w.eXtXiXaXaXaXfXfXfXfXfXfXfXfXfXaXiXyXtXeXQ.Q.W.w.w.7.6.4.6.6.6.6.6.5.4.;.-.;.4.4.6.6.7.9.<.=.O.X.=.X.O.<.X.0 $ O O % 6 b | | | X.b h h dXbXzXbXbXbXbXbXbXMXMXMXMXcXxXzXzX6X>X>X/.^.~.K.K.S.S.S.S.z.z.z.h.j.j.h.h.h.#.#.#.R #.R N N N N N N ",
"> > : : : : : > : : > > > > > > 1 1 1 1 t t t t t t t t t t u u u y y i i i d f f f f f z z z z H H H H H H K K K T F F Y Y F F W W W W $.$.$.$.$.$.$.$.$.$.%.%.%.%.%.%.%.%.%.%.%.%.Q Q %.%.~ ~ ~ ~ ! ! ! ! ( ( p.p.p.a.a.a.s.s.b.N.N.N.N.N.C.C.Z.Z.Z.Z.Z.Z.Z.Z.Z.Z.Z.Z.Z.Z.Z.Z.Z.Z.Z.Z.Z.Z.Z.Z.Z.Z.Z.Z.Z.Z.Z.Z.Z.Z.Z.G.G.F.:XgXgX=.W.GXGXlXjXeX4.+.O.{ v e q q 5.yXCXuX*.b c | | c 5 ; % % o o o o $ O % 0 ,.9.yXfXlXCXGXCXGXGXGXGXGXGXGXGXGXCXCXCXCXkXjXfXfXsXfXfXfXfXtX0.;.;.;.-.;.-.*.O.O.O.O.O.O.O...............................O.O.O.O.O.O.O.O.O.O.O.O.O.*.*.*.*.*.*.*.*.=.=.=.=.=.=.=.=.;.4.w.yXfXfXjXfXtXQ.6.=.[ v w 7 6 7 6 e 7 n 6.w.9.5.A w 4 & - & + o 6 n +.6.7.w.Q.eXyXiXaXfXfXfXjXjXfXfXfXfXfXfXaXiXiXyXyXtXQ.Q.W.w.7.6.4.5.6.6.6.6.6.5.4.;.;.-.-.O.O.=.<.5.6.4.=.=.} =.-. .O.5. .3 % O % 8 c S S S | j = dXbXbXzXbXbXbXbXbXMXMXMXnXxXzXzXzX6X>X/.^.^.~.K.K.S.S.S.z.z.z.l.j.l.j.h.h.h.#.#.#.R R @.Y Y N N N N ",
"> > > > > > : > : > > > > > > > > 1 1 1 1 1 1 1 1 1 1 1 t t y y u u u i u i i d f f f f f z z z C C H H H H K K K T Y T Y Y W W W W W W $.$.| | $.$.$.$.$.$.$.$.%.%.%.%.%.%.%.%.%.%.Q Q Q Q ~ ~ ~ ~ ~ ~ ~ ~ ^ ( p.p.p.p.a.s.s.s.s.f.f.N.N.C.C.C.C.C.Z.Z.Z.Z.Z.Z.Z.Z.Z.Z.Z.Z.Z.Z.Z.Z.Z.Z.Z.Z.Z.Z.Z.Z.Z.Z.Z.Z.Z.Z.Z.Z.Z.Z.G.F.,XkXiXO.aXGXGXlXjXeX3.o...{ { q q 3 7 fXlXkX+X,.X.=.| b 9 % $ O O O o X o 5 S <.eXaXjXlXCXCXGXGXGXGXGXGXGXGXGXGXCXCXCXCXCXkXjXfXfXfXfXfXfXiXW.;.4.;.;.;.-.-.*.O.O.O.O.O.O.O....................... . . ...O.O.O.O.O.O.O.O.O.O.O.O.O.O.O.O.O.*.*.*.*.*.*.=.=.=.=.*.*.=.=.7.Q.iXfXfXfXfXiXeXw.*.n 0 0 0 6 w e  .-.e.w.=.v q 4 $ O $ O $ 0 5.w.eXrXeXeXtXyXaXfXjXjXfXfXfXfXfXfXfXaXaXaXiXyXtXyXtXtXeXQ.W.w.9.6.4.5.6.6.6.6.4.5.4.4.<.-.=.*.O.O.O.O.=.-.<.<.,.-.O.=.-.;.<.4.0 % % % 5 c S | S F h #XbXdXbXbXbXbXbXbXMXMXnXxXzXzXzX6X>X>X^.^.~.~.K.S.S.S.z.l.z.j.l.j.h.h.j.h.h.#.#.@.#.#.@.@.Y N N N N ",
"> > > > > > > > > > > > > > > > 1 1 1 1 1 1 1 1 1 1 1 1 t t t u u u u i y i i l f f f f f z z z C C Z Z H H K K T D T T Y Y W W W W W W W W | | $.$.$.$.$.$.$.$.%.%.%.%.%.%.%.%.%.%.%.%.Q Q ~ ~ ~ ~ ~ ~ ! ~ ~ ^ ( p.p.p.a.a.s.s.s.s.f.N.N.C.C.C.C.C.Z.Z.Z.Z.Z.Z.Z.Z.Z.Z.Z.Z.Z.Z.Z.Z.Z.Z.Z.Z.Z.Z.Z.Z.Z.Z.Z.Z.Z.Z.Z.Z.Z.Z.G.F.sXkXtX=.aXGXGXlXpX9.+.{ ..[ [ q 4 O 4 +XlXGXkX0.O.| c 0 6 % O O X X O $ 8 | 0.rXjXkXlXCXCXCXCXCXCXCXCXGXCXGXGXGXCXCXCXCXCXlXkXkXkXkXkXkXgXiXW.<.<.;.;.;.-.*.*.O.O.O.O.O.O......................... ..... ...O.O.O.O.O.O.O.O.O.O.O.O.O.O.O.O.+.+.+.+.*.*.=.=.=.=.*.*.*.*.-.5.w.tXfXfXfXfXiXeXW.6.O.} v w w v o.6.w.4.{ w & - +   X 3 X.6.w.eXyXiXiXaXfXfXfXfXfXfXfXiXiXiXaXiXyXtXyXyXtXeXeXeXeXeXeXQ.W.W.w.7.6.4.6.6.6.6.4.5.5.4.4.-.=.*.O.O.O.X.X.X.*.-.<.<.<.=.-.<.4.5.*.0 % $ 5 8 0 b b D h E.vXdXbXbXbXbXbXbXMXvXzXzXzX>X>X>X>X>X^.~.~.K.K.S.S.z.l.l.l.l.l.l.j.&.h.h.#.#.#.@.Y Y @.@.@.' ' ' N ",
"> > > > > > > > > > > > > > 1 1 1 1 1 1 1 1 1 1 1 1 1 1 t t t u u u u i u i i l f f f f f z z z C C Z Z Z H K K T D Y T Y Y W W W W W W W W | | $.$.$.$.$.$.$.$.%.%.%.%.%.%.%.%.%.%.%.%.Q Q Q ~ Q ~ ~ ~ ~ ~ ~ ^ ( ( p.p.a.s.s.s.s.s.f.N.N.C.C.C.C.C.Z.Z.Z.Z.Z.Z.Z.Z.Z.Z.Z.Z.Z.Z.Z.Z.Z.Z.Z.Z.Z.Z.Z.Z.Z.Z.Z.Z.Z.Z.Z.Z.Z.Z.G.F.sXVXeX;.hXGXFXkXqX5.+.o...e e q 4 . . +.lXCXCXfX6.S 8 8 % $ O $ % 5 c m 4.W.fXjXlXCXCXCXCXCXCXCXCXCXCXCXCXCXCXCXCXCXCXCXCXCXCXCXCXCXCXCXkXsXW.4.<.;.;.;.-.*.O.O.O.O.O.O.O......................... . ..... ...O.O.O.O.O.........O.O.O.O.O.O.+.+.+.+.*.*.=.=.=.=.*.*.*.*.*.-.5.w.eXyXiXiXiXyXyXeXQ.7.-.O. .o.4.w.7. .w 4 o + + O 6 +.e.rXiXaXfXjXfXfXfXfXfXfXiXiXiXyXtXtXtXtXeX+XtXtXeX+X+XeXeXeXeXQ.Q.W.w.9.7.6.6.6.6.6.4.5.5.4.4.-.=.*.O.O.O.X.X.....X.*.=.-.-.;.<.4.5.5.*.w & ; 3 6 8 c x j A.VXzXMXbXMXbXbXbXxXzXzX<X>X>X>X>X^.^.~.~.~.K.S.S.z.z.l.l.l.l.l.h.h.&.&.&.&.#.#.@.@.Y @.@.@.' ' ' ' ",
"> > : : : : > > > > 1 > > > 1 1 1 1 1 1 1 1 1 1 1 1 1 1 1 1 t t t u u i u i d l f f f k k z z z z C Z Z H H K K T T Y T Y Y W W W W $.$.W W $.$.$.$.$.$.$.$.$.$.%.%.%.%.%.$.%.%.%.%.Q Q Q Q ! ~ Q Q ~ ~ ~ ~ ~ ^ ( p.p.p.s.s.s.s.s.s.b.N.N.C.C.C.C.C.Z.Z.Z.Z.Z.Z.Z.Z.Z.Z.Z.Z.Z.Z.Z.Z.Z.Z.Z.Z.Z.Z.Z.Z.Z.Z.Z.Z.Z.Z.Z.Z.Z.Z.G.E.sXkXQ.5.jXGXFXjXe.5.-.3...q w q 7     q eXlXGXCXaXO.6 6 % O O % v | ;.7.iXfXkXlXCXCXCXCXCXlXlXlXCXCXCXCXCXCXCXCXCXCXCXCXCXCXCXCXGXGXGXGXkXsXT.2.;.;.<.;.-.O.O.O.O.O............................... ..... .........................O.O.O.O.O.O.O.+.+.*.*.*.*.*.*.+.*.=.=.-.-.<.7.w.Q.Q.eXtXyXiXiXtXtXyXeXe.9.w.qX5.{ 3 X O . - A 6.W.+XiXfXfXfXfXfXfXfXaXaXiXyXyXyXyXtXtXtXtX+X+XeXeXeX+XQ.eXeXeXeXQ.W.W.W.w.9.6.6.6.6.6.5.5.5.4.<.-.=.*.O.O.O.X.X. .X. . .X.X.O.=.-.<.4.5.6.*.w % % ; 0 0 x b A.VXbXMXMXMXMXbXbXzXdX>X>X>X>X^.^.~.~.~.~.K.S.S.S.z.l.l.h.l.l.&.&.&.&.&.&.#.#.@.@.@.@.@.@.Y N N N ' ",
": : : : : : : : : : > : : : 1 1 1 1 1 1 1 1 1 1 1 1 1 1 1 1 t t u u u u u i i d d d j k k k g z z C C C Z H H H K T Y Y T Y G G W W G G W W W W | | $.$.$.$.$.$.$.$.%.%.%.$.%.%.%.Q Q Q Q Q Q ! Q Q ~ ~ ~ ~ ~ ^ ( ( p.p.p.s.s.s.s.s.f.b.f.C.C.C.C.C.C.C.C.C.Z.Z.Z.Z.Z.Z.Z.Z.Z.Z.Z.Z.Z.Z.Z.Z.Z.Z.Z.Z.J.J.J.Z.Z.Z.Z.Z.Z.Z.G.E.gXgX0.7.lXGXlXkXqXe.+.o.{ e q 6 . . . X A aXCXkXkXiX<.S c n m [ ;.W.fXjXkXCXCXCXCXCXCXlXlXlXlXlXCXCXCXCXCXCXCXCXCXCXCXCXCXGXGXGXHXGXGXCXkXiX0.;.;.;.;.-.=.O.O.O................................... . . . ...........................O.O.O.O.O.O.O.O.*.*.*.*.*.*.+.+.*.*.*.*.=.=.6.9.W.Q.eXeXeXeXtXtXtXtXeXyXyXeX;.[ %   X 6 O.+XiXiXaXiXiXiXiXiXpXiXiXyXeXtXyXyXyXtXeXtXtXyXeXQ.+XeXeXeXeXeXeXeXQ.Q.W.W.w.W.w.7.6.6.6.4.5.5.4.4.4.;.-.=.*.O.X... . .| } } } }  .O.O.*.*.O.6.6...; $ % 0 8 h l :.DXbXMXVXMXMXMXbXzX7X>X>X>X^.~.~.K.~.K.S.S.S.S.S.l.l.l.h.&.&.&.&.&.&.:.#.#.#.@.@.@.@.@.@.Y N N N ' ",
": : : : : : : : : : : : : : 1 1 1 1 1 1 1 1 1 1 1 1 1 1 1 1 t t t t u u u i i d i j f f k k k z z C C C Z H H H K T T T T T F G Y Y G F W W $.$.| | $.$.$.$.$.$.$.$.%.%.%.%.%.%.%.%.Q Q Q Q Q ! Q Q ~ ~ ~ ~ ~ ^ ( ( p.p.a.s.s.s.s.s.f.b.N.C.C.C.C.C.C.C.C.C.Z.Z.Z.Z.Z.Z.Z.Z.Z.Z.Z.Z.Z.Z.Z.Z.Z.Z.Z.Z.J.J.Z.Z.Z.Z.Z.Z.J.Z.G.E.gXgX6.w.CXGXjXaX7.4.o.{ [ e q 4 . . . . o { Q.iXfXaXtXw.w.W.Q.+XfXjXCXCXCXCXCXCXCXCXCXCXVXVXlXlXlXkXkXkXkXkXlXlXCXCXVXCXCXGXGXGXHXGXGXGXkXtX6.=.;.;.;.-.=.O....................................... . . . ...............................O.O.O.O.O.O.O.O.+.+.+.+.O.O.+.+.*.*.=.=.-.4.7.w.W.Q.Q.Q.Q.+X+XQ.qXeXeXQ.5.O.w 4 e <.eXiXyXfXfXrXyXyXyXyXyXyXyXtXtXtXtXtXtXtXeXtXyXyXtXeX+XeXeXeXeXeXeXeXQ.Q.W.W.w.W.W.w.7.6.6.6.5.4.4.4.4.<.-.-.=.O.X. . . .} } [ [ } } |  . ...O.O.O.=.m % O ; 5 1 x %.SXMXVXVXMXMXMXnXzXzX>X>X=X~.~.K.S.S.S.S.S.S.S.l.l.l.l.l.&.&.&.:.:.:.:.:.#.@.@.@.@.@.@.@.D m N m N ",
": : : : : : : : : : : : : : : : : : : : : : : : > > 1 1 1 1 1 t t t t u u i i d i d f f k k k z z C C C Z H H H K T T T F F F F F F F F W W $.| | | $.$.$.| $.$.$.$.$.$.$.$.$.$.%.Q Q Q Q Q Q Q %.Q ~ ~ ~ ~ ~ ^ ( ( p.p.a.s.s.s.s.s.f.b.N.N.C.C.C.C.C.C.Z.Z.Z.Z.Z.Z.Z.Z.Z.Z.Z.Z.Z.Z.Z.Z.Z.Z.Z.Z.Z.Z.Z.Z.Z.Z.Z.Z.Z.Z.Z.Z.G.E.gXfX=.Q.GXGXhXeX9.4.4.o.e e 7 . . . . . . + w -.Q.eXaXjXjXkXlXlXCXCXCXCXCXCXCXCXCXCXCXCXVXVXlXkXkXkXkXkXkXkXkXkXkXkXkXkXVXCXGXGXGXGXCXCXfXQ.2.*.;.;.;.-.*..................................... . . . ... ............... . .............O.O.O.O.O.O.O.O.O.O.O.O.O.O.+.+.*.*.=.*.*.-.4.6.9.w.w.w.W.W.W.W.W.w.w.W.0.6.-.+.7.eXiXtXrXfXfXrXyXyXiXiXiXiXiXiXiXyXtXtXtXtXtXtXyXyXtXeXeXeXeXeXeXeXeXeXQ.Q.W.W.w.W.W.W.w.7.6.6.4.4.4.4.4.4.;.;.=.O.X. .} } } } } [ [ [ } } [ [ ..S [ O.O.5 O % = = h D ZXVXVXMXMXMXMXnXzXzX>X>X^.~.~.S.S.S.S.S.S.S.z.l.l.l.l.&.&.:.&.:.:.:.:.:.%.%.@.@.@.@.@.| } D m m ' ",
": : : : : : : : : : : : : : : : > : : : : > > > > > 1 1 1 1 t t t 1 t t u i i d i j f f k k k z C C Z Z Z H H H K T T T T T T T F F W W W W | | W W $.$.$.$.$.$.$.$.$.$.$.$.$.$.%.%.Q Q Q Q Q Q %.Q ~ ~ ~ ~ ~ ^ ( ( p.p.a.s.s.s.s.s.b.b.N.N.C.C.C.C.C.C.Z.Z.Z.Z.Z.Z.Z.Z.Z.Z.Z.Z.Z.Z.Z.Z.Z.Z.Z.Z.Z.Z.J.J.J.Z.Z.Z.Z.Z.Z.Z.G.E.gXsXO.eXCXlXaXe.5.o.-. .e w 4 . . . . o o o o 6 ..7.yXkXlXlXCXCXCXCXCXCXCXCXCXCXCXCXCXCXCXVXlXlXkXkXjXjXgXjXgXgXjXkXgXgXkXkXCXCXCXCXCXkXiXW.;.*.<.;.-.-.*............................... ... . . . . . . . ...O.O.O... . . . . .........X.X.O.O.O.O.O.O.O.O.O.O.O.O.+.+.*.*.=.=.=.;.4.6.6.6.6.7.9.w.w.w.W.7.7.e.w.e.w.w.iXeXeXtXiXiXiXyXiXiXaXaXaXaXiXiXaXiXtXtXtXtXtXyXyXtXtXeXeXeXeXeXeXeXeXeXQ.Q.W.W.w.w.W.W.w.w.9.7.4.4.4.4.4.4.<.;.=.O.X. .} } } } } [ [ } } [ S S S m m [ [ n 8 $ O % h x VXVXVXMXMXMXMXnXcXzX>X>X^.~.K.S.z.z.z.z.z.z.z.l.l.l.l.&.&.:.:.:.:.%.%.%.%.@.@.@.@.@.| | } } | ' ' ",
"= : : : : : ; ; : : : : : : : : < : : : : : 1 1 1 1 1 1 1 1 1 t 1 1 1 u u i i h i j f f k k k z C Z Z Z Z Z K Z T D Z D T T Y F F F G G G G | | $.$.| | $.$.$.$.$.$.$.$.$.$.$.$.%.%.Q Q Q Q Q Q Q Q ~ ~ ~ ~ ~ ^ ( ( p.p.a.s.s.s.c.c.b.b.b.N.B.B.C.C.C.C.C.Z.Z.Z.Z.Z.Z.Z.Z.Z.Z.Z.Z.Z.Z.Z.Z.Z.Z.Z.Z.Z.J.J.J.J.Z.Z.Z.Z.Z.V.G.<XgX$XO.yXFXkXaXQ.7.<.+.o.[ 7 O   . . . o o o O 4 & w <.iXkXCXGXCXCXCXCXCXCXCXCXCXVXVXVXVXlXkXkXkXkXgXfXfXfXfXsXsXtXiXiXiXsXfXfXfXjXjXfXfXtX7.=.O.4.;.-.-.O......................... ..... . . . . . . . . . ...O.O....... . . . . ...........O.O.O.O.O.O.O.O.*.O.O.O.*.*.*.*.=.=.-.;.;.4.4.4.6.6.7.7.0.w.w.w.w.w.w.w.w.w.+XeXrXtXyXyXiXiXaXaXfXfXfXfXaXiXiXiXiXiXiXiXiXiXiXyXtXrXeXtXtXtXeXeX+X+X+XQ.Q.W.w.w.w.w.w.w.w.7.7.4.4.4.4.4.4.<.-.=.O... . . . .| } } } [ [ m m m m m m [ m w ; $ $ j u gXSXVXBXBXMXMXMXxXzX>X>X^.~.S.z.z.z.j.j.z.z.l.l.l.l.l.:.:.:.:.:.:.%.%.;.%.%.$.@.@.| | | D D ` ` ` ",
": : : : : ; ; ; ; : : ; ; ; : : < < : : : : 1 1 1 1 1 1 1 1 1 1 1 1 1 1 u i i i j l d k k k k z C C Z Z Z H Z Z D D D D F F F F F G G G F F | | $.$.| | | | $.$.$.$.$.$.$.$.$.$.%.%.Q Q Q Q Q Q Q Q ~ ~ ~ ~ ~ ^ ( ( p.p.a.s.s.s.c.c.b.b.b.N.B.B.C.C.C.C.C.C.Z.Z.Z.Z.Z.Z.Z.Z.Z.Z.Z.Z.Z.Z.Z.Z.Z.Z.J.J.J.J.J.J.Z.Z.J.Z.Z.Z.G.<XgX$XX.aXGXkXyX7.4.3.+.o.7 @ .   . . . O . @ & O @ 7 { kXhXjXkXlXCXGXVXCXCXCXCXCXVXVXVXkXkXkXjXgXfXfXfXfXsXsXiXtX$X$X$X+XQ.Q.$XtXiXtXtXeXQ.4.*.*.4.;.-.=.O......................... ..... . . . . .} } }  . .....O..... . . . . . . .........O.O.O.O.O.O.*.*.*.*.O.O.*.*.*.*.=.=.-.-.-.;.;.4.4.6.6.6.0.w.w.w.w.w.w.w.9.w.w.W.+X+XeXtXiXaXaXfXfXjXjXjXfXfXaXfXfXfXfXfXfXfXaXaXiXyXyXyXyXyXtXtXeX+X+XQ.W.W.w.w.W.w.w.w.w.w.w.7.4.4.4.4.4.4.;.-.*.O. . . . .| } [ [ [ [ m m m m m m m m n w % = j 1 :XSXZXZXBXMXMXvXzXzX>X>X^.~.S.S.z.z.h.h.h.z.l.l.l.h.l.&.:.&.:.:.%.%.%.%.%.%.$.$.| | | | } } ` ` ' ",
"= = ; ; ; ; ; ; ; ; ; ; : : : : : : ; ; ; : : : : : : 1 1 1 1 1 1 1 1 1 u i i i j j d k k k k z C C Z Z Z H Z Z D D D D F F F F F F G G F F | | | $.| | G G $.$.$.$.$.$.$.$.$.$.$.W W W Q Q Q Q Q Q ~ ~ ~ ~ ~ ~ ( ( p.p.a.s.s.s.s.s.b.b.b.N.B.B.C.C.C.C.Z.Z.Z.Z.Z.Z.Z.Z.Z.Z.Z.Z.Z.Z.Z.Z.Z.Z.Z.Z.J.J.J.J.J.J.Z.Z.J.Z.Z.Z.G.<XgXuXX.jXGXlXaX9.4.4.o.e O . . . . . O O @ . o 4 $ O A w 5.+XhXjXjXCXCXGXCXCXCXCXVXVXkXkXkXjXfXfXfXsXiXiXtXtXeXQ.Q.W.W.W.T.T.W.Q.Q.Q.W.W.9.-.*.=.4.;.-.=.O... . ................. . . . . . . . .} } [ [ }  .....O... . . . . . .............O.O.O.O.O.O.O.O.O.O.O.O.*.*.*.*.*.*.=.=.=.=.-.;.4.4.4.4.7.7.9.9.9.9.7.7.7.7.7.7.9.w.W.eXiXfXfXjXjXkXkXjXjXjXjXkXkXjXjXjXjXjXjXfXfXaXiXiXiXiXtXtXeXeX+XQ.Q.W.W.W.W.w.w.w.w.w.w.w.7.4.5.5.4.4.4.-.=.O... . . . .} } } [ S S m m m m n v n n S 8 8 j u :.ZXZXBXMXMXMXxXzXzX>X>X^.~.S.S.z.z.h.h.h.h.l.l.l.l.l.:.:.&.:.:.%.%.%.%.%.%.@.$.| | | | } } ` ` ` ",
"= = = = : = = = = ; ; ; ; ; : : ; ; ; ; ; ; ; ; ; ; : : : : > 1 1 1 1 1 1 u i h j j j d f k k k C C C C Z Z Z Z D D D D F F F F F F G G | G | | $.| $.$.W $.$.$.$.$.$.$.$.$.$.$.$.W W Q Q Q Q Q Q Q ~ ~ ~ ~ ~ ~ ( ( p.p.a.s.s.s.s.s.b.b.b.N.B.B.C.C.C.C.Z.Z.Z.Z.Z.Z.Z.Z.Z.Z.Z.Z.Z.Z.Z.Z.Z.Z.Z.Z.J.Z.V.V.V.J.J.Z.J.Z.Z.V.G.<XgXuX .lXGXlXhXeX7.4.{ @ . . . . . . O O o @ & @ . 7 hXpX5.+.3.Q.hXlXlXCXCXCXCXCXVXVXkXgXfXfXfXsXsXiXtXtXtX$XQ.Q.T.T.T.0.0.0.T.W.Q.W.W.0.6.=.=.=.<.;.-.*.O... . ................... . . . . . .} } [ [ [ } |  ....... .| | }  . . . .................O.O.O.O.O.O.O.O.O.O.*.*.*.*.*.*.*.*.*.-.;.4.4.4.6.6.7.7.7.7.7.6.6.6.5.5.6.7.7.Q.yXaXjXjXkXkXkXkXkXkXlXlXlXlXkXkXkXkXkXjXjXfXfXaXaXaXiXtXtX+X+XQ.W.W.W.W.W.W.w.w.w.w.w.w.9.6.4.5.4.4.4.;.-.*.O. . . . . .} [ [ m S m m m m n c v n [ S b j h Y VXVXBXMXMXxXzXzXzX>X>X~.~.S.S.z.z.j.h.h.h.h.h.l.l.l.&.:.:.:.:.%.%.%.%.%.%.$.$.| | | | } } ` ` ' ",
"= % = = = = = = = = = = ; ; ; ; ; ; ; ; : ; ; ; ; ; ; : ; : : < < < 1 1 1 t i h j j j d k k k k C C C C Z H Z D D D D D F F F F F F F F F F G G G G | | G G W W $.$.$.$.$.$.$.$.$.$.W W W Q Q Q Q Q ~ ~ ~ ~ ~ ~ ( ( ( p.a.a.a.s.s.s.s.b.b.N.N.N.C.C.C.C.Z.Z.Z.Z.Z.Z.Z.Z.Z.Z.Z.Z.Z.Z.Z.Z.Z.Z.Z.Z.Z.Z.J.J.J.J.J.J.J.Z.Z.Z.G.sXgXR.X.GXGXlXaXe.+.e 4 . . . . . . . O O O + @ + q q { { e e o.+.e.eXfXkXlXVXCXkXkXgXgXfXfXsXiXiXtXtXtXQ.Q.W.W.T.U.7.7.8.6.6.6.0.0.0.7.6.4.*.*.*.;.;.-.*.O....................... . . . . . . .} } } [ m [ |  ..... . .| } } |  . .......................O.O.O.O.O.O.O.O.O.O.*.O.*.*.*.*.O.=.;.;.;.<.4.4.6.6.6.7.7.6.4.5.4.4.;.-.=.4.w.rXfXjXkXjXjXjXjXjXjXjXfXfXfXjXjXjXjXjXjXfXfXfXjXjXaXiXiXtX+XQ.Q.W.W.W.W.W.w.w.w.w.w.w.w.7.4.4.4.4.4.;.-.*.O.O... . . .} } [ [ S S m n n n v v n n m b c j t vXZXZXMXMXxXzXzX>X>X^.~.K.S.S.z.z.l.j.h.h.h.h.l.l.l.:.:.:.:.:.;.%.%.%.=.%.$.| | | | D S m ` ` | ",
"% % % % % % % % % % % % ; ; - = = ; ; ; ; ; ; ; ; ; ; ; ; ; : : : < < 1 1 1 i j d j d d j k k k z C C C Z H K H T T D D F F F F F F F F F F G G G G | | G G W W $.$.$.$.$.$.W W $.$.W W Q Q Q Q Q Q ! ~ Q Q ~ ~ ( ( ( p.a.a.a.s.s.s.d.b.b.N.N.N.C.C.C.C.Z.Z.Z.Z.Z.Z.Z.Z.Z.Z.Z.Z.Z.Z.Z.Z.Z.Z.Z.Z.Z.Z.J.J.J.J.J.J.J.Z.Z.G.`.sXgX8.<.GXFXhXQ.5.e @ O . . . . . . . O + + 4 4 . e 5.rXeXhXq.{ 2 q o.W.aXfXjXkXkXgXfXfXiXtXtX+XQ.Q.Q.W.T.U.U.U.7.7.8.8.6.7.7.0.0.0.0.7.6.;.O.O.*.-.-.=.O................. . ... . . . . . . . .}  .} [ S [ }  . . . .} } } }  . . . .....................O.O.O.O.O.O.O.O.O.O.O.O.O.O.O.O.O.*.-.;.;.;.4.4.6.6.6.7.7.6.5.5.4.4.-.*.+.-.6.9.eXiXaXiXiXiXiXpXaXaXpXpXaXaXaXaXaXaXaXfXfXfXjXfXjXfXfXiXtX+XQ.Q.Q.W.W.W.W.w.w.w.w.w.9.7.6.4.4.4.<.;.-.=.*.*.O... . . .} } [ S S m n n n n n n n m b c j h :XVXbXvXzXzXzX>X>X^.^.~.~.S.S.z.j.l.j.h.h.h.l.l.:.:.:.:.:.:.:.;.%.%.%.=.%.$...| | D } m m ` ` | ",
"% % % % % % % % % % % % ; ; ; % = - % ; - - ; ; ; ; ; ; ; ; : ; : < < < 1 < u j i j d j k k k k z C C C Z H K K T T D D F F F F F F F F F F F F F G | | G G W W $.$.$.$.$.$.W W $.$.$.W Q Q Q Q Q Q Q Q ~ Q ~ ~ ( ( ( p.a.a.a.a.s.s.b.b.N.N.N.N.C.C.C.C.Z.Z.Z.Z.Z.Z.Z.Z.Z.Z.Z.Z.Z.Z.Z.Z.Z.Z.Z.Z.Z.Z.Z.Z.Z.J.Z.Z.J.Z.Z.G.`.dXgX,.W.GXlXrX5.5.q .     . . . . . O O + @ o & e +.e.yXe o.] ] q @ q n *.W.tXfXfXfXiXiXtXQ.Q.Q.W.T.T.7.8.8.8.6.6.8.8.7.7.0.0.0.w.0.7.7.6.-.....O.*.=.O......................... . . . . . . . . . .} [ [ [ }  . . .} } } } }  ... . .....................O.O.O.O.O.O.O.O.O.O.O.O.O.O.O.O.O.*.-.;.-.-.;.4.6.6.6.7.7.6.5.4.;.;.=.+.+.=.-.4.6.W.eXeXQ.Q.Q.Q.+X+X+XeXrXrXtXtXtXyXyXyXiXiXfXfXfXfXfXfXaXyXtX+XQ.Q.W.W.W.W.w.w.w.w.9.7.6.6.4.4.4.;.-.-.=.=.*.O... . . .} [ [ S m n n n n n n v n m b h j Q VXvXzXzX>X>X>X^.^.~.~.I.S.S.z.z.l.l.h.h.h.l.:.:.:.:.:.:.:.:.%.;.;.;.=.*.O...| } } } m ` ` ` ..",
"% % % % % % % % % % - - - - % % % % % % - - % % : - ; ; ; : : ; ; < < < < < 8 j d j d j j k k k z C C C Z Z K K T T D D F F F F F F F F F F F F G G $.$.G G $.$.W W $.$.$.$.$.$.W W $.W Q Q Q Q Q Q Q Q ~ ~ ~ ~ ( ( ( p.a.s.a.a.s.c.c.b.N.N.N.N.C.C.C.C.Z.Z.C.C.Z.Z.Z.Z.Z.Z.Z.Z.Z.Z.Z.Z.Z.Z.Z.Z.V.J.J.J.Z.Z.Z.Z.Z.Z.Z.Z.F.gXsXX.tXGXkX9.5.4.q       . . . . . . O + 4 - 4 w 5.hXaXFX).3.+.] + O @ 7 m *.0.Q.qXQ.Q.Q.T.T.0.6.6.6.;.;.2.6.6.6.6.6.7.7.0.W.W.W.0.7.7.4.=... ...O.*.O......................... . . . . . . . . .} } [ [ [ }  . . .} [ [ [ }  . . . .................................O.O.O.O.O.O.O.O.O.O.*.*.-.-.;.-.;.4.4.6.6.7.7.6.5.4.;.=.O.O.O.O.+.=.*.5.7.9.7.7.7.7.7.9.e.Q.+X+X+X+XeXeXeXeXeXeXtXyXfXfXfXfXfXfXiXtXeXQ.W.W.W.W.W.w.w.w.7.6.6.6.4.4.4.;.-.-.=.=.*.*.O....... .[ [ S m n n n v v v v v S b h j h xXxXdX>X>X^.^.~.~.~.~.S.I.S.z.l.l.l.l.l.l.l.l.:.:.:.:.:.:.:.;.;.;.;.*.*.O...| } } [ _ m ` ` ..",
"% & $ $ & & $ & % & % % - - % % % % - % - % % - % % ; ; ; ; ; - ; ; ; < < < < s i i d d j k g k k C C C C Z Z Z K K Z D F F F F F F F F F F G G G G W G G G | | W W $.$.| $.$.W W W W W Q Q Q Q E Q Q Q ~ ~ ~ ~ ( ( p.p.a.a.a.a.s.c.c.b.f.N.N.N.B.B.B.C.C.C.C.C.Z.Z.C.C.C.C.C.C.Z.Z.Z.Z.Z.Z.Z.Z.Z.Z.J.J.V.V.Z.Z.Z.Z.Z.G.`.gXsX=.CXCXjX5.4.o.{ 4 .   . . . . . . O + 4 & [ +.wXhX+.] o.] ] q q @ X + % 5 m ;.6.6.7.0.7.6.4.;.;.;.;.;.;.;.;.;.;.4.6.6.7.0.W.w.w.0.7.6.*. .| ..O.*.O......................... . . . . . . . .| } } [ [ } }  . . .[ [ m S [ }  . . . . . . .............................O.O.O.O.O.O.O.O.*.*.-.-.;.;.;.;.4.5.6.7.7.6.5.4.;.=.O.....O.O.O.+.=.;.5.5.5.5.7.9.w.e.+X+X+X+X+X+X+X+X+X+X+XeXeXtXtXiXaXaXaXiXiXtXeXQ.W.W.W.W.W.w.w.7.7.7.6.4.4.4.;.-.-.=.*.*.*.O.O..... .} [ [ S m S b v v v e e S b j j h :XdX>X^.^.^.~.~.~.~.S.S.S.S.z.l.l.l.l.h.h.h.&.:.:.:.:.:.:.;.;.;.=.*.O.O.O... .} } _ _ _ ` ` ..",
"$ $ $ $ $ $ $ $ $ & & & $ $ $ $ % % % - - - % % % % - - - - - ; ; ; ; < < < 8 s s s d d j k g k k C C C C Z Z Z K K D D D F F F F F F F F F G G G G G G G G | | W W G G | | $.$.W W W W Q Q Q Q E Q E Q ~ ~ ~ ~ ( ( p.p.a.a.a.a.s.c.c.b.f.N.N.N.B.B.B.C.C.C.C.C.C.C.C.C.C.C.C.C.C.C.Z.Z.Z.Z.Z.Z.Z.Z.J.J.J.J.Z.Z.Z.Z.Z.G.OXgX%X0.CXlXyX+.o. .n 4 .   . . . . . O + @ 4 4 e e.Q.hXFXwXq.hX3.3.) 4 - X X $ 5 c b ` *.;.;.;.=.*.*.*.*.*.*.*.=.*.;.;.;.2.6.7.9.w.w.0.9.7.*. .|  .O.*.O......................... . . . . . . . .} } } [ } } }  . .} [ S m m m [ [ } }  . . . . . . . .................................O.O.O.*.-.-.-.-.;.;.;.4.4.6.7.6.5.4.;.=.O. . ...X.X.O.+.=.-.4.6.9.9.9.9.e.W.+X+X+X+X+X+XeXeX+X+X+XeXeXtXyXyXyXyXtXtXtXtXtXeXQ.W.W.W.W.W.W.w.7.6.4.4.4.4.;.-.*.*.*.O.O.O.O.O... .} } [ [ S S n v e e e A c S j i E.dX^.^.~.~.~.K.I.S.S.S.S.S.z.l.l.h.h.&.&.&.&.:.:.:.:.:.;.;.;.=.O.X......... .} _ n n m ` ` ` ",
"@ @ & & & & @ @ $ @ & & & $ $ $ $ $ & & - & & & % % - - - - - ; ; ; ; ; < < 8 s s s d d j k g k k C C C C Z Z Z K K D D D F F F F F F F F F G G G G G G G G | | W G G G | | $.$.W W W W Q Q Q Q Q Q E Q E ~ ~ ~ ( ( p.p.a.a.a.a.c.c.c.c.c.N.N.N.B.B.B.C.C.C.C.C.C.C.C.C.C.C.C.C.C.C.Z.Z.Z.Z.Z.Z.Z.Z.Z.Z.Z.Z.Z.Z.Z.Z.'.B.OXsX@XtXCXkXrX5.-.4. .[ + . . . . o O O @ & 4 e o.e.eXkXo.q.q ] B o.o.o.4 & X X o % ; 8 m ........X.O.O.O.O.O.O.O...*.*.;.;.;.4.6.7.9.9.9.7.*. .}  .O.*.O........................... . . . . . . .} } } } [ [ }  . .} [ m m n n m S [ [ } } } } } }  . . . . . .................................O.*.=.=.=.=.-.;.4.4.7.6.5.4.;.=.O. . ...O.O.O.O.O.+.4.6.w.+XW.+X+X$XrXrXrXrXrXrXrXrXeXeX+X+XeXtXyXyXtXrXrXeXeXtXtXtXeXQ.W.Q.W.W.W.w.7.7.6.4.4.4.;.-.*.*.*.*.O.O.O.O.O... .} { [ [ S n v e e n { b D x t I.>X~.~.~.~.S.S.I.S.z.l.l.l.l.l.h.h.h.&.&.&.:.:.:.:.:.;.;.;.=.=.O... . . . .} _ _ n n _ ` ` ..",
"$ $ & & & & $ $ $ $ & & $ $ $ $ & & - - - - % % & $ - - - - - ; ; ; ; ; < < < s u s i d j k g g k V C C C Z H H K H Z Z D F F F F F F F F F G G G G G G G G | | $.$.W W W W $.$.W W W W W W Q Q E E E Q ~ ~ ~ ~ ( ( p.p.a.a.a.a.s.c.c.c.c.N.N.N.B.B.C.C.C.C.C.C.C.C.C.C.C.C.Z.Z.Z.C.Z.Z.Z.Z.Z.Z.Z.Z.Z.Z.Z.Z.Z.Z.Z.Z.Z.m.*XsXR.fXCXjXqX5.-.7.{ [ 4 . . . . O O + & 4 4 { 7.+.rXGXlXo.pX3.pX] ).o.e e & o X X $ 3 0 b m S [ } ..X........... .....O.O.O.=.<.5.6.7.7.6.*. .}  .O.*.O......................... . . . . . . . .} } } } [ [ } } } } [ S n v n m S [ [ [ [ [ [ } } } } } }  . ................... . . . . . ...O.O.O.*.+.*.=.-.;.4.6.6.5.4.;.=.O. . . .O.O.O.O.O.O.;.6.W.yXyXiXaXaXiXiXiXiXiXiXiXiXyXrXeX+XeXtXyXyXrX+X+X+XeXeXeXtXtXeXQ.W.w.7.7.6.7.7.6.4.4.4.;.-.=.*.*.*.O.O.O.O.O.O..... . .} [ S n v e n S b D b 1 A.:X~.~.~.S.S.S.S.z.l.l.l.l.l.h.h.h.&.&.#.:.:.:.:.:.:.;.;.;.-.*.O. . . . .{ [ _ _ n n _ ` ` ..",
"@ @ @ @ @ @ @ @ @ @ & & @ @ @ @ @ @ & & & & & & $ $ & & - - - - ; ; ; ; < < < s u s i d j j k g k C C C Z Z H H K H Z Z F F F F F F F F F F G G G G G G G G G G G G | $.| | W $.W W W W W W E Q Q E E E E ~ ~ ^ ( ( p.p.a.a.a.a.s.c.c.c.c.N.N.N.B.B.C.C.C.C.C.C.C.C.C.C.C.C.Z.Z.Z.C.Z.Z.Z.Z.Z.Z.Z.Z.Z.Z.Z.Z.Z.Z.Z.Z.G.M.*XgX$XlXlXaXeX4.5.+.+.{ q   . . . O + @ - 4 7 { +.e.pXjXo.2 2 B 2 ] ] o.+.{ e 3 o X o & 6 w n m S S S { }  .| | | } | |  .}  ...+.=.-.;.;.-.O. .[ [  ............................. . . . . . . . .} } [ } } } } } } } [ S n n m S [ } [ [ S S S [ [ [ [ { } }  . . . . ........... . . . . . . .........O.O.O.*.-.;.4.5.5.4.;.=.O. . . .O.O.O.O.*.O.-.4.Q.iXlXkXkXlXjXfXfXfXfXiXaXaXaXaXaXaXiXyXyXiXyXrX+X+XeXeXeXeXeXQ.Q.Q.w.6.6.4.6.6.6.4.4.4.;.-.=.=.=.*.*.*.O.O.O.O.O.O... . .} } S n n n n b D b t A.:X~.~.S.S.z.l.l.l.l.h.h.h.h.h.h.h.#.#.#.#.:.:.:.%.%.%.;.*.*.*.O. . .{ { [ _ n _ n _ _ ` ` ` ",
"@ @ @ @ @ @ @ @ @ @ & & @ @ @ @ @ @ & & & & & & $ $ & & - - % - ; ; ; ; < < < < u i i i j j d g k k C C Z Z Z Z K H Z Z F F F F F F F F F F F F F G G G G G G G G G | | | | $.$.W W W W W W W Q Q E E E E ~ ~ ^ ( ( ( p.a.a.a.a.s.c.c.c.c.N.N.N.B.B.B.C.C.C.C.C.C.C.C.C.C.C.C.Z.C.C.Z.Z.Z.Z.Z.Z.Z.Z.Z.Z.V.Z.Z.Z.Z.Z.V.B.*XgXsXCXlXaXrX7.5.4.+. .[ . . . . O + + & 4 e [ 5.e.pXhXlX3.] FX] lX2 wXo.3. .e 4 O O 4 6 w n m S m n v n m m m m m m _ S m [ }  ...O.+.+.O. .S v v [ [ } }  . ................. . . . . . . . .| } [ [ } } } } } } [ [ m n m [ [ } } [ S m n n S S [ [ { { } } }  . . . . . . . . . .}  . . . . . . . .....X.O.=.-.<.4.4.4.;.=.O. . . .O.O.O.O.O.O.*.-.6.Q.jXjXkXkXkXjXjXkXkXkXjXjXjXfXfXfXfXaXiXyXtXtXrXrXeXeXeXQ.Q.Q.Q.Q.w.7.6.4.4.4.4.4.4.;.-.*.=.=.=.*.*.O.*.*.O.O.O.O.O.O.X. .| } { { A n m D b h :.^.I.S.I.z.z.j.l.l.h.h.h.h.h.h.h.#.#.#.#.#.#.#.#.%.*.*.*.*.*.O. . . .{ { _ n n e n n _ _ ` ` ",
"+ + + + + + + + @ @ @ @ @ @ @ @ @ @ & & & & & & $ $ & & - - % % ; ; ; ; < < < < u u i i j j d g k g C C Z Z Z H K T Z Z F F F F F F F F F F F F F F G G G G G G G G | | | | $.W W W W W W W W E E Q E E E ~ ~ ~ ^ ( ( p.a.a.a.a.s.s.c.c.N.N.N.N.B.B.C.C.C.C.C.C.C.C.C.C.C.C.C.C.C.C.Z.Z.Z.Z.Z.Z.Z.Z.Z.Z.V.V.V.Z.Z.C.V.B.*XgXkXCXjXaXe.5.+.-.+.O. .o . . . O + + & 4 n  .9.wXpXhX] q.B ] B ] 2 3.o.q.+.+.[ q @ 4 7 e A S [ S n n v v c b v b b n n n v n [ {  . . . .{ v w w w c v n m [  . . . . . . . . . . . . . . . .| } [ [ } } } } } [ [ S n n m [ } } [ S m n v v n m S [ } { } } } } } }  . . . . .} } } } } } } } }  . . . . .X.O.=.-.;.;.;.-.=.O. . . .O.O.O.O.O.O.*.=.-.4.Q.yXfXjXfXfXfXfXkXlXlXlXlXkXkXjXjXjXjXfXaXiXyXyXyXeXeXQ.Q.W.W.W.w.9.6.4.5.4.4.4.4.;.-.=.*.*.*.*.*.*.*.*.*.*.*.O.O.O.O.X. . . . .{ { } D x j #.^.I.S.S.z.j.l.l.h.h.#.#.#.#.#.h.#.#.#.#.#.#.@.@.@.@.@.@.O... . . .{ [ _ _ e e e e n _ _ ` ` ",
"+ + + + + + + + @ @ @ @ @ @ @ @ @ @ & & & & & & & & % % - - % - ; ; ; ; < < < < u u i i j j d g k g C C Z Z H H K K D D F F F F F F F F F F F F G F G G G G G G G G | | | | $.W W W W W W W E E W Q E E E ~ ~ ~ ^ ( ( ( a.a.a.a.s.s.c.c.N.N.N.N.B.B.B.C.C.C.C.C.C.C.C.C.C.C.C.C.C.C.Z.Z.Z.Z.Z.Z.Z.Z.Z.Z.V.V.V.V.Z.V.G.B.*XgXCXCXjXaXeX9.-.;.o.4. .@ . . O O + @ @ 4 e +.5.eXeXhXhX).pX3.q.B wXB 3.3.3.3.+.o.q 4 7 e A A [ { [ S n v c c c c b b n n v v n A [ { { [ n w 6 6 6 7 0 0 0 c m [ } } }  . . . . . . . . . . .} } [ [ } } } } } } [ m n m [ } [ [ S m n v w w v n [ [ } } } } } } [ } } }  .}  .} [ [ [ [ [ [ [ [ } } } }  . .X.O.=.-.;.;.;.=.O. . . .O.O.O.O.O.*.*.*.O.*.<.9.+XaXiXrXrXiXfXjXlXlXCXlXCXlXlXlXlXlXkXjXfXfXaXtXeXQ.W.W.W.w.w.9.7.6.4.4.4.4.4.;.-.=.*.*.*.*.*.*.*.*.*.*.*.*.*.*.O.X.O..... .{  .} S x x @.^.S.S.S.z.j.j.l.h.h.#.h.h.h.h.#.#.#.#.&.#.#.@.@.@.@.@.@... . .{ { [ _ _ e n e e e c n _ ` ..",
"+ + + + + + + + + + @ @ @ @ @ @ @ @ @ @ $ @ $ $ $ $ & & & & & - - - ; ; ; < < < u u u i d d d g k k z z C Z H H K K D D F F F F F F F F F F F F F F F F F F G G G G G G F F Y W W W W W W W W Q Q Q E E E ~ ~ ~ ^ ( ( ( a.a.a.a.s.s.s.c.N.N.N.N.B.B.B.B.C.C.C.C.C.C.C.C.C.C.C.C.C.C.C.C.C.C.C.Z.Z.C.Z.Z.V.V.Z.Z.C.C._.M.OXgXkXCXjXpXeXw.5.-.+.o.{ q   . O O O @ @ 4 _ o.e.eXe.hXq B 2 B B B 2 . B q o.q.3.5.3.e 4 7 w e [ { }  . . . .[ m m m _ [ [ [ _ S { [ S n v w 7 6 3 3 3 & & 5 7 c n [ [ } { { } }  . . . . . . . .{ { [ [ { } } } { [ m v m [ [ [ m n v v w w w w n { } } } } { [ [ [ [ } } } } } [ [ S m m m m [ [ [ [ [ [ [ }  ...O.*.-.;.;.*... .}  .O.O.*.*.*.*.*.*.*.*.O.-.7.Q.w.w.w.w.eXfXjXlXCXCXlXlXkXlXlXkXkXkXkXjXfXfXaXtXQ.W.9.9.7.7.7.6.<.<.<.<.4.;.-.=.+.+.*.*.=.=.=.=.*.*.*.=.-.-.*.O.O.X.O... . .| | b x M ~.S.z.z.l.l.h.j.h.h.#.#.#.#.#.#.#.#.#.#.#.@.@.@.@.@.@..... .} { { [ _ _ ) e e e e e _ _ ` ..",
"+ + + + + + + + + + @ @ @ @ @ @ @ @ @ @ @ @ @ @ @ $ & & - & & - - - ; ; ; < < < u u u s d d d g k C z z C Z H Z Z Z D D F F F F F F F F F F F F F F F F F F G G G G F F F F W W W W W W W W W Q Q Q E E E ~ ~ ~ ^ ( ( ( a.a.a.a.s.s.s.c.N.N.N.N.B.B.B.B.C.C.C.C.C.C.C.C.C.C.C.C.C.C.C.C.C.Z.Z.Z.C.C.Z.Z.Z.V.Z.Z.C.Z.J.B.*XgXkXCXjXyXrXe.9.<.<.+.{ [ . . O O + @ @ 4 _ o.9.e.rXlX).pX] ] q.3.wXwXB wXB pXo.e.5.o.e 4 6 7 q w _ {  .O.O.O. .}  . . . . . . .{ { A n w w 7 7 5 3 3 & & 3 6 7 w v n S [ [ [ }  . .}  . . . . .{ { [ [ { } } } { [ m n m S S n v w w w w w w v S } } } } } [ S m m S [ } } } [ m m m m m m m m m S S S S [ [  . . ...*.-.-.O. .} [ } ..O.O.*.*.*.*.*.*.*.X.O.-.7.9.9.9.9.7.+XaXfXlXlXlXlXkXjXfXfXfXjXkXjXjXfXfXfXtXQ.w.9.6.6.6.6.4.<.<.<.4.;.-.=.+.+.*.+.*.*.=.*.*.*.*.*.=.=.*.O.O.O.O...+.O...| b x x ~.I.z.z.z.l.j.l.h.h.#.#.#.#.#.#.#.#.#.#.#.@.@.@.@.@...| } } { { { _ _ _ e e e e e e _ _ ` ..",
"+ + + + + + + + + + + + @ @ @ @ @ @ $ $ @ @ @ @ @ $ & & - - & & - - ; ; ; < < < < u u s d d d g k C C C C Z H Z Z Z Z D F F F F F F F F F F F F F F F F F F G G G G F F F F W W W W W W W W W E W Q E E E ~ ~ ~ ^ ^ ^ ( a.a.a.a.s.s.s.b.N.N.N.N.B.B.B.B.C.C.C.C.C.C.C.C.C.C.C.C.C.C.C.C.C.C.Z.Z.C.C.Z.Z.Z.V.V.V.C.C.V.m.*XVXCXCXfXyXrXe.9.<.+.+. .[ O . . O + @ @ 4 e { 7.e.rXrX2 2 ] ] o.B B 2 2 3.2 3.] 3.rXq.+.e 7 6 4 6 w _ }  .-.-.-.+... .} } } } { { A n w w w 0 7 5 3 3 & % % ; ; 3 7 w v n m [ [ }  . . . . . . .} } [ [ { } } } { [ m n m m n v w w 0 w w w w S }  .} } } [ S n n n m m [ [ S S m m m m n n n n n m m m m m m } }  . .O.*.*.O. .[ [ }  ...O.*.*.*.*.*.*.O.O.X.O.<.5.6.6.6.=.6.Q.iXjXkXlXlXjXfXtXQ.+XtXiXaXfXfXfXfXaXtXQ.w.6.6.6.5.4.<.<.<.4.;.-.=.+.+.O.O.O.O.O.O.*.-.*.*.*.*.=.=.=.=.=.+.+.+.O...m x x I.I.S.z.z.l.h.l.l.h.h.#.#.#.#.#.#.#.#.#.#.@.@.@.@...| } } } _ _ _ _ _ e e e e e e e _ _ ` ..",
"+ + + + + + + + + + + @ @ @ @ @ @ @ $ $ $ $ $ $ $ $ & & - - & % - - ; ; ; : < 1 u u u s j j d g k k C C C Z Z Z K K D D F F F F F F F F F F F F F F F F F F G G G G F F F F W W Y Y W W W W W E W Q E E E Q ~ ~ ^ ^ ^ ( p.a.a.a.s.s.s.c.N.N.N.N.B.C.C.B.C.C.C.C.C.C.C.C.C.C.C.C.C.C.C.C.V.V.C.C.C.C.C.Z.Z.V.V.V.C.C.V.m.*XVXCXCXfXpXeXw.5.+.+.+. .{ @ . . O O @ @ 4 e [ 5.9.e.pX).hXwXq.] 3.q.3.wXB wXB ).] jXrX5.4.{ w 4 4 3 w _ } -.-.;.-. .} } } { { [ [ n e w w w 0 8 6 3 3 & % $ $ + $ & 3 8 w v n [ { }  . . . .} } } } { { }  .} } { [ m n n n n w w 7 7 7 7 n n [  . .} } } [ m v v c n m m m m S m m n n n n n n n n n n n n m [ } }  . .O.O... .[ [ [  ...O.*.*.*.*.*.*.O.O.X.X.O.<.<.<.<. .=.6.Q.iXjXkXkXfXyXW.6.4.7.9.w.Q.tXaXfXfXaXtXQ.0.7.5.5.<.<.<.<.4.;.-.*.O.O.O.O.O.O.O.O.O.=.-.*.*.*.=.=.=.=.-.=.+.=.*.*.| M x I.I.S.z.z.j.h.l.h.h.#.&.#.#.#.#.#.#.#.#.@.@.@.@.| | } } _ _ _ _ _ _ _ e e e e e e c _ _ ` ..",
"+ + + + + + + + + + + + @ @ @ @ @ @ + + + + + + + + @ @ & & & - - - - ; ; : < 1 1 u u u j j j g k k k k C Z Z Z Z Z Z D D F F F D D F F F F F F F F F F F F G G G G F F F F W W Y Y W W W W W E W Q E E E E ~ ~ ^ ^ ^ ( p.a.a.a.a.s.s.b.N.N.N.N.N.B.C.C.B.B.V.V.V.V.C.C.C.C.C.C.C.C.C.C.V.Z.C.C.C.C.C.Z.V.Z.V.V.C.C.Z.m.*XVXCXCXfXyX+Xw.5.<.+.+. . .7 . O O o & @ 3 e O.+.q.rXq.] q B 2 . 2 2 B 2 2 B 2 o.B FXrXe.e.-.o.n 7 e n [ { =.=.=.=.} } } } [ [ S n v w w w w w w 7 6 3 3 ; & $ $ + $ - 3 7 w w n S [ { } } } } } } } }  . . . .{ [ [ m n n n v w 7 3 4 4 3 3 e [  . . . .{ [ n e w c c n m S S S m m n n n n c c c v n n n n m [ } } } }  . . .} [ [ }  ...O.*.*.*.*.*.*.O.O.O.O.O.O.-.;.;.=...+.5.Q.yXiXaXaXeX7.;.<.4.7.w.w.0.W.Q.eXtXyXeXQ.W.7.5.<.<.<.<.4.4.;.-.=.+.O.O.O.X.X.X.O.*.-.=.*.*.*.=.=.=.=.=.=.=.-.;.@.M x I.I.S.z.l.j.l.l.h.h.#.#.#.#.#.#.#.#.#.#.@.@.@.| | } ` ` _ _ _ _ _ _ ) e e q q e e _ _ _ ` ..",
"+ + + + + + + + + + + + @ @ @ @ @ @ @ + @ @ + @ + + $ $ & & & - - - ; ; ; : < < < u i i j j j k k k k k C Z Z Z K K Z D D F F F D D F F F F F F F F F F F F G G G G W W F G W W Y W W W W W W E W W Q E E E ~ ~ ^ ^ ^ ( p.a.a.a.a.s.s.b.N.N.N.N.N.B.C.C.B.B.V.V.V.V.C.C.C.C.C.C.C.C.V.V.V.V.C.C.Z.C.C.Z.Z.Z.V.V.C.C.Z.m.:XVXCXCXaXrXe.9.4.-.+.O. . .w . O O o 4 - 7 n ..+.9.e.pXpXhXwX3.3.] 3.3.o.).2 o.2 q.jXeXeXe.4.+. . ._ [ [ } ..O... . .} [ [ [ _ n n v w w w w w w w 7 7 7 5 3 ; - & $ $ & 3 7 7 w w v S [ [ [ [ } } } }  . . . .} [ [ [ n n v v w 6 & $ $ + & 7 n {  . .} { [ n w w c v n [ [ m m n n b v c c c c c c c c b n m m [ } } } } [ [ [ [ [ }  . ...O.*.*.*.*.O.O.O.O.O.O...O.-.;.=.X.O.<.7.W.tXiXyXQ.7.<.=.-.4.6.6.4.4.4.0.W.Q.+XeX+XW.7.5.4.4.<.4.4.4.;.-.=.+.O.O.X.....O.O.=.=.*.*.O.*.*.*.*.+.+.=.-.;.| x x I.I.S.z.l.l.l.l.l.h.#.#.#.#.#.#.#.@.@.@.@.@.@.| } ` _ _ _ _ _ _ ) ) e e q q q q e _ _ _ ` *.",
"+ + + + + + + + @ @ + + @ @ @ @ @ @ @ @ @ @ @ @ + + $ $ & & & - - - ; ; ; : < < < u u s s j j k k k k k C C Z Z K K Z D D F F D F F F F F F F F F F F F F F G G G G G G G F G W G G W W W W W W W W Q E E ~ ~ ~ ^ ^ ^ ( p.a.a.a.a.s.s.b.N.N.N.N.N.B.C.C.B.B.V.V.B.B.C.C.C.C.C.C.C.C.V.V.V.V.C.C.Z.C.C.Z.Z.Z.V.V.C.C.V.M.:XVXCXCXaXe.0.7.5.<.+.+. . .{ . o @ O 6 7 e _ { o.e.rXq.o.2 ] B B 2 B 2 2 2 2 ] 2 jXlXaXpXqXw.7.4.-. .{ { { }  .} { [ _ _ _ n n n v v w w w w w w w w 0 0 7 6 5 3 ; & $ $ & ; 3 3 6 0 w n m S [ { { } { }  . . .{ [ S [ [ n v w 7 3 $ + + + $ 3 w { } } } { [ n w w c n m [ [ m m n b c v c c c c c c c c c n n m S S [ [ [ [ S m m [ {  . ...O.*.*.*.O.O.O.O.O.O.O.X...O.-.*.O. .-.4.6.W.yXeXW.6.<.*.=.-.<.<.<.-.*.*.;.4.0.Q.Q.W.w.9.7.4.<.4.4.4.4.;.-.=.O.O.X.......O.*.=.=.=.*.O.*.*.+.+.+.+.=.;.| x a I.I.S.z.l.l.l.l.l.h.h.h.#.#.#.#.#.@.@.@.@.@.| } } _ _ _ _ _ _ _ e e e e q q q q q _ _ ` ..*.",
"+ + + + + + + + @ @ + + @ @ @ @ @ @ + @ @ @ @ + @ + @ $ & & & - - - ; ; ; < < < < < u u s j j k k k k k C C Z Z Z Z Z Z D F F F F F F F F F F F F F G G F F G G G G G G G G G G G G W W W W W W W W E E E E ~ ~ ^ ( ^ ( p.p.a.a.a.s.s.b.N.N.N.N.N.B.B.B.B.B.V.V.V.V.C.C.C.C.C.C.C.C.V.V.V.C.C.C.Z.C.C.Z.Z.Z.V.V.C.C.B.B.,XkXCXlXyXe.e.9.9.9.+.+.o. . .. o @ + q q [ [ { o.e.aXpXhXq.q.wX] wXB wXq.o.hX2 +.hXhXaXaXeXyXeX6.-.O... .[ [ [ [ _ _ _ n n n n n n v e w w w w w w w 0 0 q 7 7 7 6 3 & $ $ $ % % ; 3 6 0 w v n S [ { { }  . .} [ [ S S [ S v q 6 ; & & % % - ; 6 v { { { [ S v v v n n [ { [ m m n c c c c c c c c c c c c v n m m m m S S m m n n S {  . .....O.O.O.O.O.O.O.O.O.O.X.....+.O.O.X.+.-.4.7.Q.Q.w.6.<.O.O.=.<.4.4.=.O.S | =.6.6.7.w.W.e.9.6.4.<.4.4.4.4.;.-.=.O.O.O.O...O.O.*.*.*.*.*.*.=.*.+.+.O.=.%.@.m x I.I.S.z.z.l.l.l.l.h.h.#.#.#.#.#.@.@.@.@.@.| | } } _ _ _ _ _ _ ) ) e q e e q q q q e _ ` ..*.",
"+ + + + @ @ @ @ @ @ @ @ @ @ @ @ @ @ $ @ @ @ $ $ @ @ & & & & & & - - ; ; ; ; < < < < u u s j d k k k k k C C Z Z Z Z Z Z D F F F F F F F F F F F F F G F F F | | G | G G F F G G G G W W W W E E W E E E E E ~ ~ ^ / ^ ( p.p.p.a.a.s.s.b.N.N.N.N.N.B.B.B.B.B.V.V.V.V.C.C.C.C.C.C.C.C.C.V.V.V.C.C.Z.C.C.Z.Z.Z.Z.Z.C.C.V.M.sXCXCXkXyXeX+Xw.9.9.<.+... .[ 4 o @ 7 e  .-.5.O.+.e.jXwX] pXB B B 2 2 ] 2 B 2 2 +.FXlXpXeXjXe.eXe.7.4.+. .[ { [ n n n n n n v v n v v e e e w w w w w w q q q 0 0 q 5 ; & $ $ $ $ $ % ; 3 7 w w v m [ [ [ [ { { [ [ S [ [ S v 7 3 % & ; 6 8 4 - ; 8 [ { S A n v v n n S { } [ S n v v w w w w w w w c c c c n n n m S S S S m n n m m [ }  . . ...O.O.O.O.O.O.O.O.X... ... . .X...X.-.4.6.0.w.9.6.<.O.O.=.=.4.6.6.<.| } S m X.-.6.6.7.9.7.6.4.;.4.4.4.4.;.-.=.+.O.O.O.O.O.O.*.*.*.*.*.*.*.+.+.O.*.%.@.D x I.I.S.z.z.l.l.l.l.h.h.#.#.#.#.#.#.@.@.@.@.| | } [ [ _ [ _ _ ) ) ) ) e e q e q q e e _ ` ..*.",
"+ + + + @ @ @ @ @ @ @ @ @ @ @ @ @ @ @ @ + + + + @ @ @ @ & & & & - - ; ; ; ; < < < < < u s d j k k k k k C C Z Z Z Z Z Z D F F F D D F F F F F F F F F F F F | | | | | F F F G G G G W W W W W W E E Q E E E ~ ~ ^ / ^ ( p.p.p.p.a.s.s.b.N.N.N.N.N.B.B.B.B.C.V.V.V.V.C.C.C.C.C.C.C.C.C.C.V.V.V.V.Z.C.C.Z.Z.Z.Z.Z.V.V.B.M.gXCXlXjXaXyX+Xw.7.5.4.+.o. .{ 7 O & w _ O.5.7.<.4.e.pXFXwX3.wX] wX] FXB wXo.q.q.. KXpXjXaXeX+XeXe.w.0.5.<.+. .{ _ n _ _ n n n v v v e e e e w w w w w 0 q w w w w w q 5 3 & & $ $ $ $ % % 3 5 7 w w n n S [ [ [ [ [ [ [ [ S v 8 3 % ; 6 w v 4 - ; 8 A A v e w w w v n S { } [ S n v v w w w w w w w c c c c n n m S S S S S S m m m m [ }  . . . ...........O.O.O..... ..... . . .X.=.<.6.9.9.7.5.<.X.X.*.=.<.4.6.6.=.O.} m v } -.7.4.6.6.6.5.<.;.;.<.<.;.-.-.=.=.=.*.O.O.O.O.*.*.*.*.*.*.O.X.X.O.%.%.M x I.S.S.z.z.l.l.l.l.h.h.#.#.#.#.#.#.@.@.@.| } } } [ { { _ ) ) ) ) ) ) e e q q e e e e _ ` ..*.",
"+ + @ @ @ @ @ @ @ @ @ @ @ @ @ @ @ @ @ @ + + + + @ @ @ @ & & & & - - ; ; ; ; < < < < < u s d j g k k k k C C Z Z Z Z Z Z D D F F D F F F F F F F F F F F F F | | | | | F F F G G G G W W W W W W E E Q E E E ~ ~ ^ ^ ^ ( ( p.p.p.a.s.s.c.N.N.N.N.N.B.B.B.B.C.V.V.V.V.C.C.C.C.C.C.C.C.C.C.V.V.V.V.C.C.Z.Z.Z.Z.Z.Z.V.V.B.G.gXCXlXkXhXrXe.w.5.<.4.+.o. ...w & 4 _  .<.w.9.7.7.e.pXrX3.3.3.] 2 2 B o.. 2 2 2 q GXjXrXaXeXrX+Xe.Q.+Xe.9.5.-. .{ [ n A n n n v v v e e e e e e w w w w w w w w w w w q 6 ; & & & $ $ $ $ % ; 3 6 7 w w n m [ [ [ [ [ [ [ S v 8 3 % ; 6 w v ; - ; 9 w w 0 9 8 8 8 0 n S { } { S n v v w w w w w w w c c c c n n m S S S S m S m A m m S [ }  . . ...........X.X.O... . . . . . . ...O.-.4.6.7.6.<.=.| X.O.*.;.<.4.6.6.;.O. .v n S X.<.4.4.<.4.5.<.;.-.-.-.-.-.-.-.-.-.-.*.O.O.*.*.*.*.*.*.+.+.X...| @.M x I.S.S.z.z.l.l.l.l.h.h.#.#.#.#.#.#.@.@.@.| } } [ { { _ ) ) ) ) ) ) ) e e q q q q e c _ ` ..*.",
"+ + @ @ @ @ @ @ @ @ @ @ @ @ @ @ @ @ @ @ @ @ @ @ @ @ @ @ & & & & - - - - ; ; < < < < s s s j k k k k C C C C Z Z Z Z Z Z D F F F D D F F F F F F F F F F F F | | | G G G G | G G G G W W W W W W E E Q Q E E ~ ~ ^ ^ ^ / ( p.p.p.a.s.s.c.N.N.N.N.N.B.B.B.C.C.V.V.V.V.C.C.C.C.C.C.C.C.C.C.C.C.C.V.C.C.Z.V.Z.Z.Z.Z.Z.V.B.G.gXCXlXlXhXe.e.w.7.-.4.+... .+.e 4 7  .+.5.Q.w.e.e.qXeXjXpX3.] hX2 wXB wX2 wXo.o.q.lXhXpXe.eXiX+Xe.eXyXeXe.0.7.-. .{ n A A n e e e e e e w e e e w w e e e w w w w w w 0 q 6 3 3 ; & % $ $ $ % % 3 3 6 7 w n S [ [ [ [ [ [ S c 7 3 $ $ ; 6 8 5 - ; 9 0 9 6 5 5 3 5 8 n S { } [ S n v v w w w w w w w c c c c n n m S m m m n m m A A m m [ [ }  . . ..... . .....O... . . . . . . . .O.=.<.4.5.4.,.=.| | X.O.=.;.<.4.4.4.<.-.} S v w *.-.<.;.<.5.5.<.-.=.=.-.-.-.;.;.-.-.-.=.*.*.*.*.*.*.*.O.+.X.| | @.x x I.S.S.z.z.l.l.l.l.l.h.&.#.#.#.#.@.@.@.| | } } [ [ { ) ) ) ) ) ) ) e e e q q q q e c _ ` ..*.",
"+ + @ @ @ @ @ @ @ @ @ @ @ @ @ @ @ @ & @ & & @ @ @ @ & & & & & & - & & - ; ; < < < < < 8 s d d g k k g g C C Z Z Z Z Z Z D D D D F D F F F F F F F F F F F F | | G G G G | | | G G G W W W W W W E E Q Q E E ~ ~ ^ ^ ^ / ( p.p.p.a.s.s.c.N.N.N.N.N.B.B.B.C.C.V.V.V.V.C.C.C.C.C.C.C.C.V.C.C.C.C.V.C.C.Z.Z.Z.Z.Z.Z.Z.V.m.D.gXCXCXlXhXe.e.w.7.<.5.-... .+.n w n ..-.7.eXrXyXqXe.jXhX2 2 ] B 3.2 ] B 2 . 2 q wXhXjXwXaXyXrXQ.w.e.eXeXeXeXe.w.5.=.+. .n v n v e e e e v e v v e e e e e e w w e e w w w q 7 7 3 3 3 & % % % % & % 3 6 0 w v n S [ [ [ [ S v 7 3 % $ & $ $ $ - 5 6 9 9 5 ; 3 ; 3 6 v S [ [ S n n v w w w w w w w w c v v v n m m [ m m n n n m A A m m [ { }  .} |  . . . . . .X... . . . . . . . .O.*.-.<.<.<.=.*. . .....O.=.-.<.<.<.<.<.6.=.} m S m  .<.4.4.5.4.;.-.*.*.-.-.;.;.-.-.;.-.=.*.*.*.*.*.*.+.+.X.| | @.M x I.S.S.S.l.l.l.l.l.l.h.&.#.#.#.#.@.@.....} } [ [ [ ) ) ) ) ) ) ) ) ) e e q q e e e c _ ` ..*.",
"+ + @ @ @ @ @ @ @ @ @ @ @ @ @ @ @ @ & & & & & & & & & & & & - - - & % - ; ; < < < < < 8 s j d g k k g g C C Z Z Z Z Z Z D D D D F F F F F F F F F F F F F F | | G G G G G G | | G G W W W W W W E E Q Q E E ~ ~ ^ ^ ^ / ( p.p.p.a.c.s.c.N.N.N.N.N.B.B.B.B.B.V.V.B.V.C.C.C.C.C.C.C.C.V.V.C.C.Z.C.C.C.Z.Z.Z.Z.Z.Z.V.B.B.D.gXCXlXjXjXrXe.0.9.5.4.<.+....._ e [ O.4.w.rXeXaXyXqXhXGXwX).wX2 wX2 pX2 o.] wX] pXlXrXjXyXeXeXe.w.+XeXeX+XeX+XQ.e.w.7.-. .{ n n n e n n v v v v e e e e e e e w e e w w w w w w 7 7 6 3 3 & % % $ $ & ; 6 7 0 w v n S [ [ [ n w 6 % $ $ $ $ + $ ; 5 6 6 6 6 6 6 6 8 w n S [ m n v w v v v e w w w w c v v v n n m S m m n n n m A A m m [ { } } } } | | } }  . . . . . . . . . . . .O.O.=.=.-.=.=.O.X... . .O.*.-.;.<.<.<.<.;.4.<.O.S 0 m O.=.-.;.;.;.-.=.*.=.-.-.-.-.-.;.;.=.*.*.*.*.*.*.+.O.X...| @.Y x I.I.S.S.z.l.l.l.l.l.h.&.&.#.#.#.@.@.| | } [ [ [ { ) ) ) ) ) ) _ ) ) e e q q q e e c _ ` ..*.",
"+ + @ @ @ @ @ @ @ @ @ @ @ @ @ @ @ @ & & & & & & & & & & & - - - - & & - ; ; < < < < < 8 s d d d g g g g C C Z Z Z Z Z Z D D D D F F F F F F F F F F F F F F | | G G G G G G | | G G W W W W W W Q E E E E E ~ ~ ^ ^ ^ / ( p.p.p.a.c.c.c.N.N.N.N.N.B.B.B.B.B.V.V.B.B.C.C.C.C.C.C.C.C.V.V.C.C.C.C.C.C.Z.Z.Z.Z.Z.Z.V.V.M.F.gXCXlXjXhXrX9.9.9.6.4.4.;... .{ { { =.w.eXyXfXyXrXjXFXpXB B B q.B ] B 2 ] 2 B   GXjXpXpXeXeXQ.e.e.eX+X+X+X+XeXeX+XQ.Q.w.4.+.{ n n v v n n v v v v v v v v v v e e e w w w w w w w 0 7 8 6 3 3 % % $ + $ & 3 5 7 w w v [ [ [ m v 7 3 & $ $ $ $ $ $ $ - 5 9 0 w 8 6 6 0 v n m n v e e v v w w w w w w c v c c n n m m m m n n n n n n m S [ { } } } } } } } } } }  . . . . . . . . . . .X.O.=.=.=.*.O.X... .| ..O.=.;.;.<.<.;.-.<.4.-. .w 8 n  .O.;.<.4.4.;.-.-.-.-.-.-.-.-.-.-.=.*.*.*.*.*.+.+.X...| @.Y x I.I.S.S.z.l.l.l.l.l.h.&.:.#.#.@.@...| } [ [ [ { ) ) ) ) ) ) ) _ ) ) e e q e e e e _ _ } ..*.",
"+ + @ @ @ @ @ @ @ + @ @ @ @ @ @ @ @ & & & & & & & & & & & & - - - & & - ; ; < < < < < < s s d d g g g g C C Z Z Z Z Z D D D D D F F D D F F F F F F F F F F | | F F F F G G | G G G W W W W W W Q E E E E E E ~ ^ ^ ^ ( ( p.p.p.a.s.c.c.N.N.N.N.N.B.B.B.B.B.V.V.V.B.C.C.C.C.C.C.C.C.C.C.C.C.V.V.C.C.Z.Z.Z.Z.Z.V.V.B.G.D.kXCXGXjXaXeX7.w.w.9.5.4.-. . . . . .-.Q.yXyXaXaXaXjXkXFXwXo.] B B ] o.q.2 ).] ] FXlXpXyXQ.eXe.e.Q.eX+X+XeXeXeXeX+XeXeXQ.w.7.+.{ n n n n e e v v v v n v v e e e e e w w w w w w w w w w 7 7 5 3 3 % $ + $ % % 3 3 7 w n S S S n w 6 $ $ $ $ $ $ + + $ ; 9 w w 8 5 3 7 w v n v w w w v v w w w w w w c c c c n n m m m m n n n n n n m S [ { } } } } } } } } } } } }  . . . . . . . . ...O.O.*.O.O.X... .| | | X.*.-.;.<.<.<.;.-.<.4.=.} 0 ; n } O.-.5.4.4.-.-.-.-.=.-.-.-.-.-.=.=.*.*.*.*.+.+.X...| @.M x I.I.S.S.l.l.l.l.l.l.l.&.&.#.#.@.@.| | } [ [ [ { { ) ) ) ) _ _ _ ) ) q e q e e e e _ _ | ..;.",
"+ + @ @ O - . @ - + @ @ @ @ @ @ @ @ @ @ @ @ @ @ @ @ @ @ & & - - & - & - ; ; < < < 1 1 < u s d d d g k k C C Z Z Z Z Z D D D D D D D D F D F F F F F F F F F F F F F G G G G W W G G W W W W W W W P P E E E ~ ~ ^ ^ / ( ( p.p.p.a.s.s.c.N.N.N.N.N.N.B.B.B.B.V.V.V.V.V.V.V.V.V.V.V.V.V.V.B.B.V.V.V.V.C.C.V.V.V.V.V.B.G.D.VXCXCXkXaXyX+Xe.w.9.5.4.=. . . . .=.4.W.tXyXjXfXaXjXFXlXB ] ).o.wX] B B 2 B 2 q GXhXpXrXeXeXe.e.+XeX+X+XeXeXeX+X+X+XiXtX+Xe.w.5. .n  .v w n v v v v v v v v v e w e e w w w w w w w w w w q 7 6 5 3 - & $ $ $ % % 3 w w v n m S v w 3 ; + O $ % % $ $ % 6 0 0 6 ; ; 8 w v n v w w w c c c c c c c c c c v v v n n m m n n n n n n n m m [ [ } } } } } } } } } } } } } }  . . . . . . ...O.O.*.O.*.O... .| | | ..O.=.;.<.<.<.;.-.=.-.-.+.S 7 % v O.=.-.4.4.;.-.=.=.=.*.*.*.*.*.*.*.*.%.%.O.O.+... .| @.l x I.I.S.S.S.l.l.l.l.l.l.&.&.:.#.@.@.| | } [ [ [ [ { ) ) ) ) ) _ _ ) ) e e e e ) e e _ _ | ..*.",
"+ + o + @ . 4 O . & @ @ @ @ @ @ @ @ @ @ @ @ @ @ @ @ @ @ & & % - & - % ; ; ; < < < < 1 < u s d d d g k k k C Z Z Z Z D D D D D D D D D F F F F F F F F F F F F F F F G G G G W W G G W W W W W W W W W E E E ~ ~ ^ ^ / ( ( p.p.p.a.s.s.c.N.N.N.N.N.N.B.B.B.C.V.V.V.V.B.B.V.V.V.V.V.V.V.V.B.V.V.V.V.V.V.C.V.V.V.V.V.B.G.F.VXCXCXkXfXyXe.e.9.5.4.<.;.O. .}  .=.4.Q.rXyXfXjXjXhXjXlX3.3.wX2 B o.q.B hX2 jXo.hXlXaXrXaX5.e.Q.+X+X+X+XeXeX+X+X+X+XeXeXeXeXW.6.4.+.[ n v n n v v v v v v v v e c c v v w w w w w w w w w w w 7 7 6 3 3 3 & $ $ $ % 6 0 w w n S S v w 7 6 3 3 3 ; - % % ; 6 6 3 ; 3 8 w v n v w w e c c c c c c c c c c v v v n n n n n n n n n n n m m [ [ } } } } } } } } } } } } } }  .}  . . . . ...O.O.*.*.*.*.X. .| | |  .X.*.-.;.<.<.;.-.=.=.=.-.O.[ ; 3 v } =.;.4.;.-.=.=.=.O.O.O.O.O.O.%.*.%.O.X.X.X. . .| | x x I.I.S.S.S.S.S.S.S.l.l.&.:.#.#.@.@.| | } [ [ [ [ { ) ) ) ) _ _ _ ) ) e q q e ) e e _ _ | O.*.",
"+ + 4 @ + 4 @ @ + O + @ @ @ @ @ @ @ @ @ @ @ @ @ @ @ @ @ & & % - & - - ; ; ; < < < < 1 < u s s d d d k k k C Z Z Z Z D D D D D D D D F F F D F F F F F F F F F F F F G G G G W W G G W W W W W W W W P E E ~ ~ ~ ^ ^ ^ ( ( p.p.p.a.s.s.s.c.N.N.N.N.N.B.B.B.C.V.V.V.V.V.V.V.V.V.B.V.V.V.V.B.B.V.V.V.V.V.C.V.C.C.V.V.B.M.XXVXCXCXkXfXyXe.e.9.5.5.4.4.=. .}  .=.4.Q.rXyXaXfXjXjXFXFXo.] o.wXq.] 2 B 2 2 . wXFXpXpXeXQ.rXe.Q.+X+X+X+X+X+X+X+X+X+XQ.eXrXyXtXeXpX4.e n [ n n n n v v v v v v v v v c c w w w w w w w w w w w w w 7 7 6 3 3 ; & $ % 3 3 7 0 w n S S n v w w w 0 8 6 $ % % - ; ; 3 6 8 w v n v w w w c c c c c c c c c c c v v v v n n n n n n n n n m m [ [ } [ [ [ [ [ } } } } } } } } } }  . . .} }  ...O.*.*.*.*.O. .| } |  ...O.-.;.<.<.;.-.-.+.+.+.-.=.w % % 7  .=.-.-.=.=.*.*.O.O.O.O.O.O.O.X.X.O.X.X... . .D m x @.I.I.S.S.S.S.S.S.S.l.l.&.&.#.#.@.@.| | } [ [ [ [ { ) ) ) ) _ _ ) ) ) ) q e ) ) ) _ _ _ | O.*.",
"+ + . 6   @ O + & @ @ @ @ @ @ @ @ @ @ @ @ @ @ @ @ @ & & @ @ & & - - - - - ; < < < < < < s s d d d g k g C C Z Z Z Z Z D D D D D D D F F F D F F F F F F F F F F F F G G G G G G G G W W W Y W W W W P E E ~ ~ ~ ^ ^ / ( ( p.p.p.a.s.s.s.c.N.N.N.N.N.B.B.B.B.V.V.V.V.V.V.V.V.B.B.V.B.B.B.V.V.V.V.V.V.V.V.V.C.C.V.V.V.m.#XVXlXCXkXhXpX+XQ.e.9.w.5.;.O. .{  .-.4.W.rXpXaXaXfXlXlX).q.] o.2 2 2 3.3.] wX] lXlXrXaXrXyX9.e.Q.+X+X+X+X+X+X+X+X+XeXeXeXeXeXQ.iXfX{ q _ { n n n n v v v v v v e v v e e w w w w w w w w w w w w w 0 7 7 7 6 5 3 3 & & % 3 5 7 w n S [ [ S m m v 0 8 % $ $ $ % ; 6 6 8 w v n v w w w c c c c c c c c c c c v v v v v n n n n v v n n n n m [ [ [ [ [ [ } } } } } } } } } } } } }  .} } }  ...O.*.*.O.O. .| } }  . .X.*.-.;.<.;.;.-.+.O.O.-.-.} 8 $ % n  .O.O.=.=.=.+.O.O.O.O.X...X.X.X.X.X.X.X. . .} b j #.I.I.S.S.S.S.S.S.A.l.l.&.:.#.#.@.@.| | } [ [ [ [ { ) ) ) ) _ ) ) ) ) e q e e ) ) ) _ _ ` ..*.",
"+ + 4 + O   +.<.4 - @ @ @ @ @ @ @ @ @ @ @ @ @ @ @ @ & & @ @ & - - - - - - ; < < < < < < s s s d d g k k Z C Z Z Z Z Z D D D D D D D F F F F F F F F F F F F F F F F G G G G G G G G $.$.W W W W W P P E E E ~ ~ ~ ^ ^ / ( ( p.p.a.s.s.s.s.c.b.b.N.N.N.N.B.B.V.V.B.B.V.V.V.V.B.B.V.B.B.B.V.V.V.V.V.V.V.V.V.C.C.V.V.G.M.,XVXlXCXkXhXiX+XW.w.W.7.4.=.O. .[  .=.<.w.qXaXyXfXkXjXlXpXo.3.wX. 2 o.3.] B 2 2 lXjXq.pXaXpXpXtX+Xe.e.+X+X+X+X+X+X+XeXeXeXqXQ.5.aXeXO & q [ [ n n n n v v v v v v v v v w w w w w w w w w w w w w w 0 0 7 q q 7 6 6 3 3 % % 3 3 7 w v n S S S S S v 0 3 % % % ; ; 6 8 0 v n v v v v v c v c c c c c c c c c c v v v v v v n n v n v v n n m [ [ [ [ [ } } } } |  . .} } } } } } } } } [ }  ...O.O.O.O... .} } }  .....O.-.;.<.<.;.-.*.O.O.+.O.-.} 6 + % w  .O.-.-.=.+.O..... .| | | | | | .. . . . .} b j :.I.I.S.S.S.S.A.A.l.l.l.&.&.#.@.@.@...| } [ [ [ { _ ) ) ) ) ) ) ) ) e e e q e ) ) _ _ _ ` ..#.",
"+ + + 4   4.kX .7 7 & @ @ @ @ @ @ @ @ @ @ @ @ @ @ @ & & @ @ & - - - - - - ; < < < < < < u s s d g g k k Z C Z Z Z Z D D D D D D D D F F D F F F F F F F F F F F F F G G G G G G G G $.$.W W W P P P P E E E ~ ~ ~ ^ ^ ^ ( ( p.p.a.s.a.s.s.c.b.b.N.N.N.N.B.B.V.V.B.B.V.V.V.V.V.B.V.V.B.B.V.V.V.V.V.V.V.V.C.C.C.V.V.G.M.,XCXlXlXkXhXiXeXW.9.6.4.-.-.-. .[ { +.;.9.qXiXiXfXfXlXGXlX).] 3.wXo.3.2 3.] 3.q.FXhXaXeX5.w.w.+XeXrXeXyXeXQ.w.+X+X+X+XpXyXrXeXe.aX=.X & 7 w n _ _ n n n n v v v v v v v w w w w w w w w w w w w 0 0 0 7 7 q q q 7 7 7 5 3 ; & % 3 8 w e v n m S m m v 7 3 ; % ; 3 8 8 w v v v v v v v c v c c c c c c c c c c v v v v v v v v v v v v n n m S [ [ [ [ [ [ } } } } } } } } } } } } | } } }  .....O.O.O... .} } }  .....O.*.-.;.<.;.-.=.+.O.O.O.-.O.v % X 3 S { =.-.=.+.O.O.O...| | | | | | } }  .} } m x h A.I.S.S.S.S.A.l.l.l.l.&.&.#.#.@.@.......} [ { { { ) ) ) ) ) ) ) ) ) ) q q q e e e _ _ _ ` ..;.",
"+ + +   +XjX+ & 6 6 4 @ @ @ @ @ @ @ @ @ @ @ @ @ @ @ & @ @ @ & - - - - - - ; < < < < < < u s s d g g k k Z C Z Z Z Z D D D F D D D D F F D D F F F F F F F F F F F F G G G G G G G G $.$.W W W W P P P E E E ~ ~ ~ ^ ^ / ( ( p.p.a.s.a.s.s.c.b.b.N.N.N.N.B.B.C.V.B.B.V.V.V.V.V.B.V.V.B.V.V.V.V.B.V.V.V.V.C.C.C.V.V.G.D.gXCXlXlXjXfXyXeXe.7.6.4.-.-.-.+.{ { O.+.5.Q.yXyXfXlXjXFXlX] q.B o.o.] o.o.B B . GXaXe.jXaX7.w.w.Q.rXyXyXeXQ.w.Q.+X+X+XpXyXrXeXaXyX-   + 4 5 q [ [ [ [ m m m n n v n v v w w w w w w w w w w w w 0 0 0 7 7 0 0 7 7 7 7 8 6 5 3 & % 3 8 0 w w v n S m n w 0 7 3 3 6 0 w v n v v v v v v c c c c v c c c v v v v v v v v v v v v v v v v n n m m m m m S [ [ [ [ } } } } } } } } } } | } } } }  ........... . .} }  .....O.O.-.;.;.;.;.-.=.O...O.+.-.{ 6 o - 7 w  .O.O.=.=.O. .} | | | } S S [ [ { [ } b h h I.I.S.S.S.S.A.l.l.j.l.&.&.&.#.@.@.@.....} [ { { { _ ) ) ) ) ) ) ) ) ) e e q e e _ _ _ _ | @.;.",
"+ +   aXaX+   . 7 7 4 & @ @ @ @ @ @ @ @ @ @ @ @ @ @ @ & & & & - - - - ; ; ; < < < < < < u s s s d d k k k C Z Z Z Z Z D D F D D D D F F F F F F F F F F F F F F F F G G G G G G G G G W W W W W P P P E E E E ~ ~ ^ ^ ^ ( ( p.p.a.s.s.s.s.c.b.b.N.N.N.N.N.N.B.B.B.C.C.C.C.C.C.C.V.V.V.V.V.V.V.B.V.V.V.C.C.C.C.C.V.G.D.gXGXlXlXjXaXyXw.0.9.9.6.<.*.O.+. .{  .+.4.w.rXyXfXjXkXlXhXB ] ).B 3.2 ] 2 ] ] q.lXjXyXeXQ.Q.9.Q.Q.w.e.+X+X+X+Xe.+X+X+XrXeXqXQ.jX7.  O o + - 5 [ [ [ [ [ [ S m n n n v v w w w w w w w w w w w 0 q q q 7 7 0 q 7 7 7 7 7 8 6 6 3 % % 3 3 7 0 w v n m m n v w 7 0 w v v v v v v v v v v c c c c c c c c v v v v v v v v v v v v v v v v n n n n n n m m m S [ [ [ [ [ [ [ [ [ } [ } } } [ [ } }  . ....... . .} }  . ...O.O.+.=.-.-.-.-.=.O... ...-.O.e 4 & & 6 A | X.+.=.O. .} } | | } S S S S [ n _ b h t E.I.S.S.A.S.l.l.l.l.l.&.&.:.#.@.@.@... .} } { { { { ) ) ) ) ) ) ) ) e e e q e e _ _ _ _ | O.;.",
". @ lXeX4   @ - o O - @ @ @ @ @ @ @ @ @ @ @ @ @ @ @ - . - 4 - @ 4 4 ; ; ; ; < < < 1 , < u s d s d d g g k k Z Z Z Z Z D D F D D D D D D F F F F F F F F F F F F F F G G G G Y Y Y Y W W W W W W W P P E E E I ~ ~ ^ ^ ^ ( ( p.p.a.s.s.s.s.c.b.b.N.N.N.N.N.N.B.B.B.N.B.B.C.C.C.B.C.C.B.B.V.V.B.B.B.V.V.C.C.C.C.V.B.G.F.kXGXlXlXjXaXrXeXw.9.9.7.4.=.O.+. .{ [ o.-.9.rXyXfXjXlXFXpXwX3.] ] B q.2 q.] 2 5.lXjXeXyXe.w.e.+Xe.w.e.5.6.+XaXrXeX+XQ.9.rXw.eXaXO   + + @ 4 4 w _ { [  .} [ S m n n n n e e w w w w w w w w w 0 0 0 0 q q 7 7 7 7 7 7 7 7 8 7 6 3 3 ; 3 3 6 7 0 w v n n n v w w v v v v v v v w w w w v v v v v v v v c c c c c c c c v v v v v v v v v v n n n v n n m m S S S m S S [ [ [ [ [ [ } [ [ [ [ }  . ....... . .} }  . .....O.O.O.-.-.=.-.=.O... . . .+.X.w & + 4 9 A | X.+.O.X. .} } } } S S S m } c m c 1 j ~.I.S.S.A.S.A.l.l.l.l.&.&.:.#.#.@.@... .} { [ { { { ) ) ) ) ) ) ) ) e e e e e ) _ _ _ ` | *.:.",
"- lX5.@   - & O @ + + @ @ @ @ @ @ @ @ @ @ @ @ @ @ @ + 6 - . 4 6 + & - ; ; ; < < < < < < u s s s d d k k k k Z Z Z Z Z D D F D D D D D D F F F F F F F F F F F F F F F G G F Y Y Y Y F Y Y Y W W P P P E E E I ~ ~ ^ ^ ^ ( ( p.p.a.s.s.s.s.c.b.b.N.N.N.N.N.N.N.N.N.N.B.B.B.B.B.B.B.B.B.B.B.B.V.V.B.V.V.C.C.C.C.B.B.G.E.VXCXlXlXjXaXyXeXW.9.9.7.5.;.=.+. .{ [ ..+.5.qXrXaXjXkXGXhX3.] B ] 2 B 2 ] 2 q.e.FXaXyXrXQ.e.Q.+Xe.e.e.e.w.0.w.eXeXtXyXeXpXe.aX7.O o & @ @ - 4 q _ { {  . .[ S m m n n n v e w w w w w w w w w 0 0 w 0 0 0 q 7 7 7 8 7 7 7 8 7 8 8 7 5 3 3 3 3 6 7 0 w v n m n n n n v v v v v w w w w v v v v v v v v c c c c c c c c v v v v v v v v v v v v v v n n n n S S m m S S S S [ [ [ [ [ [ [ [ [ [ }  . ... . . . .} }  .....O.O.O.*.=.=.=.=.O... .[ { O.=.{ 7 - - ; 9 A X.X.O.*.X. .} } } S S S S { c c h 1 x E.I.S.S.S.S.S.S.S.A.l.:.&.:.#.%.@.@... .} [ [ { { { ) ) ) ) ) ) ) ) e e e e e ) _ _ _ ` ..*.:.",
"GX<..   . - + O & @ @ @ @ @ @ @ @ @ @ @ @ @ @ @ @ @ 4 O 4 O + 4 & 4 4 ; ; ; < < < < < < u s d s d d k k k k Z Z Z Z Z D D F D D D D D D F F F F F F F F F F F F F F F G G F Y Y Y Y Y Y Y Y W W P P E E I E E ~ ~ ^ ^ ^ ( ( p.p.a.s.s.s.c.c.b.b.N.N.N.N.N.N.N.N.N.N.B.B.B.B.B.B.B.B.B.B.B.V.V.V.V.V.C.C.C.C.C.B.G.F.oXCXCXkXlXjXaXtXeXW.w.9.9.6.4.-.+. .{ [ { o.3.e.qXyXfXkXlXjX).).3.B ).2 ).. B 2 pXGXrXyXrX+Xe.+X+Xe.e.e.+X+Xe.9.Q.+XeXrXyXrXrXaXe . + @ + @ - 4 q n { {  . .[ S m m m S _ v e v e w w w w w w w 0 0 w w 0 0 7 7 7 7 7 7 7 7 7 8 8 7 7 7 7 6 3 3 3 3 6 7 0 w v v v v v v v v v v v v w w v v v v v v v v v v v v c c c c v v v v v v v v v v v v v v n n n n m m m m S S S S [ [ [ [ [ [ [ [ [ [ [ }  . . . . . .} |  .....O.O.O.O.*.=.=.+.+.O. .{ {  .+.O.A 4 - @ ; 0 S  .X.O.+. .{ } } S S S S n c 8 h = Y E.I.I.S.S.S.S.S.A.S.A.:.:.:.:.%.%.@... .} } [ { { { ) ) ) ) ) ) ) ) e e e e ) _ _ _ _ ` ..*.:.",
"e     4 4 O O @ O - & @ @ @ @ @ @ @ @ @ @ @ @ @ @ @ @ + - 4 4 & 4 & - ; ; ; < < < < < < u s d s d d g g C C Z Z Z Z l Z D F D D D D D D F F F F F F F F F F F F F F G G F F W W W W F F Y T P W P P E E E E E ~ ~ ^ ^ ^ ( ( p.p.a.s.a.s.c.c.b.b.N.N.N.N.N.N.N.N.N.N.N.N.N.N.N.N.B.B.B.B.B.B.C.C.V.V.C.C.C.C.C.B.G.F.#XVXCXkXlXjXaXtX+Xe.w.w.w.6.4.=.+. .{ A [ { +.9.qXtXfXjXlXlXo.] o.B 3.B 2 2 ] B kXlXpXrXrX+XQ.+X+XW.W.W.e.rXiXyXQ.e.w.9.rXw.jXeXO . O O + @ - 4 q [  .{  . .[ [ S S S S m v v v v e w w w w w w w 0 0 0 0 0 0 0 7 7 7 8 8 8 7 7 7 8 8 8 7 7 6 6 3 3 3 5 6 7 q w w w v v v v v v w w w w w w w w v v v v v v v v c c c v v v v v v v v v v v v v v v v v n n n n n n S S m m [ [ [ [ [ [ [ S S m m [ }  . . . . .} }  . .......O.O.O.*.=.=.+.O. .[ { { ..O.{ w 6 O - 6 v S  .X.+...{ { [ S S S n v w 5 8 = &.I.~.I.S.S.S.S.S.S.S.l.:.:.:.%.%.*.O... .} } { { { { ) ) ) ) ) ) ) ) ) ) e e e c _ _ ` ` ` #.:.",
"o   @ 4 O   O @ . & @ @ @ @ @ @ @ @ @ @ @ @ @ @ @ @ @ w . o 4 4 - - - - ; ; < < < < < < u s d s d d g g C C Z Z Z Z Z Z D F D D F D D D F F F F F F F F F F F F F F G F F F Y W Y Y W W Y W T P P P E E E E I E ~ ~ ~ ^ ( / p.p.a.a.a.a.s.c.f.f.b.N.N.N.N.N.N.N.N.N.N.N.N.N.N.N.B.B.B.B.B.B.C.C.C.C.B.N.C.C.C.B.M.F.sXCXlXkXlXjXaXyXeXW.w.9.7.5.-.+.O. .{ A A { +.7.qXeXfXjXFXlX] B wXhX] wX] . 2 2 GXaXaXrX+Xe.yXrXe.e.e.W.e.+X+Xw.+XyXQ.rXQ.6.jX .. & O O + 4 - q q {  . . . . .{ { [ S A A n n n n v w w e w w w 0 0 0 0 0 0 0 0 7 7 7 7 7 7 7 7 7 7 7 7 7 7 7 7 6 6 3 3 5 5 6 7 0 w w w w w w w w w w w w w w w w w e v v v w w c c c c c c c c v v v v v v v v v v v v n n n n n n m m m m S m [ [ [ [ [ S m m m [ }  . . . . .}  . . . .......O.O.*.=.-.=.O...{ A A  .+.+.{ w @ - 5 9 A [  .O.O.} [ [ S S m n c w 5 1 = I.S.~.E.S.I.I.S.S.S.A.A.l.:.:.%.*.*.O... .} } { { { { _ ) _ _ _ ) _ ) ) ) e e e _ _ ` ` ` ..#.:.",
"  4 -   O - + + - O @ @ @ @ @ @ @ @ @ @ @ @ @ @ @ @ - O - O - + & 6 6 ; ; ; < < < 1 < < u s s s d d g g k Z Z Z Z Z Z D D F D D F F D D D D F F F F F F F F F F F F F F F F W W Y Y W W Y W W W W W E E E E I E ~ ^ ^ ^ ( ( p.p.a.a.a.a.s.c.c.c.b.N.N.N.N.N.N.N.N.N.N.N.N.N.N.N.N.N.N.N.B.B.B.B.B.B.B.N.C.C.C.B.M.F.sXCXlXlXlXjXaXpXyX+Xw.6.5.5.<.=.+.o.{ [ [ { +.7.Q.qXfXjXlXlX3.q.B ] B o.B wX] wXGXaXiXrXQ.5.tXe.e.w.w.0.+XtXtX+XeXyXQ.rXeXe.rX4 . - O + + 4 4 e w {  . . ...O.O. .{ { A A A A n n n n v e e w w w w 0 7 0 0 0 0 7 7 7 7 7 7 7 7 7 7 7 7 7 7 7 7 7 7 6 6 5 5 3 5 6 7 0 w w w w w w w w w w w w w w w v v v v w w c c c c c c c c v v v v v v v v v v v v v v n n n n m m m m S [ m m [ S S m m m [ [  . . . . . .}  . . . . .......O.+.=.-.=.+.X. .n e A +.+. .A ; - ; 6 w A { .. . .[ [ S S n n c 0 5 = = E.I.~.~.~.~.E.I.S.S.A.S.l.:.:.%.*.*.@... .} } _ { { { _ ) _ ) ) ) ) ) e e e e e _ _ _ ` ` @.#.:.",
"  @ . . - @ + + - O @ @ @ @ @ @ @ @ & @ @ @ @ - @ @ . . +XA 7 & + - ; ; ; ; < < < 1 < < u s s s d d g g k Z Z Z Z Z Z D D D D D F F D D D D F F F F F F F F F F F F F F F F W $.Y Y W W Y W W W P P E E I E I E ~ ~ ^ ^ / ^ ( p.a.a.a.a.s.c.c.c.b.N.N.N.N.N.N.N.N.N.N.N.N.N.N.N.N.N.N.N.B.B.B.B.B.B.B.N.C.C.N.B.G.F.gXCXCXlXkXjXaXaXyX+Xw.6.7.6.4.-.+.O. .{ [ { +.5.e.e.aXaXGXhX3.3.).] wXB o.B B ] GXaXyXeXeXw.+X9.Q.Q.e.w.+XtXtX+XeXyXQ.rXrXfX5.  . 4 + @ @ 4 4 e n {  . ...+.-.;.+. .[ S A A A A m _ _ n n e w w w w 0 7 0 0 0 0 7 7 7 7 7 7 7 7 7 7 7 8 7 7 7 7 7 7 7 7 7 6 5 5 3 5 6 8 7 0 w w w w w w w w w w v e v v v v w w c c c c c c c c c c c c v v v v v v v v v v n n n n m m m m S S m S S m S m m m m [ }  . . . . . .|  . . . .......O.+.*.=.=.+.O.O.n 7 w { +.+. .w 6 ; 4 9 A [  . . .} [ S S n n c 0 5 = = :XI.~.~.~.~.~.E.I.S.S.A.A.l.:.%.*.@.@... .} } _ _ { { _ ) _ ) ) ) ) e e e e e _ _ _ ` ` ..#.:.6.",
"6 . O & + @ + + O @ @ @ @ @ @ @ @ @ & + & @ @ - @ @ + +.PX- - - 4 4 ; ; ; ; < < < < < < s s d s d d g g k k Z Z Z Z Z Z D D D D F D D D D D F F F F F F F F F F F F G G G G W $.Y Y W W W W W W T T E E I E I ~ ~ ~ ~ ^ / ^ / p.a.a.a.s.s.c.c.c.b.N.N.N.N.N.N.N.N.N.N.N.N.N.N.N.N.N.N.N.B.B.B.B.B.B.B.N.C.N.N.B.G.F.kXCXCXlXkXjXaXaXeX+Xw.w.w.9.5.<.+.O. .{ A [ o.5.9.e.pXaXlXwX] ] B ] B o.] ] ] q.GXjXtXeXrXyXe.Q.w.e.e.+Xe.+X+Xw.eXtX+XrXeXaXn   . 4 + @ - q q e [  ... .O.=.4.5.4.+. .[ A A A A m m _ n n n v w w w w w 0 0 0 0 7 7 7 7 q q 7 7 7 7 7 8 7 7 7 7 7 7 7 7 7 7 6 6 5 5 3 5 5 6 8 q 0 w w w w w w w v v v w v v w w c c c c c c c c c c c c v v v v v v v v v v v n n n m m m m S m m m S m S m m m S [ }  . . .} }  . . . . . .......O.O.+.O.O.O.O.O.S 7 7 e O.+.+.S 9 6 4 6 0 S  . . . .[ S S n n c 0 8 = = dXE.~.~.~.~.~.~.E.I.I.I.A.A.:.%.*.@.@.| | } } { { { { _ ) _ ) _ ) ) e e e ) _ _ _ _ ` ` @.*.;.6.",
"+ + + @ + @ @ @ + - @ @ & @ @ @ @ @ & + - @   - 4 @   GXGX  - - 4 - - ; ; ; 6 < < < < < u s s s d d d d k k C Z Z Z Z Z D D D D D D F F F F F F F F F F F F F F F F F F F F Y F F F F F W Y T T W P K K I I I ~ ~ ~ U ~ / ^ / p.a.a.a.a.s.s.s.s.b.b.b.b.b.b.N.N.N.N.N.N.N.N.N.N.N.N.B.B.N.N.N.N.B.B.B.f.C.f.f.B.G.D.VXCXlXlXkXjXaXeXrXeXw.w.9.w.5.4.+.O. .{ A A  .5.7.e.pXjXlXhX3.).wXFX] hX2 3.2 hXjXfXyXeX+XW.w.w.w.w.e.Q.+X+X+X+XeXrXeX9.pXQ..   . O + @ 4 4 7 w {  .o. .+.-.5.7.9.5.=. .n n n [ A n _ _ _ _ n n v v c w w 0 0 0 7 7 q q 0 0 q q 7 7 8 8 7 7 7 7 7 7 7 7 7 7 7 7 6 6 5 3 3 3 6 7 8 q 0 0 w w w w w w w w w w w w c c c c c c c c c c c c v v v v c c c c c c n n n n m m n n m m m m S S S S S m S [ }  . .} } [ } } }  . . .........O.O.O.O.O.O.X.[ 9 $ 7 } +.X. .A 9 6 5 6 v  . . . .} S S n v c 8 8 = M :X~.~.~.~.~.~.~.I.I.I.I.A.A.:.:.*.@.@.| | } } { { { _ ) ) ) ) ) ) e e e e ) _ _ _ ` ` ` @.;.6.6.",
"+ + @ @ @ @ @ @ @ @ @ @ @ @ @ @ @ @ & + - @ O - O - 4 UX+.  4 4 6 & & 4 ; ; < < < < < < s s s s d g d g k k C Z Z Z Z Z D D D D D D F F F F F F F F F F F F F F F F F F F F Y Y F F F F F Y T T W P K K I I I ~ ~ ~ ~ ^ / ^ / p.a.a.a.a.s.s.s.s.b.b.b.b.b.b.N.N.N.N.N.N.N.N.N.N.N.N.B.B.N.N.N.N.B.B.B.f.C.f.f.B.G.F.VXCXlXlXkXkXjXpXyXrXw.w.5.w.4.+.+.O. .{ { A  .4.4.w.pXkXlXwX] 3.B B o.B ] ] B hXjXpXeXeX+XQ.Q.Q.w.w.w.w.+X+X+X+XeXtXeX+XpX+.. o . O + @ 4 4 q e  ...o.o.+.4.6.9.+XW.9.5.O.[ n w n [ [ [ _ _ _ _ n n v c w w 0 0 7 0 w w w 0 q q 7 7 8 8 7 7 7 7 7 7 7 7 7 7 7 7 7 7 6 5 3 3 3 5 6 8 8 0 w w w w w w w w w w w w c c c c c c c c c c c c v v v v c c c c c c v v v v n n n n n n n n S S S S S m S [ }  .} [ S m [ [ } }  . .............O.O.O.O. .| e ; 6 A X.+.X.[ v 0 6 5 w {  . . . .[ S n n c 8 5 = #.:X~.~.~.~.~.~.~.~.I.I.I.A.A.:.:.*.%.@...| } { { { _ _ ) ) ) ) ) ) e e e e _ _ _ _ ` ` ..#.;.:.I.",
"+ + @ @ @ @ @ @ @ @ @ @ @ @ @ @ @ @ & + - @ @ & + + aXUX  . 7 & 6 4 - 4 ; ; < < < < < < s s d s d d d d k k C Z Z Z Z Z D D D D D D F F F F F F F F F F F F F F F F F F F F Y Y Y F G F F Y T T T P K E I I I ~ ~ ~ U ~ ^ ^ ^ p.p.a.a.a.s.s.s.s.b.b.b.b.b.b.N.N.N.N.N.N.N.N.N.N.N.N.B.B.N.N.N.N.B.B.B.f.C.f.f.c.M.Y.CXCXlXlXkXlXjXaXyXrXw.w.5.w.4.+.+.O. .{ { n { *.w.W.eXpXlXpXwXwXwX] hX] ).] ] lXjXeXQ.Q.Q.Q.Q.eXe.w.w.w.+X+X+X+XeXyX+XiXeX- . @ o O @ @ 4 q e [  ...o. .-.5.7.w.eXeXeXQ.5...[ e v n [ _ _ _ _ _ m m n n v w w 0 w w w w w 0 0 7 7 7 7 8 8 7 7 7 7 7 7 7 7 7 7 7 7 7 7 6 6 3 3 3 6 6 6 8 7 w w w w w w w w w w w c c w w w w c c c c c c v v v v c c c c c c c c c c c c c v v n n n n m S S S m m [ { { [ S m n m m [ [ }  . . . . . . .........X. .n 6 6 w  .<.O.X.S w 6 5 0 v  . . . .[ S n n c 8 = # I.:X^.^.~.~.~.~.~.~.I.I.I.A.l.:.:.%.%.@...| } { { { _ ) ) ) ) ) ) e e e e e _ _ ` _ ` ` @.:.:.6.I.",
"+ + @ @ @ @ @ @ @ @ @ @ @ @ @ @ @ @ @ + - @ - + 7   KXfX  o q - 4 4 4 ; ; ; 6 < < 1 1 < u s s s d g g g k k C Z Z Z Z Z D D D D D F F F F F F F F F F F F F F F F F F F F F Y Y F F F F F Y T T T P E E E E I ~ ~ ~ ~ ~ ^ ^ ^ p.p.a.a.a.s.s.s.s.b.b.b.b.b.b.N.N.N.N.N.N.N.N.N.N.N.N.N.N.N.N.N.N.B.B.N.f.C.f.N.c.M.OXSXCXlXlXlXlXjXiXiXrXe.w.9.Q.5.4.+.O. .{ { n S O.6.w.Q.pXlXpX).] B . 2 2 2 B 2 FXjXeX!.w.w.w.W.Q.Q.W.w.w.+X+X+X+XeXiXQ.fX4.  . O o O @ 4 6 q e {  .......4.5.9.w.eXeXeXeX9.<.o. .n v _ [ [ _ _ _ n m m n n v c w w w w 0 0 q q 7 7 7 7 8 7 7 7 7 7 7 7 7 7 7 7 7 7 7 7 7 6 5 3 3 3 3 6 6 7 7 w w w w w w w w w w c c w w w w c c c c c c v v v v c c c c c c c w w w w w w w v v n n n n m m m m m S [ [ [ m n n n m S [ } }  . . . . . . . . . ...} S e 7 8 A +.+.X.| v 9 6 8 q {  . . .[ S n n c 5 # # :X:X~.^.~.~.~.~.~.I.I.I.I.A.A.:.:.%.%.@... .} } _ _ ) ) ) ) e ) e e e ) e _ _ _ _ ` ` ` *.;.:.I.I.",
"o 4 - @ @ @ @ @ @ @ @ @ @ & @ @ @ @ & @ & @ 4 4 .  .UXq @ @ 4 6 - 4 4 ; ; ; < < < 1 < < u s s s d g g g k k C Z Z Z Z Z D D D D D F F F D D F F F F F F F F F F F F F F F F F F F F F F Y Y T T T T P P I I I E ~ ~ U ~ ^ ^ ^ ^ p.a.a.a.s.s.s.s.s.b.b.b.b.b.b.b.b.b.N.N.N.N.N.N.N.N.N.N.N.N.N.N.N.N.N.f.b.N.N.m.G.#XVXCXlXlXlXlXjXiXaXyXe.w.w.7.5.4.+...{ { { n m O.4.6.e.pXaX3.).wXwX2 ] wX3.q.B HXjXtX!.W.w.W.W.Q.Q.e.w.!.+X+X+X+XQ.Q.eXaX7   o o O + @ 4 7 e [ {  .o.o.+.5.9.e.eXtXeXeXpXyX+X9.5.{ n n [ _ _ _ _ m m m m n n v v w w w w q 0 0 q 7 7 7 7 7 7 7 7 7 7 7 7 7 7 7 7 7 7 7 7 7 6 6 3 3 3 3 3 6 6 7 0 w w w w w w w w c c c c c c c c c c c c v c v c c c c w w w w w w w w w 0 w v v n n n n n n m n m S [ [ S m n c v n m [ } } } }  .}  . . . . . . .| } [ 0 6 w | +.X. .n 0 6 6 6 e [ { { [ A n v c = % # dX~.~.^.~.~.~.~.~.I.I.I.I.A.A.:.:.@.@...|  .} { _ _ ) ) ) ) e e e e e e ) _ _ _ _ ` ` *.;.;.6.I.I.",
"& @ @ @ @ @ @ @ @ @ @ @ @ @ @ @ @ @ @ @ @ @ . 4   lXKX  O 4 - 4 4 - 3 ; ; < < < < < 1 < u u s s d g g g k k C Z Z Z Z Z Z D D D D D F F D D F F F F F F F F F F F F F F F F F F F F Y Y Y Y T T T T P P I I I I U U U ~ ^ ^ ^ / p.a.a.a.s.s.s.s.s.c.b.b.b.b.b.b.b.b.N.N.N.N.N.N.N.N.N.N.N.N.N.N.N.N.N.N.b.N.N.c.D.#XVXCXlXlXlXlXjXaXaXyXQ.9.9.5.5.4.+...{ { { v m O.6.w.Q.e.pXpXq.B B hX3.. B 2 ] FXjXtX!.Q.W.W.Q.Q.9.7.9.w.eXeXeXeXeXyXyXQ.$ X o o O + @ 4 7 e [ {  . .O.<.9.e.+XrXtXeXeXiXaXyXeXw.+.{ n e n _ _ _ n n m n n n n n v w w w w w w 0 7 7 7 7 7 7 7 7 7 7 7 7 7 7 7 7 7 7 7 7 7 7 7 7 6 5 3 3 3 6 5 6 7 w w w w w w w c c c c c c c c c c c c c c v c c w w w w w w w w w w 0 0 w w v n n n n n n n n n n m S m m n b v n m [ } } } } } }  . . . .X.X... .} [ w 8 9 A O.X. .A w 9 6 7 0 n [ [ [ A n n w = = # dX^.:X:X~.^.^.^.~.~.~.I.I.A.l.:.:.%.@.@.| } [ _ _ _ ) ) ) e e e e e e ) ) _ _ _ ` ` ..*.;.4.I.I.I.",
"4 + + @ @ @ @ @ @ @ @ @ @ @ @ @ @ @ @ @ @ @ . - 4 UXe.. @ 4 4 4 4 - - ; ; < < < < < 1 < < u s s s g g g k k C Z Z Z Z Z Z D D D D D D D D D F F F F F F F F F F F F F F F F F F F Y Y Y Y Y T T T T P P P I I I U ~ U U ^ ^ ^ / p.a.a.a.s.s.s.s.s.s.b.b.b.b.N.N.N.N.N.N.N.N.N.N.N.N.N.N.N.N.N.N.N.N.N.N.b.b.V.c.M.,XVXlXlXlXlXlXjXfXyXrXQ.7.9.5.5.5.+...{ { { n m O.4.4.e.aXjX).] wXhX] wX] q.3.wXGXaXrX+X+Xw.W.Q.W.7.7.w.e.+X+X+X+XyXaXyX{   o o O O + @ 4 7 e [ { o. .+.5.e.+XeXrXtXeXeXyXiXaXaXyXe.4. .n w v v n n n n n n n n n n v w w w w w 0 0 0 7 7 7 7 7 7 7 7 7 7 7 7 7 7 7 7 7 7 8 7 7 7 7 6 6 5 6 6 5 6 7 0 w w w w w w c c c c c c c c c c c c c c c c c w w w w w w w 0 w w 0 0 w w v n n n n n n n n n n n n m m n b n n m [ [ } } } } }  . . . .X.X... .} [ n 0 6 w X.X. .{ A e q q 7 e S { [ S A n w = 1 = dX^.:X:X^.^.^.^.^.~.~.I.I.A.l.:.:.*.@.@.| } [ _ _ _ ) ) e e e e e e e e _ _ _ ` ` ..*.;.:.I.I.I.qX",
"@ @ @ @ @ @ @ @ @ @ @ @ @ @ @ @ @ @ + @ @ @ - o 5.UX+ . w 6 7 - - - ; ; ; ; < < < < < < < u s s s s g g k C C Z Z Z Z Z D D D D D D D D D D F F F F F F F F F F F F F F F F F Y Y Y Y Y F F T T T T P P P P I I U U ~ ~ ^ ^ ^ / p.p.a.a.s.s.s.s.s.f.b.b.b.b.N.N.N.N.N.N.N.N.N.N.N.N.N.N.N.N.N.N.N.N.N.N.N.N.Z.c.v.,XCXCXlXlXlXkXjXfXyXeXe.w.7.5.5.5.-.X.{ { [ n A X.6.w.e.eXaXpX] o.B B B ] 2 ] pXjXaXeXeXeXW.Q.Q.W.w.W.+XeXw.w.w.w.eXaXeX@ . o O + + @ @ 4 7 e [ {  .O.<.9.eXeXeXrXrXeXeXyXiXaXjXjXfXeX5. .[ n w v v n n n n n n n n v v w w w w 0 0 0 7 7 7 7 7 7 7 7 7 7 7 7 7 7 7 7 7 7 8 8 7 7 7 7 7 6 6 6 6 5 5 6 7 w w w w w c c c c c c c c c c c c c c c c w w w w w w w w w w w 0 0 w w v n n n n n n n v v v v n m m n n n m m S [ [ } } } } } |  . . . . . .} } S w 7 9 | .... .{ A w 0 6 0 A { [ S A v 0 ; 8 1 gX:X>X>X^.^.^.^.^.~.~.I.I.A.l.:.:.*.@...| } ` _ _ ) ) ) e q e e e e e _ _ _ _ ` ` ..*.;.:.I.I.qXqX",
"@ @ @ @ @ @ @ @ @ @ @ @ @ @ @ @ @ @ + 4 . - @   PXGX. + 6 4 - - - - ; ; ; ; < < 1 1 < < < u s s s s g d k C Z Z Z Z Z Z Z D D D D D D D D D F F D D F F F F F F F F F F F F F F F F F F F F Y T T T P P P P I I U U U U ^ ^ / ^ ( p.p.a.s.s.s.s.s.s.b.b.b.b.b.b.b.b.b.b.b.b.b.N.N.N.N.N.N.N.N.N.N.N.N.N.f.N.N.m.v.gXGXCXlXlXlXkXjXfXeXeXw.e.9.7.5.5.-.X.{ { A n A S 4.5.e.rXjXhXhXo.o.3.] 3.wXq lXhXrXrXrXrXeXQ.Q.e.W.w.eXW.eXw.eXQ.w.yXo.  . @ . @ @ @ 4 q 9 e {  . .+.4.5.eX+XQ.+XrXrXtXyXjXjXjXjXfXtXw.5.+.n w e v v n n v v v v v v v v w w w w 0 q 0 7 q 7 7 7 7 7 7 7 7 7 7 7 7 7 7 7 7 7 7 7 7 7 7 7 6 6 6 6 6 6 7 q w w w w c c c c c c c c c c c c c c c w w w w w w w w w 0 0 0 0 0 w c c n n n n m m n n v c v n n n n n n n n m S [ { { } } } } } } |  .| | | } S v 9 7 A X.X. . .{ A w 9 q n { S [ A v 0 5 8 h vXdX>X>XdX>X^.^.^.^.~.I.I.A.:.:.:.@.@...| ` _ _ ) ) ) q q q q q e e e _ _ _ ` ....*.;.:.I.I.I.qXqX",
"@ @ @ @ @ @ + + @ @ @ @ @ @ @ @ @ & @ @ & @ + { UX{ . - 4 - & & - - ; - ; ; < < 1 < < < < u s s s s d d k C C Z Z Z Z Z Z Z D D D D D D D D F F D D F F F F F F F F F F F F F F F F F F F F T T T T K P P P I I U U U U ^ ^ / ^ ^ p.p.a.s.s.s.s.s.f.b.b.c.c.b.b.b.b.b.b.b.b.N.N.N.N.N.N.N.N.N.N.N.N.N.N.f.N.N.B.v.gXGXFXCXlXlXkXjXaXyXeXe.w.9.7.5.5.<.+.{ { A A A A +.4.e.aXaXq.] 2 2 2 B 2 ] . lXhXyXyXrXeXeXQ.W.w.W.W.eXQ.Q.Q.eXQ.qXyXw   o @ O + @ 4 4 q w A {  .4.5.5.7.+XQ.+XiXyXyXiXaXaXaXaXaXaXyXtXrXe.+.[ n v v v n v v v v v v v v v v e w w 0 w w 0 q q q 7 7 7 7 7 7 7 7 7 7 7 7 7 7 7 7 7 7 7 7 6 6 6 6 6 6 6 7 7 7 0 w c v c c c c c c c c c c c c w w w w w w w w w w 0 0 0 0 0 w c c c n n m n n n c c c c v v n n n n n n n m S [ { { { { } } } } } } } } } S v 0 6 w | +. .| { A w q q e { A { A w 8 8 = h vXdXdXdXdXdXdX^.^.^.~.I.I.A.:.:.:.@.@.| } [ _ ) e e q q q q q q q e c _ _ ` ` ....#.;.:.I.I.qXqXqX",
"@ @ @ @ @ @ + + @ @ @ @ @ @ @ @ @ @ - O 4 +   lXPXO + 4 4 & - & - - ; - ; ; < < 1 < < < < u s s s s s g k C C Z Z Z Z Z Z D D D D D D D D D F F D F F F F F F F F F D D D F F F F F F F F F T T T T K P P P I I U U U U ^ ^ / ^ ^ p.p.a.s.s.s.s.s.f.c.c.c.c.N.N.N.N.b.b.b.b.N.N.N.N.N.N.N.N.N.N.N.N.N.N.f.f.N.B.v.gXCXCXlXlXlXkXjXaXaXeX+X9.9.5.5.<.<.+. .{ A A A A 6.5.9.eXjXhXwXhXwX] 3.lXB pXGXhXpXyXeXQ.Q.e.w.9.w.Q.W.+XQ.eXe.Q.aX5.. . O O @ + @ 4 q e e { { O.+.<.<.5.tXeXyXaXeXeXrXtXfXaXaXjXyXiXiXyXeX9.+.{ n v v v v v v v v v v v v v v v e w w w w 0 0 0 0 7 7 q 7 7 7 7 7 7 7 7 7 7 7 7 7 7 7 7 7 6 7 7 7 6 6 6 6 7 7 0 w c c c c c c c c c c c c c c w w w 0 w w w w w 0 0 0 0 0 w c c c c n n n n v c c c c c c c v n n n n n n S [ [ [ [ { } } } } } } } } [ S v 0 6 7 { O. . .{ A w e q w A A { A w 8 0 = h vXdXdXdXdXdXdXdXdX^.^.I.I.I.I.:.:.*.@.| } _ _ e e q q q q q q q q e _ _ _ ` ` ..*.;.:.:.I.I.qXqXqX",
"@ @ @ @ + + + + @ @ @ @ @ @ @ @ @ & @ @ & @ . PXpX  - 4 - & & - & & - - ; ; : < 1 1 < < , u s s s s s s k k C Z Z Z Z Z Z Z D D D D D D D D F F F F F F F F F F F F F F F F F F F F F F Y T T T T T K P P P I I U U U U ^ ^ ^ ^ ^ p.p.a.s.s.s.s.s.c.b.b.b.b.N.N.N.N.b.b.b.b.b.N.N.N.N.N.N.N.N.N.N.N.N.N.f.f.N.B.D.gXCXCXlXlXkXkXjXaXjX+XeX0.9.5.5.<.<.+. .{ A A A A ;.4.w.yXhXpXq ] B ] 2 B 2 ] FXrXaXyXeXe.W.w.9.7.w.eXw.eXe.eXw.eXrX7   O + o 4 @ 4 4 q { A [ { +.<.<.7.Q.eX+X!.+XrXyXiXaXaXaXaXfXaXfXaXiXW.Q.7.+.{ n v v v v v v v v v v v v v v v v w w w w w w w 0 0 0 7 7 7 7 7 7 7 7 7 7 7 7 7 7 7 7 7 6 7 7 7 7 6 6 6 7 7 7 0 0 w w c c c c c c c c c w 0 w w w w w w w w w 0 0 0 0 0 w c c c c c v n v v c c c c w w w v v v v n n n m [ [ [ [ [ [ [ [ [ [ [ [ [ [ m v 0 6 6 n  . . .[ A w e w w n A { n w 6 0 % h vXdXdXdXxXdXdXdXqX^.^.I.I.I.I.6.:.*.@.| } _ n e q q q q q q q q q e _ _ _ ` ` *.;.:.:.I.I.qXqXqXqX",
"@ @ + @ + + + + @ @ @ @ @ @ @ @ @ @ O . 4 . 5.UX4 . 4 4 & & & & - & - - ; ; : < < < < < , s s s s s s s k k Z Z Z Z Z Z Z D D D D D D D D D D D D D F F F F F F F F D D D D F F F F F F F F T T D D K K P K P I I U U U ^ ^ ^ ^ ^ / p.a.a.s.s.s.s.s.c.c.b.b.b.b.b.b.b.b.b.b.b.b.b.b.b.b.b.b.b.b.b.b.N.N.N.N.N.B.A.gXCXCXlXlXkXjXjXaXaX+XeXe.9.5.6.<.<.+. .{ A A A A ;.w.w.rXjXpXo.o.q.pX).] 2 3.lXhXeXe.w.9.w.7.7.w.qXQ.9.rXQ.qXw.yXe.. . + O O + @ 4 @ w A A { O.+.<.7.w.Q.Q.+XeXeXeXiXfXfXjXfXfXaXaXfXfXaXyXeXw.5.+.{ A n e e w w v v v v v v v v v v w w w w w w w w 0 0 0 0 q q 7 7 7 7 7 7 7 7 7 7 7 7 7 7 7 7 7 7 7 6 6 6 6 7 7 7 7 0 w w c c c c c c w w w w w w 0 0 w w 0 0 w 0 w 0 0 w c c c c c v v v v v v c w w w w w w v v n n n m S S S S [ [ [ [ [ [ [ [ S S m c 0 3 3 v  ...{ { A A n e w w A A n 0 3 8 % @.vXdXxXxXxXxXdXdXqXqX^.I.I.I.I.6.:.*.@.| ` _ e q q q q q q 7 7 7 q e n _ ` ` ..*.;.:.:.I.I.qXqXqXqX",
"@ @ @ @ + + + + @ @ @ @ @ @ @ @ @ @ 6 . q   HXGX. . 4 - & & & & - & ; ; ; ; < < < < 1 < , s s s s s s s k k Z Z Z Z Z Z Z D D D D D D D D D D D D D F F F D F F F F D D D D F F F F F F F F F D D D K K P K P I I U U U ^ ^ ^ ^ ^ y.p.a.a.s.s.s.s.s.c.b.s.s.b.b.c.b.b.b.b.b.b.b.b.b.b.b.b.b.b.b.b.b.N.N.N.N.b.M.D.kXCXFXCXlXjXjXjXaXaX+X+XQ.9.6.6.4.<.+.X.{ A A n n -.9.9.eXpXe.o.o.] B B 2 q.3.FXe.rXeXQ.Q.W.9.7.7.Q.W.w.qXeXrXeXaXo.  + . O O + @ 4 4 e A [  .+.+.+.4.w.eXQ.eXiXaXeXiXfXaXjXjXfXfXfXfXaXrX+X+XQ.w.7.-. .{ v w e e w w w w w e v v v w w w w w w w w w 0 0 q 7 q q 7 7 7 7 7 7 7 7 7 7 7 7 7 7 7 7 7 7 7 7 7 6 7 7 7 7 7 7 7 0 0 w c c c c w w 0 0 w w 0 0 0 0 0 0 w 0 w 0 0 w c c c c c c v v v v v c w w w w w w v v n n n n S S m S S S [ [ [ [ S S S S m c 8 3 ; w  .X.{ { A A n n e w A A v 7 % 5 % 6.vXvXxXxXxXxXdXdXqX^.^.I.I.I.I.:.:.*...| _ n q 7 4 q q q 4 7 4 4 q e n _ ` | ..*.;.:.6.I.I.qXqXqXqX",
"+ + @ @ + + + + @ @ @ @ @ @ @ @ @ @ &   O q UX4.  & 4 - & & - & - - ; ; ; ; < < < < 1 < < u s s s s s s k k Z Z Z Z Z Z Z D D D D D D D D D D D D D D D F D D F F F D D D D F F F F F F F F F D D D T K P K P I E U U U ^ ^ ^ ^ ^ p.p.a.a.s.s.s.s.s.b.c.s.s.b.b.b.c.b.b.b.b.b.b.b.b.b.b.b.N.b.b.b.b.N.N.N.N.s.M.D.VXCXCXlXlXkXjXjXaXaXtXQ.+X9.9.4.5.<.=...[ A A n n +.6.5.e.jXpXwXwXhX] B hX. FXpXpXrXeX+XQ.e.w.w.7.w.w.e.9.qXeXpXyX&   @ . O O + @ 4 4 A A {  .+.<.<.w.eXiX+XeX+XQ.fXjXjXjXfXfXfXaXaXaXyX+Xw.w.W.e.w.5.+. .A v e e w w w w w w w e w w w w w w w w 0 w 0 0 q q 0 0 q q 0 0 7 7 7 7 7 7 7 7 7 7 7 7 7 7 7 7 7 7 7 7 7 7 7 7 7 6 7 0 w w c c w w 0 0 0 w 0 0 0 0 0 0 w 0 w 0 0 w c c c c c c c c c c c c w 0 w w w w v v n n n n m m m m S S [ [ [ [ S S S S m c 8 3 % 0 {  .{ { A A A n w w A A v 7 % = # qXvXvXxXxXxXxXdXdXqXqX^.I.I.I.l.:.#.*.| ` _ c q 4 4 4 4 4 4 4 3 4 q e _ _ ` ..*.;.:.6.I.I.qXqXqXqXqX",
"+ @ @ @ @ @ @ @ @ @ @ @ @ @ @ @ @ @ O 4   pXUX. o @ - @ & - - - - & - ; ; ; < < < < 1 < < u s s s s d d k k Z Z Z Z Z Z Z Z D D D D D D D D D D F D D D F F F F F F D D D D F F F F F F F F D D D D T K P P P I E U U ~ ^ ^ ^ ^ ^ p.p.a.a.a.s.s.s.s.c.c.s.c.c.b.b.b.b.b.b.b.b.b.b.b.b.b.b.b.N.N.b.b.N.N.f.f.s.M.D.VXCXlXlXlXjXjXjXfXaXyXQ.+X9.w.<.5.<.+.X.{ A A n n O.5.5.e.aX3.] 2 2 B . B . hXlXeXQ.e.w.w.w.w.w.Q.7.7.qX5.e.e.yXe.  O . O O O @ @ 4 q { A  .O.<.4.7.w.+X+XeXtXyXyXfXjXjXfXfXaXiXyXeXtXyXeXW.w.w.w.7.6.-. .{ A v w w w w w w w w w w w w w w w w w 0 0 0 0 q q 0 0 0 0 0 q 7 7 7 7 7 7 7 7 7 7 7 7 7 7 7 7 7 7 7 7 7 7 6 6 6 6 7 7 7 0 w w w 0 0 0 0 0 8 8 8 8 8 0 0 0 0 0 0 w c c v v c c c c c c c c w 0 w w w w v v n n n n m m m m S [ [ [ [ [ S S S S m c 8 6 - 9 A  . .{ A A A A n e A A v 7 O % # dXvXvXxXxXxXdXdXdXqXqX^.I.I.I.:.:.@.@.} ` n w 7 4 4 4 4 4 4 4 4 4 q e _ ` | ..*.;.;.6.I.I.qXqXqXqXdX",
"+ + @ @ + + @ @ + + @ @ @ @ @ @ @ @ O .   UXGX  O @ - @ - - - - - & - - - ; ; < < < < < , , s s s d d d k k Z Z Z Z Z Z Z Z D D D D D D D D D D D D D D D D F F F F D D D D D F F F D D D D D D D D K K K K K I I I U U ^ ^ ^ ^ ^ p.p.a.a.s.a.a.s.s.s.s.s.c.f.f.f.f.f.f.f.b.b.b.f.f.b.b.b.b.N.N.N.N.N.N.f.f.a.M.F.CXlXlXkXkXjXjXkXfXaXyXeXQ.0.w.4.6.4.-.X. .A A n n X.<.5.e.pXq.q.wX3.] wX] q.lXlXjXQ.9.6.9.7.w.w.+XQ.e.w.w.7.eXyX6 . . . O O O @ 4 4 e { o...+.4.5.7.e.eXrXrXtXQ.iXfXfXiXfXaXyXiXtXiXyXtXW.w.w.w.9.6.4.4.-.O.{ n w v v v v v w w w w w w w w w w w w w w w 0 0 w 0 q 7 7 7 7 7 7 7 7 7 7 7 7 7 7 7 7 7 7 7 7 7 7 7 6 6 6 6 6 6 6 6 6 6 7 7 7 7 7 7 7 7 7 7 7 7 8 8 0 0 0 0 0 w e v v e w w v v v v v w w 0 0 w w w v v v n n n n n n m S S S [ [ [ [ m m m n w 8 6 4 8 A  .} [ A A A [ S n A A v 8 $ % # VXvXvXvXxXxXdXdXdXqXqX^.I.I.I.:.#.@.| ` m c q 4 4 4 4 4 4 4 4 4 4 q e _ ` ....*.;.:.6.I.I.qXqXqXqXdX",
"+ + @ @ + + + + + + @ @ @ @ @ @ @ @ 4   +.PXlXo.4 & @ @ @ @ - & & & & & - ; : < < < < < < s s s s s d d j k l Z Z Z Z Z Z Z D D D D D D D D D D D D D D D D F F F F D D D D F F F F D D D F D D T T K K K K K I I I U U ^ ^ ^ ^ ^ p.p.a.a.a.a.a.s.s.s.s.b.b.f.f.f.f.f.f.f.f.b.b.f.f.b.b.b.b.b.b.N.c.N.N.f.f.s.M.Y.CXlXlXkXjXjXjXjXjXaXyXtXW.w.w.5.6.4.-.X. .A A n w w +.5.4.rX3.B 2 ] 2 q.] 2 GXrXrXyXQ.W.W.7.e.9.Q.Q.Q.w.w.Q.yX5.O . . O O O O @ 4 6 e  ...+.+.6.6.e.+X+X+XQ.rXeXfXjXjXaXfXaXtXpXrXtXeXtXw.w.w.w.7.6.5.;.;.*.O. .} S v v v v v v w w w w w w w w w w w w w 0 0 w 0 0 7 7 7 7 7 7 7 7 7 7 7 7 7 7 7 7 7 7 7 7 7 7 7 6 6 6 6 6 6 6 6 6 6 6 6 6 6 6 6 7 7 7 7 7 7 8 8 0 0 0 0 w w v v v w w w v v v v v w w 0 0 w w w w v v n v n n n n n n m S S [ [ [ [ m S n 0 8 6 8 q A  .} { A A A [ [ A A A v 7 % % # VXvXvXvXvXxXdXdXdXqXqXI.I.I.:.:.#.@.| m b q 7 4 4 4 4 4 4 4 4 4 4 q c _ ` ` ..*.;.:.6.I.I.qXqXqXqXdX",
"+ + @ @ + + + + + + @ @ @ + @ + + + .   HXUX+.[ O 4 @ @ @ & & & & & % - - ; : : < < < < < s s s s s d d j k l Z Z Z Z Z Z Z D D D D D D D D D D D D D D D D D D D D D D D D F F F F D D F F D D D T T K T K K I I I U U U ^ ^ ^ ^ p.p.a.a.a.a.a.s.s.s.s.c.b.f.f.f.f.f.f.f.f.b.f.f.f.b.b.b.b.b.b.N.c.N.N.f.f.N.M.XXVXlXlXkXkXjXjXjXjXaXyXyXe.w.e.7.5.4.-.X. .S A n w A 4.q.q.rXpXpXwXwXB ] ).3.FXpXaXpXeX+Xe.w.!.w.Q.Q.Q.w.w.aXhX{   . . O O + @ 4 4 e A  . .+.-.7.7.Q.eXeXeXQ.yXyXfXfXaXrXiXiXrXyXeXQ.Q.eXw.w.w.9.4.-.=.+.O.O.O. .} [ n v v v v v v w w w w w w w w w w w w 0 0 w 0 0 7 7 7 7 7 7 7 7 7 7 7 7 7 7 7 7 7 7 7 7 7 7 7 6 6 6 6 6 6 6 6 6 6 6 6 5 5 5 6 5 7 7 7 7 7 8 8 0 0 0 w w w v v v w w w w w w w w w 0 0 0 0 0 w w v v v v v v n n n n n m S [ [ [ [ m S n 0 8 8 w e S  .{ { A A [ { } S S A v 7 % 5 % CXvXvXvXvXxXdXdXqXqXqXI.I.l.:.:.@.` m b w 7 4 4 4 4 4 4 4 4 4 4 4 q c _ ` ` ..*.;.:.I.I.qXqXqXqXqXdX",
"+ + + + + + + + + + @ @ @ @ @ @ + + + O UXHXO 4 4 4 @ & & & & & & & & & - ; : : < < < < < u s s s s s k k k Z Z Z Z Z Z Z Z D D D D D D D D D D D D D D D D D D D D D D D D F F F F F F D F D D D D T K P P P I I I I U ~ ~ ^ ^ ^ ( p.a.s.s.s.s.s.s.s.s.b.b.f.b.f.f.f.f.f.f.d.f.f.f.b.b.f.f.b.b.N.c.N.N.f.f.N.v.oXCXlXlXkXkXjXjXjXjXaXtXaXQ.e.w.9.<.4.-.+.X.S n w w A  .+.5.pXq.] q 2 2 B B ] lXkXe.eXeXQ.7.6.e.w.+X!.Q.w.w.aXyXq   . O O + @ @ 4 6 e {  . .-.<.w.w.e.eXeXiXeXaXiXiXjXfXyXaXyXeXtX+Xw.w.Q.w.w.9.6.=.;.<.;.<.<.<.=... .{ n v v v v v w w w w w w w w w w w w w w w q 7 7 7 7 7 7 7 7 7 7 7 7 7 7 7 7 7 7 7 7 7 7 7 7 6 6 6 6 6 6 6 6 6 6 6 3 3 3 3 5 5 6 6 7 7 7 7 7 8 0 0 w w w v v v v w w w w w w w w w 0 0 0 0 0 w v v v v v v v v v n n n m S [ [ [ S m v 7 6 8 A A [  . .[ n A [ { } { S A v 7 ; 5 = CXvXvXvXvXdXdXdXqXqX^.I.I.:.:.#.' ` b w q 4 4 4 4 4 4 4 4 4 4 4 4 7 e _ ` | ..*.;.6.I.I.qXqXqXqXqXdX",
"+ + + + + + + + + + @ @ @ @ & & @ + O e.UXaX@ 4 4 4 & & & & & & - - & & - ; < < < < < < < u u s s s s s k k Z Z Z Z Z Z Z D D D D D D D D D D D D D D D D D D D F F D D D D F F F F F F D F D D D D T T P P P I I I I U ~ ^ ^ ^ ^ ^ p.a.a.s.s.s.s.s.s.s.b.b.b.b.f.f.f.f.f.f.d.d.f.f.b.b.f.b.b.b.N.c.N.N.f.f.N.v.,XCXlXlXkXjXjXjXjXaXiXyXfXtXW.9.9.<.4.<.+...[ n w w w { O.5.wXwXpXlXq.o.wX3.hXjXpXeX9.eXw.w.w.w.w.Q.eXw.e.9.yX{ . . o O O O @ 4 4 w A  . .X.<.4.w.w.W.Q.eXeXeXaXaXfXjXtXyXiXtXeXeXQ.w.w.w.9.w.4.6.-.5.<.4.4.;.=.O.O. . .[ n v v v v v w w w w w w w w w w w w w w 0 q 7 7 7 7 7 7 7 7 7 7 7 7 7 7 7 7 7 7 7 7 7 7 7 7 7 6 6 6 6 7 6 6 5 5 5 5 5 3 3 5 5 6 6 7 7 7 7 7 0 0 w w c v v v c w w w w w w w w w 7 0 0 0 0 w w v v v v v v v v v n m m S [ [ [ m n w 8 7 w [ [ }  . .m v m S [ [ [ S m v q 5 5 5 VXdXvXxXvXdXdXqXqXqXI.I.l.:.:.*.` _ c q 7 4 @ - - 4 4 4 4 4 4 4 4 7 e _ ` | *.;.:.6.I.I.qXqXqXqXdXdX",
"+ + + + + @ + + + + @ @ @ @ & & + +   KXUX4.O @ @ @ @ & & & & & - - - - - ; < < < < < < < < u s s s s s k k l Z Z Z l l Z D D D D D D D D D D D D D D D F F D D D D D D D D F F F F F F F F D D D D D D T T P I E E U ~ ~ ^ ^ ^ ^ ^ p.a.s.s.a.s.s.s.s.s.c.c.b.f.f.f.f.f.f.f.d.d.f.f.b.b.N.N.b.b.N.c.N.N.f.f.N.c.sXCXkXkXjXjXjXjXjXfXaXyXaXyXW.9.7.<.<.<.+...[ e 0 w q O.3.+.wXq.o.] B o.B ] q.lXwXeXe.eXw.w.W.e.w.w.Q.w.yXpXpXn . . O O O O @ 4 6 e {  ...+.<.4.e.w.9.W.rXyXeXfXfXfXfXQ.tXyXeXeXQ.Q.W.w.7.5.4.;.6.4.;.-.O.O.O.O.+.+.O. .} [ n v v v v v w w w w w w w w w w w w 0 0 q 7 7 7 7 7 7 7 7 7 7 7 7 7 7 7 7 7 7 7 7 7 7 7 7 7 7 6 6 6 7 6 6 5 5 5 5 5 5 5 5 5 5 5 5 5 6 6 7 0 0 w w c v v c w w w w w w w w w w 7 7 0 0 7 7 w w v v v v w c c w v n m m [ [ S n v w 7 q v [ { }  .} n v n m S [ [ S m v q 6 5 8 VXdXvXdXxXdXdXqXqXI.I.I.:.:.;.*.` b c q 5 4 @ @ @ 4 4 4 4 4 4 4 4 7 e _ ` | @.;.:.6.I.I.qXqXqXqXdXdX",
"+ + + + @ + + + + + @ @ @ @ @ @ O o { UXlX@ 4 4 4 4 & & & & & & - - - - - ; < < < < < < < < u s s s s s j k l Z Z Z l l Z D D D D D D D D D D D D D D D F F F D D D D D D D F F F F F F D F D D F D D D T T K P E E U ~ ~ ^ ^ ^ ^ ^ p.a.a.s.a.a.s.s.s.s.c.c.f.f.f.f.f.f.f.f.d.d.f.f.b.b.b.b.b.b.N.c.N.N.f.f.B.v.dXCXkXkXjXjXjXjXjXjXfXyXtXyX9.9.4.<.<.<.+.+.[ e w 0 q O.3.3.q.q.wXwXhXhX] ] hXjXaXrXeXeXw.w.W.W.W.e.W.9.yXaXeX4   O O O O O @ 4 7 A  . .+.<.<.4.w.w.9.W.rXyXQ.fXfXaXjXQ.tXaXtXtXeXQ.w.9.6.4.<.-.5.;.-.=.O.X.O.O.O.O.O.X. .} [ n v v v v v w v v w w w w w w w w w 0 q 7 q q 7 7 7 7 7 7 7 7 7 7 7 7 7 7 7 7 7 7 7 7 7 7 7 7 6 6 7 6 6 5 5 5 5 5 3 5 5 5 5 5 5 5 5 5 7 0 0 w c v v v w 0 7 7 7 0 0 w w w 0 7 8 8 7 7 7 7 w w w w v c c w w v n m m S [ S n w 7 7 w n [ } } } [ v w n n S [ [ [ m c 8 6 5 8 VXdXdXdXdXdXqXqXqXI.I.l.:.:.@..._ c 7 5 4 @ @ @ @ @ @ @ @ 4 4 4 4 q e _ ` ..*.;.:.I.I.qXqXqXqXqXdXdX",
"+ + + @ @ + + + @ + @ @ @ @ + + o . lXUXeXO & & @ @ @ & & & & & & & & - - ; ; < < < < < < u u s s s s s j k k l l l l l Z Z Z Z D D D D D D D D D D D D D D D D D D D D D D F F F F D D D F D D F F F D T T K P E E U ~ ~ ^ ^ ^ ^ ^ p.a.a.s.a.a.s.s.s.s.c.c.f.f.f.f.f.f.f.f.f.f.f.f.b.b.b.b.b.b.N.N.N.N.f.f.V.v.gXCXkXjXjXjXfXjXjXkXhXrXeXyX7.9.<.<.-.-.+.+.{ n w 9 w { +.5.q.o.q B B 2 ] ] FXaXrXqXrXeX7.9.e.W.e.W.Q.9.eXrXo..   O O O + + @ 4 w [ { o.+.5.<.4.w.w.Q.+XeXeXw.fXfXyXaX6.w.eXW.w.w.7.6.6.6.4.6.-.-.O.=.*.-.+.O.O.O.O.O.O.O. .} S n v v v v e e w w w w w w w w w w w 0 q q 0 7 7 7 7 7 7 7 7 7 7 7 7 7 7 7 7 7 7 7 7 7 7 6 6 6 6 6 6 6 5 5 5 5 5 5 5 5 5 5 5 5 3 3 5 6 7 0 w v v v w w 7 7 7 7 0 0 w w w 0 7 6 6 7 7 7 7 7 w w w w w w w w w c n m m m n v w 7 7 v [ } } } } { w 0 v n S [ } [ n c 0 8 5 5 VXdXdXdXdXdXqXqXI.I.I.:.#.@...` c 7 6 4 & @ @ @ @ @ @ @ @ @ - 4 4 7 c _ ` ..*.;.:.I.I.qXqXqXqXqXdXdX",
"+ + + @ @ @ + + + + O @ @ @ @ @ O   UXKX+.  4 4 7 . & & @ @ & & % % & & - ; ; < < < < < < u u s s s s s j k k k Z Z Z l Z Z Z Z D D D D D D D D D D D D D D D D D D D D D D F F F F D D D D D D F F F D T T K P E E U ~ ~ ^ ^ ^ ^ ^ p.p.a.a.a.a.s.s.s.s.s.s.b.b.b.b.b.b.b.b.b.b.f.f.b.b.f.f.b.b.N.N.N.N.f.f.B.m.gXCXkXjXfXiXfXjXjXkXfXyXeXrXQ.w.5.4.+.+.+.O. .A w w - 9 O.5.q.jXhXwXwXwX).3.GXhXpXQ.rXQ.7.w.+XW.w.9.w.tXpXyXw   $ O O O + @ - 6 e { [  .+.<.<.w.e.W.+XeXeXeXyXfXfXiXyXw.w.+XqXeXw.Q.6.5.4.<.=.=.=.*.*.+.O.O.O.O.X.X...X.*. . .{ } m v v v v e w w w w w w w w w w q q q w q 0 7 7 7 7 7 7 7 7 7 7 7 7 7 7 7 7 7 7 6 6 7 6 6 6 6 6 5 5 5 5 6 5 5 5 5 5 5 5 5 5 5 3 3 5 7 0 w v v w w 0 7 6 6 7 0 w w w w q 7 6 6 6 6 6 6 6 7 0 w c c w c c c c n m m m n v w 7 0 n } } } } } S 0 0 c n S [ } m n w w 0 8 h gXdXdXdXdXqXqX^.I.I.I.:.#.@.` b 8 5 3 - & @ @ @ @ @ @ @ @ @ - 4 4 7 c _ ` | *.;.:.I.I.qXqXqXqXdXdXdX",
"+ + + @ + + + + + - 4 & + @ . +   +XKXe.4 . 6 @ & @ & @ @ @ & & % % & & - ; < < < < < < < u u s s s s s k k k k Z Z Z Z Z Z Z Z D D D D D D D D D D D D D D D D D D D D D D F F F F D D D D D D D D D D T K K P E I U U ~ ^ ^ ^ ^ ^ p.p.a.a.a.a.s.s.s.s.s.s.b.b.b.b.b.b.b.b.b.b.f.f.b.b.f.f.f.f.f.f.N.N.f.f.c.m.gXCXkXhXhXiXaXjXjXkXaXyX+XeX+Xw.7.5.+.+.+.+. .[ e w e e o.o.wX3.B B B 2 ] o.FXlXaXeXrXQ.7.w.Q.e.w.w.W.Q.fX7.& . O O O O + @ 4 w A  .X.+.<.<.4.Q.e.W.Q.+XtXiXaXfXaXeXyXw.w.+Xw.W.6.0.6.5.4.;.=.=.=.*.+.O.O.O.O.X.X.X.....=. .X. .O.[ S n v v w w w w w w w w w w w w w q q 7 0 7 7 7 7 7 7 7 7 6 7 7 7 7 7 7 7 6 7 7 6 6 6 6 6 6 5 5 5 5 5 5 5 5 5 5 5 5 5 5 5 5 6 5 5 6 7 w w w w 0 7 7 6 3 7 0 w w w w q 7 6 6 6 6 6 6 6 7 0 0 w w w w c c v n m m n n v w 7 w S | | } } | m 0 8 w v n S S m c w w 8 8 b dXdXdXqXqXqX^.I.I.l.:.#.@.` b c 8 ; % & $ + @ @ @ @ @ @ @ @ @ 4 4 7 c _ ` ..*.;.:.I.I.qXqXqXqXdXdXdX",
"+ + + + + + + + + + O . O - O & O KXLX4   @ 7 @ o 4 & & @ @ & & % % & & - ; < < < < < < < u u s s s s s d k k k Z Z Z Z Z Z Z Z D D D D D D D D D D D D D S D S D D D D D D F F F F D D D D D D T D D D T K K P E I U U ~ ^ ^ ^ ^ ^ p.a.a.a.a.a.s.s.s.s.s.s.f.b.b.b.b.b.b.b.b.b.f.f.b.b.f.f.f.f.f.f.N.N.f.f.a.M.gXVXkXhXfXiXyXjXjXlXaXpX+XeXeXe.9.7.-.<.<.+. .{ e w 6 9 O.3.q.wXq.wXwXwXq.2 GXaXyXw.rXQ.7.w.w.w.W.Q.Q.qXfX[   o o O + + @ - 4 w A  .X.<.<.5.5.eXe.Q.Q.+XtXyXiXfXiXeXyXw.w.+Xw.w.6.6.4.5.4.;.=.=.=.*.+.O.O.O.O.X.X.X.....=. .O. .=.X. .[ S n v w w w w w w w w w w w w w w w 0 0 7 7 q 7 7 7 7 7 7 7 7 7 7 7 7 6 6 6 6 6 6 6 6 6 5 5 5 5 5 5 5 5 5 5 5 5 5 5 5 5 6 5 5 6 7 q w w 0 8 7 6 3 3 7 0 w w w w q 7 6 6 6 6 6 6 6 7 0 w w w w w c c v n n m n n v w w v [  .| | | | b 8 8 9 w v n m n w 0 0 5 ; | qXqXI.^.^.I.I.I.l.:.#.@.| b c 8 ; % % $ $ @ @ @ @ @ @ @ @ @ - 4 3 7 c _ ` ..*.;.:.I.I.qXqXqXqXdXdXdX",
"+ + + + + + + + + + @ - & O O   A UXHX+ - @ 4 4 O - @ @ & & & & & % & - ; ; : < < < < < < 8 s s s s s s s k k Z Z Z Z Z Z Z Z D D D D D D D D D D D D D D D D S D D D D D D F F F F F F D D D D D D T T T T T P E E U ~ ~ ^ ^ ^ ^ ^ p.p.a.a.a.a.s.s.s.s.s.s.b.b.b.b.b.b.b.b.b.b.f.f.b.b.f.f.f.f.f.N.N.N.f.f.N.G.bXCXkXhXfXiXrXaXjXlXaXpX+XeXrXQ.w.9.<.4.4.-. .{ e e 4 9 o.3.{ o.2 2 B ] 3.o.hXpXrXqXrXQ.7.w.9.w.Q.+Xe.yXyX7   + . $ O + & - 7 e [ ..+.+.<.5.6.eXQ.+X+XeXeXeXeXiXiXtXiXw.w.+Xe.Q.7.w.5.4.;.-.=.=.+.+.+.O.O.O.X......... .+. .-.O.-.*.O. .} [ n e w w w w w w w w w w w q w q 7 7 7 7 q q 7 7 7 7 7 7 7 7 7 6 6 6 6 6 6 6 6 6 5 5 5 5 5 5 5 5 5 5 5 5 5 5 5 5 5 5 5 3 3 5 7 7 0 7 8 6 6 3 4 3 7 0 w w w w 7 7 6 6 6 6 6 6 6 7 0 0 w w w w w c c c n n n v w w w v [ ..} } } } c 8 6 8 0 w v b c 8 8 8 ; = %.Q.Q.I.I.I.I.I.l.:.#.@.` m c 8 5 % % % $ $ @ @ @ @ @ @ @ @ @ - 3 3 7 c _ ` ..*.;.6.I.I.qXqXqXdXdXdXdX",
"+ + @ @ + + + + + + @ - & o O . kXUX+XO - 4 - 4 & @ $ $ $ $ % % % % % % ; ; < < < < < < < 8 s s s s s s s k k k Z Z k Z Z Z D D D D D D D D D D D D D D D D D D D D D D F F F F F F F F D D D D D D T T T T K P E I U ~ ~ ^ ^ ^ ^ ^ p.p.a.a.a.a.s.s.s.s.s.s.b.b.b.b.b.b.b.b.b.b.f.f.b.b.f.f.b.b.b.b.N.N.f.f.N.F.VXCXkXjXfXiXyXaXjXjXaXaXiXeXeX+Xe.w.4.<.-.+.o.{ e e 4 4 q o.e.q.3.hXwXwXB jXaXpXeXe.!.!.W.W.e.eXeXe.e.pX<.  o + + o o @ - 4 w A [ X.=.<.<.7.7.+XQ.+X+X+XeXeXtXiXyXQ.iXe.7.w.e.!.7.9.4.4.4.-.=.+.+.O.O.O.X... . . .O.O...+. .-.O.-.-.-.*.+. . .{ n e w w w w w w w w 0 w 0 w 0 7 7 7 q q q 7 7 7 7 7 7 6 7 6 6 6 6 6 6 6 6 6 5 5 5 5 5 5 5 5 5 5 5 5 5 5 5 5 5 5 3 3 3 3 6 6 6 6 6 5 5 3 3 3 7 0 w w w 0 7 6 6 6 6 6 6 6 6 7 0 0 w w w w w c c c n n v c c w w n }  . . .| S 0 8 8 8 0 0 w w 0 5 3 3 % % :.I.Q.l.I.I.I.:.:.@.@.| m c h 5 5 % % % $ $ @ @ @ @ @ @ @ @ @ - 3 3 7 c _ ` ..*.;.I.I.qXqXqXqXqXdXdXfX",
"+ + @ @ + + + + + + O . o & @ - PXGX6 . - 4 4 + + - $ $ $ $ % % % % % % % ; < < < < < < < s u s s d s s s k k k Z Z Z l Z Z D D D D D D D D D D D D D D D D D D D D D D F F F F F F D D D D D D D D T T T T K P E I U ~ ~ ^ ^ ^ ^ ^ p.p.a.a.a.a.s.s.s.s.s.s.b.b.s.s.b.b.b.b.b.b.f.f.b.b.f.f.f.f.b.b.N.b.N.N.N.G.VXCXjXjXfXaXpXaXjXjXhXaXiXrXeX+Xw.7.+.+.+... .n w q 4 @ n o.+.] ] ] ] ] o.lXhXpX9.rXw.w.w.w.w.e.e.w.yXrX[ X + + o o O & 4 6 n {  .X.-.<.5.9.6.W.e.W.Q.Q.eXeXtXiXtXQ.tXw.5.9.9.w.5.6.4.4.<.-.=.+.O.O.O.O.X.X.......O.=.+.-.+.+.O.-.;.;.-.=.+.O. . .{ n e w w w w 0 0 0 0 w w 0 7 7 7 7 q 0 7 7 7 7 7 7 6 6 6 6 6 5 5 6 6 6 6 6 6 5 5 5 5 5 5 5 5 5 5 5 5 5 5 3 5 3 3 3 3 3 3 3 3 5 5 3 3 3 5 7 0 w w w 0 7 6 3 3 6 6 3 3 6 7 0 0 w 0 0 0 w w c c c c c c c c v n }  .....} n 8 8 8 8 8 8 0 0 7 3 % % % % 6.U.I.6.I.l.l.:.#.@.` m b h 8 5 ; % % % % & @ @ @ @ @ @ @ @ & - 3 3 7 c b ` ..*.;.I.I.qXqXqXqXqXdXdXfX",
"+ + + + + + + + + @ + O @ 4 . 9.LX<.. O - - 4 O + - $ $ $ $ % % % % % % % ; < < < < < < < 8 u s s d s s s d k k Z Z Z l Z Z D D D D D D D D D D D D D D D D D D D D D D F F F F F F F D D D D D D D T T T T T P E I U ~ ~ ^ ^ ^ ^ ^ p.p.a.a.a.a.s.s.s.s.s.s.b.b.s.s.b.b.b.b.b.b.f.f.b.b.f.f.b.f.b.b.N.b.N.N.c.G.VXkXjXhXfXfXaXaXkXjXjXaXiXrX+XQ.w.6.+.+.+... .n w q 6 @ e o.) 3.wX3.o.B ] jXhXeXjX9.Q.Q.Q.+XeX+X+XeXfXQ.&   + o o O @ - 6 7 S  .X.+.=.<.5.9.6.W.e.W.Q.Q.eXeXtXiXtXQ.yXW.w.Q.w.Q.7.9.4.4.<.-.=.+.+.O.O.O.O.O.O.O.O.+.-.+.-.O.=...-.;.;.;.<.-.=.+.O. .{ [ n w w w 0 0 0 0 w w 0 0 q 0 0 0 0 0 7 7 7 7 7 7 7 6 6 6 6 6 6 6 6 6 6 5 5 5 5 5 5 5 5 5 5 5 5 5 5 5 3 5 3 3 3 3 4 4 3 3 3 3 3 3 5 5 7 0 w w w 0 7 6 3 3 3 6 3 6 6 7 0 0 w w 0 0 w w c c c c c c c c n [  .X.X.X.} w 6 6 6 6 8 8 8 6 5 % $ $ = % W.:.:.A.:.:.:.#.@.` m b c 8 5 5 % % % % % & & & & & $ $ $ $ & - 3 3 7 v m ` ..*.:.I.I.I.qXqXqXqXdXdXfX",
"+ + @ + + + + + + + + @ + .   GXIX& . - - & + & - + $ $ $ $ % % % % % % ; ; < < < < < < < s u s d d s s s g k k Z Z k k Z Z Z D S S D D D D D D D D D D D D S D D D D D D D D D F F D D F F D D D D K K P P P P E I U U ~ ^ ^ ^ ^ ^ p.p.a.a.a.a.s.s.s.s.s.s.b.b.c.b.b.b.b.b.b.b.f.f.b.b.b.b.b.b.b.b.N.b.N.N.c.XXVXkXfXhXfXfXaXaXkXkXjXaXyXrX+Xw.7.5.5.4.4.+.o.{ e e 4 4 7 +.A ] ] ] q.3.B lXaXhXe.rXw.w.w.w.+Xw.w.+XQ.-..   o o o + - 4 7 w { X...+.-.<.6.9.7.eXQ.Q.Q.Q.eXeXtXiXtXQ.eX0.9.Q.7.w.5.6.4.4.;.-.=.=.*.+.+.+.*.+.*.O.O.O.+.O.O. .-...=.-.;.;.<.<.<.-.=.+.o. .{ [ v w 0 0 w w w w q q 0 0 0 0 0 q 7 7 7 7 7 7 7 6 6 6 6 6 6 6 6 6 5 5 5 5 5 5 5 5 5 5 5 5 5 5 5 5 3 3 3 3 3 3 3 4 3 3 3 3 3 3 3 5 7 0 w w 0 7 7 3 4 4 3 3 5 6 7 7 0 0 0 0 0 0 w w c c c c c c c c n [ X.O.=.X.[ w 6 6 6 6 5 5 5 5 3 % % % % % Q.:.:.A.#.#.@.@.} b b c 8 5 5 3 % % 3 3 3 - - - & & & $ $ $ & 3 3 5 8 c m ` ..*.:.I.I.I.qXqXqXqXdXdXfX",
"+ + + + + + + + + + & . 6    .PXpXO @ - - & + & & + $ $ $ $ % % % % % % ; ; ; : < < 1 < < u u s d j s s k k k Z Z k l l Z Z Z D S S D D D D D D D D D D D D D D D D D F D D F F F F D D F D D Z D D K K K K K P E I I U ~ ^ ^ ^ ^ ^ / p.a.a.a.a.s.s.s.s.s.s.d.d.f.f.d.f.d.d.f.f.f.f.b.b.b.b.b.b.b.N.N.b.N.N.c.XXVXkXjXhXfXaXaXaXjXkXjXaXyXtXw.w.9.6.7.5.5.+.+.{ n n 4 @ 4 [ { 3.hX3.B ] 2 GXeXrXaX7.e.Q.Q.e.9.eX9.7.pXn   O X o O @ - 6 w n { ..O.=.-.4.6.9.7.eXQ.Q.Q.Q.eXeXtXiXtXQ.eX9.w.6.6.7.4.5.4.<.;.-.=.+.+.+.+.+.+.O.O.O.O.O.O.+.O.O.=.O.O.-.;.<.4.4.4.<.;.<.4.5.;.O. .[ w w w w 0 0 0 0 q 0 0 0 0 0 7 7 7 8 8 7 7 6 7 6 6 6 6 6 6 6 6 6 6 6 6 6 6 6 5 5 5 5 5 5 5 5 5 5 3 3 3 3 3 3 ; ; ; ; 3 3 3 5 6 8 7 7 8 7 6 3 3 3 3 6 6 6 7 0 0 0 0 0 0 0 w w w c c c c c c c m } ..O.*...S w 6 6 6 6 3 3 3 % % % % % $ ` ;.;.;.*.*.@.@.} m b c 0 8 5 5 5 5 5 5 3 3 3 3 3 - & & & & & - 3 3 6 8 c m } @.*.:.I.I.I.I.qXqXqXqXdXdX",
"+ + + + + + + + + + 4 + +   lXIX .O @ @ - @ @ @ $ & & $ $ $ % % % ; ; ; ; ; ; : < < 1 < < < u s d j s s k k k C Z Z l l Z D D D S S D D D D D D D D D D D D D S D D D F F F F F F F F F F F D Z D D K K K K K P E I I U ~ ^ ^ ^ ^ ^ p.p.a.a.a.a.s.s.s.s.s.s.d.d.f.f.f.f.d.d.f.f.f.f.b.b.b.b.b.b.b.N.N.b.N.b.m.XXVXkXjXhXaXaXaXaXhXkXjXaXtXtXeXQ.w.9.5.;.4. .+.{ A e 4 - 4 e q o.3.3.hXwXwXlXjXe.9.qXeXw.w.eX9.5.9.aX7.4   o . o O @ 4 7 e A { ..O.+.-.4.7.w.7.eXQ.Q.Q.W.eXeXtXiXtXQ.eXw.w.7.5.7.4.5.4.<.-.+.+.+.O.O.+.+.+.O.O.X.O.O.O.=.O.O.+.=.O.<.4.4.5.4.4.<.<.5.6.6.6.-.=.O. .[ n w w 0 0 0 w w 0 0 0 0 7 7 7 8 8 7 7 6 7 6 6 6 7 7 6 6 6 6 6 6 6 6 6 6 5 5 6 5 5 5 5 5 5 5 3 3 3 3 3 3 ; ; ; ; 3 3 3 3 6 7 6 6 6 3 3 3 3 3 3 6 6 6 7 0 0 0 0 0 0 0 0 0 w w c c c c c c n [  .O.O.} v 8 5 5 5 3 3 & % % % % % % $ ` ;.*.*.*.@.| | m m b w 8 7 5 5 5 5 5 5 3 3 3 3 3 3 ; - - - - - 3 3 6 8 c m ` ..*.:.:.I.I.I.I.qXqXqXqXdX",
"+ + + + + + + + + + 4 + . q KXHXq & @ @ - @ & & & & & & - % % % ; ; ; ; ; ; ; < < < 1 1 < < u s d j s s k k k C Z Z l l Z D S D D D D D D D D D D D D D D D D D D D D F F F F F F F F F F F D D D D K K K K K P E I I U ~ ^ ^ ^ ^ ^ p.p.a.a.a.a.s.s.s.s.s.s.d.d.f.f.f.f.d.d.f.f.f.f.b.b.b.b.b.b.b.N.N.b.B.N.m.OXVXkXjXfXfXjXaXfXhXkXjXaXtXrXyXeXe.9.4.=.-.{ o. .{ e q 4 4 4 e 3.3.).B 2 wXaXrXaXyX5.w.eXeXw.7.w.rXyX{ . . . . o O @ 6 q n { { ..O.+.-.4.7.w.7.eXQ.Q.Q.W.tXeXtXiXtXW.eX9.w.7.4.6.<.4.<.-.=.+.+.+.O.O.+.O.O.O.O.O.O.O.*.-.O.*.=.-.+.<.4.5.6.5.5.4.<.4.4.6.7.4.4.<.;.+. .{ n w w w w w 0 0 0 0 7 7 7 7 7 7 7 7 7 7 7 7 7 7 6 6 6 6 6 6 6 6 6 6 5 5 6 6 5 5 5 5 5 5 3 3 3 3 3 3 3 ; ; ; 3 3 3 3 3 3 3 3 3 3 3 3 3 3 3 5 6 6 7 0 0 0 0 8 8 7 8 8 0 0 w w w c c c n S  ...| n 8 5 ; ; ; ; & % % % % % % % % } ;.O.O...| } S m b w 0 8 7 5 5 5 8 5 5 3 3 3 3 3 3 3 3 3 3 3 ; 3 5 5 7 w b m ` ..*.:.:.I.I.I.qXqXqXqXqX",
"@ @ @ $ $ $ $ $ $ + - . o Q.HX9.e 4 & @ @ & & & $ $ % % - % % ; ; ; ; ; < : : < < < 1 1 < < s s s j d k k k k k Z Z l l Z D D D D D D D D D D D D D D D D D D D D D D F D D F F F F F F F D D D D D K K K K K P E I I U ~ ^ ^ ^ ^ ^ / p.p.a.a.a.s.s.s.s.s.s.f.f.f.f.f.f.f.d.f.f.f.f.b.b.b.b.b.b.b.N.N.b.B.N.M.OXVXkXfXfXjXjXfXfXjXkXjXiXyXeXtXQ.w.6.5.<.4. . . .{ q 7 4 4 4 4 ] wX3.2 ] hXhXwXaXqXeX!.e.e.Q.rXQ.rXw.6 X . . o O + @ 7 w A { [ ..O.O.-.4.7.w.7.Q.Q.Q.Q.W.eXeXtXiXtXW.e.6.6.4.4.5.4.4.<.=.+.O.O.O.O.O.+.+.O.+.O.O.+.+.=.-.O.=.=.-.+.<.4.4.5.5.5.4.4.5.4.7.7.5.4.4.4.4.-.O. .[ n v w w 7 7 7 7 7 7 7 7 7 8 8 8 7 7 7 7 6 6 6 6 6 6 6 6 6 6 6 6 5 5 5 5 5 5 5 5 5 5 5 5 3 3 3 3 3 3 ; ; 3 3 3 3 3 3 3 3 3 3 3 3 3 3 3 5 5 7 7 8 0 0 0 7 7 7 7 7 7 7 0 w c c c c c m }  .m 0 6 3 % % % % % % & & % % % % % | *..... .| [ m b w 8 8 8 8 6 6 6 6 5 5 3 3 3 3 3 ; ; 3 3 3 3 3 3 5 5 5 0 c b ` ` ..*.;.:.6.I.I.qXqXqXqX",
"$ $ $ $ $ % % $ $ $ O ; $ GXKX7 + @ & & & & & & & $ - - - - ; - ; ; : ; : : < 1 1 < 1 1 < s s s d j j j k k k k Z Z Z Z Z D D S D D D D D D D D D D D D D D D D D D F F D D D D F F D D F F D Z D D K T K K K P E I I U ~ ~ ^ ^ ^ ^ y.p.p.a.a.a.a.s.s.s.s.s.d.d.d.d.d.d.d.d.d.d.f.f.f.f.f.b.b.b.b.b.B.b.N.N.M.#XVXkXfXhXjXjXhXaXjXjXjXaXiXeXtXW.!.7.6.<.4. . .{ { 7 4 4 4 4 q ] ).] wXB ).FXpXeXeXw.rXQ.Q.e.9.4.+X7.O X . . O + @ 4 w n { { { O.+.O.-.5.6.w.6.Q.Q.Q.Q.W.eXQ.Q.Q.W.w.9.6.5.5.4.4.5.4.4.-.+.O.O.O.+.+.+.+.O.+.O.O.+.+.=.-.O.=.=.=.+.4.4.<.4.5.5.4.5.4.6.7.7.5.6.7.6.6.4.-.=.O. .n w w w w 0 7 0 7 7 7 7 7 7 8 8 7 7 7 7 7 7 7 6 6 7 6 6 5 5 5 5 5 5 5 5 5 5 5 5 5 6 6 5 3 3 3 3 3 3 3 3 3 3 3 3 3 3 3 3 3 3 3 3 3 3 3 5 7 7 8 0 0 8 7 5 5 5 5 6 7 7 0 w w w c c m m m w 7 3 3 % % % % % & & & % % % % ;  .*. ...m [ n v c 0 8 8 8 8 6 7 7 6 5 5 5 3 3 3 3 3 3 3 3 3 3 3 3 5 5 5 8 0 v b m } ..*.;.4.6.I.I.I.qXqX",
"$ $ % % % % % $ $ $ o $ n UXGX& - @ & & & & & & - - - - - ; - ; ; : : : < < 1 1 1 1 1 < u s s s d d j j k k k k Z Z Z Z Z D D S D D D D D D D D D D D D D D D D D D F F D D F F F F D D F F D D D D T T K K K K E I U U ~ ~ U ^ ^ ^ y.p.p.a.a.a.a.s.s.s.s.s.d.d.d.d.d.d.d.d.d.d.f.d.f.f.f.b.b.b.b.b.b.b.B.m.A.#XVXkXfXjXjXjXhXfXhXjXjXaXyXeXQ.W.qXQ.7.<.4.o. .[ { w 4 4 4 4 q o.] ] o.] GXhXaXjXeXw.w.eXe.7.e.eXrX .X . . o O @ & 4 w n { {  .=.;.-.-.4.4.w.7.eXQ.Q.W.W.iXiXtXQ.w.7.7.7.6.5.4.;.5.4.4.-.+.O.O.O.+.+.+.+.O.O.O.O.*.=.=.-.O.=.=.=.+.4.4.-.<.5.4.4.5.5.5.7.6.4.4.4.4.4.;.-.-.=.O.} [ [ n w w 0 0 0 0 7 7 7 7 8 7 7 7 7 7 7 7 7 6 6 7 6 6 5 5 5 5 5 5 5 5 5 5 6 6 5 6 6 3 3 3 3 3 3 3 3 3 3 3 3 3 3 3 3 3 3 3 % % % 3 3 5 7 7 8 0 8 7 5 5 5 5 5 5 5 6 7 0 0 0 w n m S S 7 3 % % % % % % & & & & % % % % % ....|  .m S v c c 0 8 8 8 8 8 7 7 6 5 5 5 3 3 3 3 3 3 3 3 3 3 3 3 3 5 5 7 8 0 c b _ } ..*.;.:.6.I.I.I.qX",
"% % % % % % % % % % % o fXIX-.. 7 7 & - - - - - ; ; ; ; ; ; ; : : < < < < < < < < 1 < < s s s d d d j j k k k k Z Z k Z Z D D D D D D D D D D D S D D D D D D D F F F F D D F F D F D D F F D D D D T T K K K K E I U U U ~ ^ ^ ^ ^ y.p.p.a.a.a.a.s.s.s.s.s.s.s.s.s.s.s.s.s.f.f.f.f.f.f.f.b.b.b.b.b.b.b.B.M.A.&XCXkXkXkXjXjXhXhXhXjXhXfXyXeXQ.qXe.Q.w.4.4.+. .[ { e 4 4 4 4 @ o.] ] ] B hXaXpXyXeXaXQ.Q.5.e.eXaXW.6 . . o + @ & 4 6 w A { {  .=.;.-.-.6.4.w.w.tXQ.eXw.W.yXiXeXQ.w.6.5.7.6.5.<.=.4.<.<.-.+.O.O.O.O.+.O.O.+.O.O.*.-.-.-.;.+.=.-.-.+.4.5.-.-.4.<.;.4.4.4.6.4.;.;.;.;.;.-.-.-.-.=. . . .} S n w w 0 0 7 7 7 7 7 7 7 7 7 7 7 7 7 7 7 7 7 7 6 6 6 5 5 5 5 5 5 5 5 6 5 6 6 3 3 3 3 3 3 3 3 3 3 3 3 3 3 3 3 3 3 3 ; ; ; 3 3 5 7 7 8 8 7 6 5 5 5 3 3 3 3 3 6 7 0 8 0 w c n v 3 % % % & & % % & & & & ; 3 3 3 3 *.} [  .m S v v w 0 8 8 8 8 8 8 7 6 6 5 5 3 3 3 3 ; ; ; 5 5 5 3 3 3 5 5 6 7 7 0 w n _ ` | ..*.:.6.I.I.I.",
"% % % ; - % % % % % ; ; UXJX$ & 3 $ & - - - ; ; ; ; ; ; ; ; : : < < < < 8 < 1 < < < < s s d s d d k g k k k k C C C Z Z D D D D D D D D D D D D S S D D D D D D F F D D D D F F F F D D D D D D D D K K K K K K I I I U U ~ ^ ^ ^ ^ ^ p.p.a.a.a.a.a.a.s.s.s.s.s.s.s.s.s.s.s.f.b.b.b.b.b.b.b.b.b.b.b.B.B.B.M.A.,XVXkXlXkXjXjXhXjXjXjXjXjXpXyXeXeXw.w.e.4.5.+. .{ { e 4 2 4 4 4 3.hX3.o.wXlXrXrXeXyXeXQ.pX9.Q.9.yX9.. . o O O @ & 4 7 e A { { [ O.+.+.=.7.5.w.w.tXeXQ.w.w.eXQ.w.W.W.w.=.7.7.5.4.=.<.<.<.+.O.O.O.+.O.O.O.+.=.=.*.+.=.-.=.-.O.*.*.=.+.<.4.<.;.4.;.-.;.;.4.5.4.;.<.4.4.;.=.-.-.;.-.O.X.O... .} [ v w 0 7 0 0 7 7 7 7 7 7 7 7 7 7 7 7 7 6 6 6 6 6 5 5 5 5 5 5 6 6 6 6 5 5 3 3 6 3 3 3 3 3 3 3 3 3 3 3 3 3 3 3 3 ; ; ; 3 3 5 6 7 7 7 7 5 5 5 3 3 3 3 3 3 5 6 7 7 7 7 7 8 6 3 % & & & & % & & & & & & ; % % 3 =.[ [ } m S n v w w 0 8 8 8 7 8 7 7 6 5 5 3 3 ; ; ; ; 5 5 5 ; 3 3 5 5 5 5 5 6 6 7 c c n _ ` ..*.:.:.I.I.",
"% % $ ; ; $ ; % 6 % O 9.UXtXX 3 % ; ; ; ; ; ; ; ; ; ; ; ; ; : < < < < < < < 1 < < < u s s j d d d g g g k k z C Z Z Z Z D D D D D D D D D D D D D D D D D D F F F F F D D D F F F F D D F F D D D D K K K K K K I I I I U U U ^ ^ ^ ^ p.p.a.a.a.a.a.a.a.a.a.s.s.s.s.s.s.s.s.s.c.s.s.c.c.c.c.b.b.b.b.b.M.m.A.D.sXCXkXlXCXkXlXjXjXjXjXjXhXpXyXeXeXw.7.e.5.4.5. . . .e q 2 2 q q q.o.] ] o.lXaXrXeXw.yXe.yXeXQ.9.rXA o o o O O @ - 6 q n A { { { +.O...-.9.5.W.4.yX9.Q.W.eXfXtXeXQ.w.w.9.9.9.7.4.;.;.;.-.+...O.O.O.O.O.+.=.-.-.*.O.O.*.*.*.O.O.O.O.+.;.4.<.<.<.<.<.<.5.4.5.4.4.4.5.4.-.=.=.-.-.=.O.X. . . . . .S v w w 0 0 0 0 7 7 7 8 7 7 7 7 7 7 7 6 6 6 6 6 6 6 6 6 6 6 6 5 5 5 3 3 3 3 3 3 3 3 3 3 3 3 3 3 3 3 3 3 3 3 3 3 ; ; 3 3 3 5 6 6 6 5 3 3 3 3 3 3 3 5 5 5 5 6 6 5 5 5 3 % & % & & & & % % & & & & & & - % n A S S S A A v v w w 0 7 7 7 7 6 6 7 5 5 3 3 3 3 3 3 3 5 5 ; ; 3 3 3 3 3 ; 3 3 3 3 8 0 w c b m ` *.;.:.I.",
": - - ; ; % ; % 6 % % CXPXn . % % 3 5 ; ; ; ; ; ; : : : : : < 1 1 < < < < < 1 < < u s s s d d d d k g g k k z z Z Z Z Z Z D D D D D D D D D D D D D D D D D F F F F D D F F F F F F D D F F D D D D K K K K K K I P I I U ~ U U ^ ^ ^ y.y.p.a.p.a.a.a.a.a.a.a.a.d.d.a.a.a.a.d.d.d.d.c.c.b.b.c.s.s.c.c.c.v.v.A.sXCXkXlXlXlXlXkXkXkXjXjXfXyXrXeXQ.e.w.e.5.4.4.o. . .e e 4 @ 4 @ 3.q.wX3.jXhXrXrXw.aXe.w.eXQ.eXpXpX4   o o o o @ & 6 q A [ { {  .+.+...<.9.7.Q.w.aXQ.tXW.eXiXeXQ.+X7.9.;.;.<.<.<.<.-.-.<.-.+.+... . . .O.O.=.=.*.X.X.+.=.*.+.+.O.+.=.;.4.4.4.4.4.<.<.5.6.5.4.4.5.4.4.-.=.-.=.-.*.O.X. . . . . . .S v w w w w w w 0 0 7 7 7 7 7 7 7 7 6 7 6 6 6 6 6 6 6 6 6 6 5 6 3 3 3 3 3 3 3 3 3 3 3 3 3 3 3 3 3 3 3 3 3 3 3 ; ; 3 3 3 3 3 5 3 3 3 ; 3 3 3 3 3 3 5 5 5 5 5 5 5 5 3 & % % & & & & & & % % & & % % % % A S S S S A A b v w w 0 7 7 7 8 6 6 7 5 3 3 3 3 3 3 3 3 5 5 ; ; ; ; ; ; ; % % & & % 3 5 8 7 c c m | *.;.:.",
": : : : : < ; % 6 ; n UXlX$ 6 % O % ; ; ; ; < < < < < < < < 1 1 1 1 < < < < < < u s s d j j d d d k k k k k C Z Z Z Z Z Z D D D F F D D D D F D D D D D F F F F F F F F F F F F F F F F F F D D D D K K K K K K I P I I U U U ^ ^ ^ ^ y.y.y.a.a.a.a.a.a.a.a.a.a.a.a.a.a.a.a.p.p.p.p.a.a.a.a.c.a.a.s.c.v.v.>.2.sXCXkXlXlXlXlXlXlXlXjXjXfXyXrXyXQ.e.Q.Q.7.4.-.+. .{ A 4 @ 4 q @ +.] ] q pXlXeXrXrX5.aX9.e.w.eXaX9.. . o o O O @ & 6 q A { { {  .+.+...6.w.w.Q.Q.yXeXiX!.!.rXQ.W.Q.6.7.7.7.7.7.;.-.+.O. . .{ {  . .....O.O.=.-.-.O.O.=.-.-.-.=.=.=.-.<.4.4.4.4.4.<.<.5.6.5.4.4.4.5.4.-.-.-.-.-.*.O.X. . . . . . . .[ v v v w w w w 0 0 0 0 q q q 7 7 7 7 7 7 7 6 6 6 6 6 6 6 6 6 6 5 5 3 3 3 3 3 3 3 3 3 3 3 3 3 3 3 3 3 3 3 3 3 3 3 3 3 3 3 3 3 ; ; ; 3 3 3 3 3 3 3 3 3 3 3 3 3 ; % % % % & & - - - - % % & & % % % % [ S S S S S S n v 0 0 0 7 7 8 6 6 6 6 3 ; ; ; ; 3 3 3 3 5 5 ; ; ; ; ; % % % % % % % & % 3 5 8 8 c m | *.:.",
": : 8 : : < : % 6 ; w kX .X ; O % % ; ; ; ; < < < 1 1 1 1 1 1 1 1 1 < < < < u u u i s j d k d g g k k k k z Z Z Z Z Z Z T F F F F F F F F F F F F F F F F F F F | | G Y Y F F F F F F F F F D D Z K K K K K K K I P I I U U U U ! ! y.y.y.y.p.p.p.p.p.p.p.p.p.p.a.p.y.y.y.p.p.p.y.y.p.p.p.p.v.p.v.v.v.v.v.>.2.sXCXkXlXkXlXlXlXlXlXjXjXaXpXyXyXQ.e.Q.Q.5.-.+.+. .[ [ q 4 @ 4 @ 3.o.3.q.wXhXaXrXW.rXeX7.9.9.yXyXn   . o o O O @ - 6 q A { { {  .+.+...7.9.W.Q.!.eXQ.tX+Xw.+XW.w.W.4.4.;.;.;.;.-.=.+.+.O.+.O.....O.O.+.=.=.;.;.-.*.*.-.-.-.-.-.=.=.;.4.4.4.4.4.<.<.;.-.9.4.4.4.4.4.4.-.-.-.-.=.+.O... . . . . . . .} S S n v v w w w w w w 0 7 7 7 7 7 7 7 7 7 6 6 6 6 6 6 6 6 5 3 5 5 3 3 3 3 3 3 3 3 3 3 3 3 3 3 3 3 3 3 3 3 3 3 3 3 3 3 3 3 3 3 3 3 3 3 3 3 ; 3 3 3 3 ; 3 3 % % % % % & & & - - - - & & & % & & % % } [ S S S S b b 0 9 9 0 0 7 8 6 6 6 3 5 ; ; ; ; 3 3 3 3 ; ; ; % % % & $ $ $ $ $ $ $ % % ; ; 3 3 7 c b } @.",
"> < < : : < : < 6 % n iX% X X O 5 % ; ; ; : 1 1 1 1 1 1 1 1 1 u u h h u u u u i i s j d j k k g k k k k k z Z Z Z Z Z Z D T D D F F F F F F F F F F F F F F F F F F F Y Y Y Y Y Y Y Y Y Y F F D K K K K K K K K P I P I U U U U ! ! ^ y.y.y.y.y.y.y.p.p.p.p.y.y.y.y.y.^ y.^ y.y.y.y.y.y.y.y.v.p.p.p.y.v.&.>.%.fXCXlXlXkXlXlXlXkXlXjXjXfXaXpXrXeXe.Q.e.5.-.+.+...{ { 4 4 @ 4 4 o.3.3.2 hXjXrXrXyXeXqXQ.eX-.e.Q.&   . . o O O 4 4 e e A {  .{  .O.=.<.7.9.W.W.tXQ.W.+X!.w.7.w.w.5.<.<...O.=.-.-.=.=.=.=.=.+.O.O.O.+.+.=.=.-.-.=.+.*.=.-.-.-.=.O.O.=.-.;.;.4.4.4.;.-.-.;.4.4.4.4.4.<.-.-.-.=.+.O.O... . . . . .} } } [ [ S n n v e w w w w 0 0 7 7 7 7 7 7 7 7 6 6 6 6 6 6 6 6 6 5 5 5 5 5 5 5 5 5 5 5 5 5 5 3 3 3 3 3 3 3 3 3 3 ; ; ; 3 3 3 3 % 3 3 3 ; ; - - ; & 3 % % % % & % % % % % & & & - - - - & & & 3 3 % % ; | } S S m b b c 0 9 9 8 0 0 8 8 7 6 5 3 3 3 % % 3 3 3 3 ; % ; % % % $ $ $ + $ $ $ $ $ $ & & % % 3 8 c b | ",
"> > < < < < < : $ ; Q.fX6 $ O O % 5 5 : < 1 1 1 1 1 1 1 t 1 u u u h u u i i i i s j j j k k k k k k k k k z Z Z Z Z Z Z D T D D F F F F Y Y F F F F F F F F F F F Y Y Y Y Y Y Y Y Y Y Y Y Y Y D K T K K K K K K I I I I I U U U U ! ! ^ ^ ^ y.y.y.y.y.y.y.y.y.y.y.y.^ ^ ^ ^ ^ ^ y.y.y.y.y.^ y.y.y.y.^ v.! >.%.fXCXCXlXlXlXlXlXlXlXjXjXjXaXyXeXeXQ.Q.e.7.5.;.+.+. .{ ) q + + 4 o.q.).q.hXjXrXpXeXe.rXw.Q.e.yX+..   O . o O + 4 6 e e A {  .{  .O.-.4.7.w.w.Q.eXW.w.Q.W.w.7.w.e.7.5.6.4.4.5.5.<.-.=.+.O.O.O.....O.+.O.+.+.+.+.O.O.O.+.+.*.=.*.O.O.=.=.-.;.4.4.5.5.4.<.<.4.4.<.;.;.;.-.-.=.+.O.O.O. . . . . . .} { [ [ [ [ S A n n v e w w w w 0 7 7 7 7 7 7 7 6 6 6 6 6 6 6 6 6 5 6 5 5 5 5 5 5 5 6 5 3 3 3 3 3 3 3 3 3 3 3 3 3 ; % % ; 3 3 % % % ; ; % % & & & & % % % % % & % % % % % % & & & & - - & & % 3 3 & % 6 } S S m b b v 0 9 9 9 0 0 0 7 8 7 7 5 3 3 % % % 3 3 3 3 % % % % % % $ $ $ + $ $ $ $ $ $ % & & & % 5 8 c b ",
"< < < 1 < 1 8 : $ S kX+.O X $ % % 0 8 8 8 8 8 8 h t t t h h h h h j h h i i d j d j j k k k l k k k Z Z Z Z H H Z H T T T T F F F F F F Y Y Y F F F F Y Y F Y Y $.$.$.$.$.$.@.W W Y Y Y Y Y Y T K T K K K K K K I I I I I I I U U U U ! ! ! ! ! ! ^ ^ ^ ^ ^ ^ ^ ^ ^ ! ! ! ! ! ! ! ! ! ! ! ! ! ! ^ ^ ! >.! >.$.sXCXlXlXlXlXlXlXlXkXkXjXjXaXyXrXeXeXQ.w.w.5.+.+.+. .[ e 4 4 4 q q ] B 2 FXaXe.yXeXaX9.9.w.yXrXq   o @ . o O + 4 6 w e A {  . ...=.<.5.w.Q.w.eX+Xw.w.W.W.w.7.w.w.6.5.6.4.-.-.=.=.=.=.-.<.-.+.+.O.O.+.O.+.+.+.+.O.O.O.+.+.*.=.=.*.=.;.;.;.;.4.5.5.5.4.<.<.4.4.4.<.;.-.-.-.*.+.O.+.O. . . . . . .} { { [ [ [ [ S A A n v w w w w w w 0 7 q 7 7 7 7 7 7 7 7 7 7 7 6 6 6 6 6 6 6 6 6 5 6 6 5 3 3 3 3 3 3 3 3 3 3 3 ; % % % ; ; % % % % % % & & & & & & & & & & % % % % % % % & & & & & & & & & & % & % ; 8 S S b b v v 0 9 9 9 9 0 0 0 7 8 8 8 5 3 ; % % % 3 3 3 3 % % % % % % % $ $ $ $ $ $ $ $ $ $ % % & % % 5 8 c ",
"1 1 1 1 1 < 8 < < 0.fX4 o $ $ 5 8 h 0 8 8 8 h 1 u u t t t t h h h h j h i i i j j j k k k l l k k z Z Z Z Z H H K K T T T T Y Y Y Y Y F Y Y F F F F F F F F Y Y $.$.$.$.@.@.@.W W W W Y Y Y Y T T T T T K K K K I I I I U U U U U R U ! ! ! ! ! ! ! ! ^ ! ! ! ! ! ! ! ! ! ! ! ! ! ! ! ! ! ! ! ! ! ! ! ! Q &.W sXlXlXlXlXlXlXlXlXkXjXjXjXaXaXyXrXeX!.7.7.5...+.+.o.[ { 4 4 . 4 q q.q.hXpXpXaXyXyXe.eX9.5.yX9.o X 4 . . o O @ 4 6 w e {  . . ...=.4.6.9.Q.w.eX!.w.9.W.W.w.7.9.7.5.5.6.4.;.*.+.O.O.X.O. . .O...O.O.O.=.+.+.=.=.=.=.-.=.-.=.=.-.=.-.;.;.;.;.4.4.4.;.-.-.;.4.4.4.<.;.-.=.=.O.X.X.O.X. . .} } } } } { { { { [ [ [ A A S n v w w w w w 0 7 q 7 7 7 7 7 8 8 7 7 7 7 6 6 6 6 6 6 6 6 5 5 6 6 3 3 3 3 3 3 3 3 3 3 3 3 ; % ; 3 3 3 % % % % & & & & & & & & & & & & % % % % % % & & & & & & & & & & & & & $ ; 0 m b v v c 0 0 8 8 8 9 0 8 8 8 8 8 8 5 5 ; % % % 3 3 3 ; ; & & % % % % $ $ $ $ $ $ $ $ $ $ % % % $ % % ; 8 ",
"u u u u < 1 8 % b kX..3 X $ 5 8 j h h h h h h h h h h h u t u i i h i i i i i d k k k k l l z z z Z Z H H H T T T T T T T Y Y Y Y Y Y Y Y Y Y F Y Y Y Y W G W W $.$.W W W W W W W W Y Y Y T Y T T T K K K K K K J J I I U I I I I I U ! ! ! ! ! ! ! ! ! ! ! ! ! E E E E E E E E E E E E E R E E E E E ! Q %.D kXlXlXkXlXlXlXlXlXlXjXjXjXaXrXyXrXeXQ.9.5.5.7.+.o.+.{ q e q @ 4 ) q B o.kXpXe.yXeXyXe.w.6.yX..  $ . . . o + & 4 6 w n {  ... .O.-.4.6.9.W.W.Q.!.w.w.W.W.w.7.7.6.6.4.5.4.;.O.*.O.O. .=.*. .O. .O.=.O.=.=.=.=.=.=.-.;.4.;.*.*.-.=.=.-.;.<.4.4.4.4.<.;.;.<.4.4.4.<.;.-.=.+.+.O.O.O.O... .} { } } } { { { { [ { [ [ A A n v e w w w w 0 0 0 7 7 7 7 7 7 7 7 7 7 7 6 6 6 6 6 6 6 6 3 3 3 3 3 3 3 3 3 3 3 3 3 3 3 3 ; ; ; ; ; 3 % % 3 % & & & & & & & % % % & & % % % % & & % % % % & & & % % % % % ; % % S c c c 0 0 0 0 0 8 0 0 8 8 8 8 8 8 8 5 ; ; ; 3 3 3 3 3 3 - - - - & % % % $ $ $ $ + + $ $ $ $ $ $ $ $ $ % ; ",
"u u u u u < < ; 0.yXw + X 3 0 j h h h h u u u u u u u u u u u i i i i i i i i h k k k k l l z z Z Z Z Z H H T Y T T T T Y Y Y Y Y Y Y Y Y Y F F Y Y Y Y W W $.W W W W W $.$.W W W W W Y Y Y Y T T T T K K K K K K J L I I I I I I I U U U ! ! ! ! U U I I I E E E E L L L L T Y Y Y Y Y T T Y Y Y T T Y W @.D gXCXlXlXlXlXlXlXlXlXjXjXjXjXaXyXrXeXeXw.5.5.7.+.o.+.{ e 4 4 4 4 o.3.).hXFXpXe.eXe.Q.9.w.9.qXw     @ o o o + & 4 q e e n  .+...+.-.4.7.w.w.Q.Q.Q.w.9.W.W.w.w.7.6.5.5.4.<.-.O.-.=.O. .-...} O. . .+...+.=.*.*.+.O.O.*.=.-.O.O.=.=.=.=.;.4.5.6.4.5.5.4.4.4.4.4.4.<.;.-.=.+.+.O.O.O.O... . . . . .} } { { { { { [ S S S n v v w w w w w 0 0 7 7 7 7 7 7 7 7 7 7 7 6 6 6 6 6 6 6 6 3 3 3 3 3 3 3 3 3 3 3 3 3 3 3 3 3 3 % % 3 3 3 3 3 % & & & & & & & % % % & & % % % % & & % % % % & & & & % % % % 3 % % m c c 0 0 0 8 8 8 8 8 8 8 8 8 8 8 8 5 5 ; % ; ; 3 3 3 3 3 4 3 - - & % % % $ $ $ $ + + $ $ $ $ $ $ $ $ $ $ % ",
"u u s u u < 1 < fX=.+ X X 5 j h h h u u u u u u u i h i i i j j j k l k l j l f k l z z k z z Z Z Z H H T Y Y Y T T T T Y Y Y Y Y Y Y Y Y Y F F Y Y Y Y $.$.$.$.W $.$.$.$.$.$.@.@.W W W Y Y Y T T T T K K K K K K J J J J J I I I I L I I I I I I L L L L L L Y T T Y Y Y Y Y Y Y Y Y Y Y Y Y Y Y Y Y Y Y @.b fXCXlXkXlXlXlXlXkXlXlXaXjXjXfXyXrXeXeXw.7.5.5.-.+.+.[ { w @ O 2 2 2 2 ).pXpXjXpXw.6.<.e.tX6.O X   @ . o O + & 4 q e [ n  .+.o.=.4.6.9.w.Q.Q.eXQ.w.6.6.6.6.5.4.4.4.4.4.4.<.*.;.-.*. .=.=.O.-.O.=.;.=.-.-.*.*.=.-.-.=.=.*.O.O.=.-.*.=.-.=.=.-.-.-.-.;.;.;.;.4.4.4.;.-.=.+.+.O.O.O.O... . ..... . .} { { { { { [ S S S n v v w w w w w 0 0 7 0 7 q 7 7 7 8 8 8 7 7 7 7 6 6 6 6 6 6 6 5 5 5 5 3 3 3 3 3 3 3 3 3 3 3 3 % % 3 3 3 % % & & & % % % % % % % % $ $ % % % % & % % % % % % % % % % % % % % ; ; b 0 0 8 8 8 8 8 8 5 5 8 8 8 8 8 8 8 8 5 ; ; ; ; ; ; ; ; ; ; 3 ; & % % % % $ $ $ $ $ $ $ $ $ $ $ $ $ + $ $ $ ",
"u u s u u < : %.fX3 X O % 5 h h h u u y u u u u i i i i l l l l k l k k l l l l l l l z z Z Z Z Z H H H T T T T T T T T Y Y Y Y Y Y Y Y Y Y Y F F F F F Y Y W W W W $.$.$.$.$.$.$.W W W Y Y Y T T T T K T K K K H J J J J J J L L L L L L L L L L T J J T T T Y Y Y H H H Z D D D D D D D D D D D D D Y F | b sXCXlXkXkXkXkXlXjXkXlXjXjXjXaXyXrXeXeXe.7.5.5.-.-.-.{ 6 w q 4 . 4 3.).lXhXQ.rXpXQ.Q.6.Q.rX .X O   o . o O + - 4 q e A { ....{ =.4.6.9.W.!.+XeXQ.w.6.6.9.7.4.5.5.5.5.4.<.;.*.<.;.*. .O.O. .O.X.O.=.O.*.=.*.*.*.*.+.X...O.O.X.+.=.*.*.=.-.-.4.4.4.4.4.4.4.4.4.4.4.;.-.=.+.+.+.+.+.+... . . . . . .} { { { { [ [ S A A n v v v w w 0 0 7 8 8 8 7 q 7 7 7 7 7 7 7 7 7 7 7 6 6 6 6 6 6 5 6 5 3 3 3 3 3 3 3 3 3 3 3 3 3 % % % % % & & & & & % % % % % % % % $ $ % % % % % % % % % % % % % % % % % % % ; 5 v 8 8 8 8 8 5 5 5 5 5 5 5 5 8 8 8 8 5 ; ; ; ; ; % ; ; ; ; ; 3 % ; & % % % % $ $ $ $ $ $ $ $ $ $ + + + + O O ",
"s s u s u h 1 $X8.O o $ ; 8 h h i y i i i i i i i i a a f f f l l k k k l l l l l z z z z Z Z Z H H H T T T T T Y Y Y Y T T Y Y Y Y Y Y Y Y F F Y Y Y Y Y Y Y W Y Y $.$.$.$.$.$.W W W Y Y Y Y T T T T T T Y H H H H H H H H J J J J J T T T Y Y Y J H J H H T H H Z z Z Z Z D D Z D D D D D x x x x D Y m | b tXCXkXkXkXkXkXkXjXjXlXjXjXhXaXpXyXeXeXe.7.5.5.4.4.-.+.e e q O O 2 ] 2 hXpXpXaXyX+XyXeXw.W.7   o @ . . O + @ - 6 e { [  .O...{ =.5.7.9.W.!.Q.Q.Q.w.7.Q.w.6.5.5.4.4.4.4.;.=.=.-.-.+.O.O.O. .+.O.+.-.X.O.O. . .*.=.*.O.O.*.O.O.=.-.*.=.=.-.;.4.4.4.4.4.4.4.4.4.4.4.;.-.+.+.+.+.+.+.+.O... . . . . . .{ { } { { [ S A A v v v v w w 0 7 7 6 6 6 6 6 7 q 7 7 7 0 7 7 7 7 7 7 7 6 6 6 6 6 6 5 5 3 3 3 3 5 3 3 3 3 3 3 3 3 3 3 3 3 & & & & % % % % % % % % $ $ $ % & % % % % % % % % % % % % % % % % % % 8 w 8 8 8 8 5 5 5 5 5 5 5 5 5 5 8 8 5 5 ; ; ; ; ; ; ; ; ; ; ; ; ; ; ; % % % % % % $ $ $ $ $ + + + + + + + O O ",
"s s u s u h b fX0 X o % 1 h h i i i i i i i i a a a a a a f f f f l l f l l l z l z z z Z Z Z Z H T T T T T T T Y Y Y Y T T Y Y Y Y Y Y Y Y F F F F Y Y Y Y Y Y Y Y W $.W W $.$.W W Y Y Y Y Y T T T T T Y Y Y Y H H H H H H J J J J J Y Y Y Y Y Y H H M H H D D M M l l l l l x l l x x x x x x x l x D b ` c qXlXkXkXkXjXjXjXjXjXjXjXjXfXaXpXtXeXeXe.7.5.5.5.5.+.+.[ A e 2 @ 2 3.o.kXpXrXrXaX+Xw.4.qX9.$ . o @ . O + + @ 4 6 e { { { O.O. .-.7.w.w.W.Q.W.W.W.7.7.W.w.6.<.<.;.;.-.-.;.-.;.-.=.O.O.O.+.O.;.=.-.<.*.-.=. . .=.;.;.-.-.;.-.-.<.<.-.-.-.=.=.-.-.;.;.;.<.4.4.4.4.4.;.-.=.+.+.+.+.+.+... . . . . . .} { { { { [ { S A n v v v w w 0 7 8 6 5 3 3 3 3 5 6 7 8 7 7 7 7 7 7 7 7 7 7 7 6 6 6 6 5 5 3 3 3 3 3 3 3 3 3 3 3 3 3 3 3 3 3 & & & & % % % % % $ $ $ $ $ $ % & % $ $ $ % % % % % % % % % % % % % % 0 0 8 8 8 8 8 5 5 5 5 5 8 8 8 8 8 8 5 5 < ; < ; ; < < < 5 5 < < < < < ; % = % % % % $ $ $ $ + + + + + + + O O ",
"i i s s u h 2.$X$ O X = h l i i i i a a a a a a a a a a a a f f f f l l l l z z z z H H H H T Y T T Y Y Y Y Y Y Y Y Y Y Y Y Y Y Y Y Y Y Y Y F F F F Y Y Y Y Y Y Y Y W W W W W W W W Y Y Y Y Y T T T T T Y T H H H Y H H H H H H H H H H H H M M M M z z z l x l x x x x x x x x x x b b b b b x b x x m c b 8 Q.lXkXkXjXjXjXkXlXkXkXjXjXfXaXpXyXrXeXQ.9.5.4.4.5...O.e q 4 @ O   ) 2 hXpXpXpXyXrXQ.eXyX+.. . o @ . O + - 4 4 7 e { { A ..+...4.9.W.W.W.Q.W.W.w.6.6.w.9.5.;.4.4.4.5.4.;.;.;.+.O.O.X. . . .O. . .O.X.-.;.=.=.-.-.O.O.O.+.O.O.+.+.O.O.+.;.4.5.5.4.5.5.5.5.4.4.4.4.;.=.=.+.+.+.+.+... . . . . .} { [ { { [ [ [ S S A n v w w w w 0 7 7 5 3 3 3 3 3 3 ; 3 3 3 5 5 7 7 0 7 7 7 7 7 8 6 6 6 6 6 6 6 3 3 3 3 3 3 3 3 3 3 3 3 3 3 3 % & & & % % % % % $ $ $ $ $ $ & & % $ $ $ % % % % % % % % % % % % % ; 0 8 8 8 8 8 5 8 8 8 8 8 5 5 8 8 8 8 8 8 8 8 < < 1 1 8 8 8 8 8 8 8 8 1 < : ; % % % % % $ $ $ + + + + + + O O O ",
"i i s s s h tX=.X X # > j l a a a a a a a a a a a a a a a a f f f f l l l l z z z H H H H H T T T T Y Y T Y Y Y Y Y Y T Y Y D D Y Y Y Y Y Y F F F F Y Y Y Y Y Y Y Y @.@.$.$.W W W W Y Y Y Y T T H T H H T H H H H H H H H H H H H H M M M M M M M M z x x x x x x x x x x x j j j j b b b b b b b c c x c c 8 W.lXkXkXjXjXjXkXlXlXkXjXjXjXaXpXyXrXeX+X9.5.5.4.5.O. .{ w 6 4 O . q.).lXpXrXeXe.+X7.yXQ.e     . O . + @ - 4 4 7 A { { A ..+.+.4.w.!.!.Q.Q.Q.W.w.6.6.7.9.4.;.-.-.;.;.-.=.=.=.O.O.O...X.O.O.=.O.O.+.+.;.O. . .+.-.-.+.=.-.-.+.-.-.=.=.-.-.;.<.4.4.4.4.4.4.4.<.<.<.-.=.+.+.O.O.O... . .{ } } } [ [ [ [ [ [ [ [ S S A n v w w 0 w w 7 7 5 3 3 3 3 3 3 3 3 3 3 3 3 3 6 7 0 0 7 7 7 7 6 6 6 6 6 6 6 3 3 3 3 3 3 3 3 3 3 3 3 3 3 ; & % % % % % $ $ $ $ $ $ $ $ $ % & % $ $ $ % % % % % % % % % % % % $ ; c 8 6 8 8 8 8 8 8 8 8 8 8 8 8 8 8 8 8 8 8 8 u 1 h h h h h h h h h h 1 < 8 ; = % % % % $ $ $ + O O O O O O O O ",
"d d d d h F Q.6 X X = u f a a a a a a a a a a a a a a a a a f f f l z l z z z M Z H H H H T T T Y Y Y Y Y Y Y Y Y Y Y Y Y D D D D D Y Y Y D D D D D D D Y Y Y Y Y Y Y Y W W Q Q W W T T Y Y Y T T T H H H H H H H H H H H H M M M M M M M M z M z z x x x l x l x x x x x b j b b b c c c c c c c c h c c 0 6 ;.lXkXjXjXjXjXjXkXkXkXjXjXjXaXiXyXrX+XeX9.5.5.<.4.+.{  .w e 4 . . ) q.kXaXhXeXe.w.7.6.5.o o @ . + . + @ 4 4 6 e [ { { { ..=.-.5.Q.W.W.W.W.Q.Q.w.7.6.7.6.4.;.-.-.;.;.=.*.=.+.O.O.O.X. .O.=.O.O.O.O.=.;.=.=.=.+.-.-.+.+.-.;.O.=.-.=.=.-.-.=.-.4.4.4.4.4.4.4.;.;.;.-.*.+.O.X...O... . .{ } } } [ [ [ [ [ [ [ [ S S A n e w 0 0 0 0 7 7 3 3 3 3 3 4 3 ; - & & & - ; 3 7 q q 7 7 7 7 6 6 6 6 6 6 6 6 6 5 5 3 3 3 3 3 3 3 3 3 3 & & % % % $ % $ $ $ $ $ $ $ $ $ % % $ $ $ $ % % % % % % % % % % % % % 8 < 8 8 8 8 8 h h h h h h h h h h h h h h h h h h h j j j j x l x j h h 1 < < ; % % % % $ $ + + O O O O O O O O ",
"f f u j < =.8.5 X X 1 i a a a a a i a a a a a a a a a a a a f f f z z z z z z M Z H H H H T T T T T Y Y Y Y Y Y Y Y Y T T D D D D D D D D D D D D D D D D D Y Y Y Y Y Y Y Y Q Q W T Y Y Y Y T T Z Z H H H Z Z Z z z M H H z M z z M z z z z z x z x x x l x x x x x j j c c c c c c c c c h h 0 0 8 8 w c 0 6 ..lXkXfXfXfXfXjXjXjXjXjXjXjXaXiXyXrX+XW.7.4.<.4.4.+.{  .e e 4 2 @ { pXjXyXjXjXe.4.w.jX+.o . o . O . @ @ 4 4 q e { { { { o.=.<.6.+XW.w.eXQ.Q.W.7.6.4.4.4.;.4.4.4.5.4.-.=.*.+.O.+.O.X. .O.=.X.O.*.=.-.-.=.*.*.=.-.=.O.O.*.;.O.O.+.O.O.O.+.O.+.;.4.4.4.4.4.4.;.;.;.=.O.O.O........... .{ } } } { { [ [ [ [ [ { S S A n e w w w w 0 7 6 3 3 3 3 3 4 ; 3 ; - & & & % ; 6 7 7 q 7 7 7 6 6 6 6 6 6 6 5 5 5 5 3 3 3 3 3 3 3 ; ; & & % % $ $ $ $ $ $ + $ $ $ $ $ $ % % % % & $ % % % % % % % % % % % % % h h j h h j h j j j j j j x x x x l l l x x x l l x l l l l x x l x x h u 1 8 : % % % % $ $ + O O O O O o O O O ",
"f f u j 8 8.X.% O # t l f a a a a i f f a a a a a a f a f f f l z l z z M M M M H H H H T T T T Y Y Y Y Y Y Y Y Y Y Y T D D D D D D D D D l x l l l x x D D D D Y Y Y Y Y Y Y Y Y Y Y Y Y Y T Z Z Z H H H Z z z z z z l z z l l l l l l l l l x x l x j j j j j j c j j h h h 0 h h 0 0 0 0 0 8 8 8 8 0 0 6 7 n CXjXjXjXjXjXkXlXlXlXkXhXfXfXaXyXrXeXQ.W.9.5.4.-.X. .{ A q 4 O   q pXlXQ.w.Q.eXeXpXw.w . . . . O . @ - 4 4 e [ { { {  .+.-.4.7.Q.W.w.Q.Q.W.w.7.6.4.4.;.;.4.4.4.4.;.=.+.O.O.O.O.O... .O.=.X.O.*.=.-.-.+.O.O.O.=.=.O.O.O.;.O.O.O.O.O.O.+.O.+.-.4.<.;.4.4.4.;.;.;.*.O.O.O........... . .} } } } } { [ [ [ [ [ S S A n v v v v w w 0 8 6 3 3 3 3 4 ; ; ; 3 - - & $ & ; 3 6 q q 7 7 7 6 6 6 6 6 6 5 5 5 5 3 3 3 3 3 3 3 % % & & % % $ $ $ $ $ + + $ $ $ $ $ $ % % % % $ $ % % % % % % % % % % % % # x x x x x x x x x z x z z M M z M M M M M M M M M M M M M M M M M z l x h h 8 8 ; % % $ $ $ + O O O O O O O O O ",
"f f d , b T.8 O $ # u l a a a a a f f a a a a a a a a a f a f l z l z z M M M M H H T H T T T Y Y Y Y Y Y Y Y Y Y Y D D D Z D D D D Z Z Z l l x x l l l l l D D D F Y Y Y Y Y Y Y Y Y T Y Y T D T T T H Z Z z z l l l l z l l l l l x l x x x x x j j j j j h j h h h h 0 0 8 8 0 0 8 8 8 8 8 8 8 6 8 0 0 6 w w CXjXfXfXjXjXjXjXjXjXkXfXaXfXaXpXeX+Xw.w.7.<.5.+...X.{ { 7 6 O   2 hXaXaXfXQ.7.w.fX9.4 o O o . + . @ 4 4 q A { { {  . .+.-.4.9.Q.w.w.6.7.w.w.w.7.6.4.4.<.<.-.+.=.=.+.O.O.O.*.O.O. . .O.*.X.O.O.X.+.O.O.X...O.*.*.O.O.O.-.+.=.=.=.+.=.-.=.-.4.4.4.4.4.4.4.;.<.<.=.O.O.X. ......... . .} } } } } } { [ [ [ [ S A n n v v v v v w 7 7 5 3 3 3 3 4 ; ; - - & - & $ $ & 3 4 6 7 7 0 7 8 6 6 6 6 6 5 3 3 5 3 3 3 3 ; % % & % % % % $ $ $ $ $ $ + + $ $ $ $ $ $ % % $ $ & & % % % % % % % % % % % = # x Y Y M M N N N N M N N N Y Y Y L Y L L N L L L L R R Y Y Y Y L N M x l j h h 8 5 % % % $ $ + O O O O O O O O o ",
"f f k u $.7.- % X = h a a r r r a a f a a a a a a a a a f f f z z l z z M M M H H T T T T Y Y Y Y Y Y Y Y Y Y Y Y T D D D Z Z l Z l l l l x x x j j b b x l l D D D Y Y Y T Y Y Y Y Y Y Y Y T D D D D D Z l l x x x l l l l l l x l x x x x j j j j j c j j j j j j 0 0 0 0 8 8 8 8 8 8 8 8 8 8 8 8 8 8 8 7 w % jXjXfXfXfXfXjXjXjXfXjXjXaXfXaXaXeXQ.w.e.9.<.5.=.+.-.{ +.q e 4 . O lXjXfXiXrXe.9.Q.o.. O @ O . + O @ 4 6 q [ { {  . ...;.=.5.w.W.w.w.w.w.9.w.w.9.6.4.;.;.;.=.O.O.*.-.=.*.=.-.*.O...O.+.+.X.O.X. .O.X.O.X. . .O.+.O.O.+.-.-.=.-.<.*.=.=.=.<.4.5.5.5.5.4.4.;.4.4.-.+.O... . ....... . . . .} } } } } { { { { [ [ m n v v w w v w 7 7 5 5 5 6 3 4 4 ; ; - - - & & $ & & - 4 6 7 7 7 7 6 6 5 5 5 3 3 3 3 3 3 ; & % % % % % % $ $ $ $ $ $ $ $ $ + $ $ $ $ $ $ % $ $ $ & & % % % % % % % % % % % # t Y &.Y R R R R R R R R R R R R R R R R R R R R R R R R R R R R R L N M z x j h 8 5 % % % $ $ + + O O O O O O O O ",
"f f k , ,.*.$ ; X 1 i i a r r r a i f a a a a a a a a a f f f z z l z z z z z H H T H H T Y Y Y Y Y Y Y Y Y Y Y Y D D D D Z z l l l l l l x x j j j j j l l l l D D Y T D D D D D D D D T D D Z D Z l l l z l l l l l l x l j j j j j j j j j j j j c h j j j j 0 0 0 0 8 8 8 8 8 8 8 8 8 8 8 6 6 6 6 6 6 6 3 + yXfXfXfXaXaXjXkXjXjXjXjXaXjXaXaXeXQ.w.W.9.<.5.<.-.<.A { 7 w 4 O @ lXaXaXaXyXeXQ.9.n . o + O . O O @ 6 6 7 A  . . . .O.4.-.6.w.w.w.w.w.w.w.w.w.7.5.;.=.;.;.=.*.O.*.-.=.*.-.-.*.O.O.O.O.O.X.X.O. .O.X.O.O. . .O.O.O.O.O.=.*.O.-.4.*.=.-.;.5.4.5.6.6.6.4.;.;.4.4.-.*.O.X. ...X.X...X... . . .} } } } }  . . . .} [ [ n v w w v w 7 8 5 5 5 6 3 4 4 ; ; 3 3 - & & & & $ & & 4 6 7 7 7 5 6 6 5 3 3 3 3 3 3 % % $ $ $ $ $ $ $ $ $ $ $ + + $ $ $ $ $ $ $ $ $ $ % % $ $ & & % % % % % % % % % % % # l &.h.g.&.&.g.g.g.g.g.g.g.g.h.h.g.t.y.y.g.t.t.t.t.t.t.t.t.t.t.R R R L N M l j h 8 5 = % % $ $ + + + O O O O O O O ",
"f f d j 1.b % $ O j i a r r r r i i a a a a a a a a a a f f f l z l z z z z Z H T Y Y T Y Y Y Y Y Y Y Y Y Y Y Y T D D D D Z z l l l l x x x j j j j j j l l l l Z D D D Z Z Z Z D D D D Z Z Z Z Z Z l l l l l l x x l l j j j j j j x x j j j j c c c c c 0 0 0 0 9 0 0 8 9 8 8 8 8 8 8 8 6 6 6 6 6 6 3 3 3 % O w.fXfXfXjXjXjXjXhXfXaXjXfXjXaXfXeXe.W.Q.w.5.+.+.X. ... .A e 4 O @ lXyXaXaXeXyXhX9.q . O O o O O @ @ q q q [  . . . .=.5.;.w.w.w.w.w.w.w.w.w.w.6.4.;.=.;.;.-.-.*.O.+.O.O.*.=.*.O.O.O.O.O.X.X.O. .O.X.O.O... .O.O.O.O.O.=.=.O.=.4.+.*.-.4.4.5.5.5.5.5.4.;.;.4.;.-.-.*.O.O.O.O.O. .X... . .X. . .{ { { } } } } { [ [ n v w w v w 0 7 6 5 5 6 3 3 ; ; - 3 3 - & & & & $ $ $ & 3 3 5 6 3 6 6 3 3 3 3 % % & % $ + + $ $ $ $ + + $ $ $ + + $ $ $ $ $ $ $ $ $ % % % & & $ $ % % % % % % % % % % # # R A.j.j.h.h.h.h.j.j.h.h.k.k.k.k.k.k.k.k.k.g.h.h.g.g.g.g.h.h.t.t.t.R L L M l l h 8 5 = % % $ $ + + + + + O O O O O ",
"f d u F %.6 ; X : j i a r r r r i i a a a a a a a a f f a a f l l z l z z z Z H H T T T T Y Y Y Y Y Y Y Y Y Y Y T T D D D D M l l l l x l l j j j j l l l l l l l l l D l l Z Z D D D D Z Z Z Z Z l l z z x x x x x j j j j j j j j j j j c j c c c c 0 w w 0 9 9 9 8 7 8 8 7 7 7 7 6 6 7 6 6 6 6 3 3 3 3 3 % $ 7.jXjXjXjXjXjXjXjXjXaXjXjXjXpXfXeXw.eXQ.w.5.+.-.O. .{ A n q 6 + @ lXpXfXiX9.w.pX+.O . O O o O . @ @ 6 q q [  . . . .;.6.5.w.w.w.w.w.w.w.w.w.9.6.4.4.-.<.<.;.-.O.O.O.O.O.O.*.+.O.O.O.O.O...X.O. .O.O.O.O.X. .X.+.+.O.O.-.;.O.O.4.O.O.+.-.;.;.4.4.4.4.5.4.4.4.;.-.-.=.=.*.+.O.O... . . . . . .} [ S S [ S S S S m m n v v w v w 0 0 6 5 5 6 3 3 ; ; ; 3 3 ; - & % & $ & & & & % ; 3 3 3 3 3 3 % & % % % $ + O + $ $ + + + $ $ $ $ + $ $ $ $ $ $ $ $ $ $ % $ % & & $ $ % % % % % % % % % $ # # l.S.S.S.z.z.z.z.z.z.n.n.n.n.z.k.k.k.k.k.k.k.k.k.k.k.k.k.k.k.u.t.t.R L L H z l j 8 : = % % $ $ + + + + + O O O O O ",
"f d u D $.< - X = j i a a r r r i i a a a a a a f f f f f f l l l z z z z z M H H H H H Y Y Y Y Y Y Y Y Y Y Y Y Y D D D D D D l l l x x l j j j j j j j j j j j x l l l l l z z Z Z l l l l l l l l l l l l x l l j j j j j j j j c c c j j j c 0 0 0 0 0 0 9 8 8 8 8 7 6 6 6 6 6 6 6 6 6 6 3 3 3 3 ; 3 % 3 5 $ =.kXjXjXjXhXjXlXjXjXhXjXhXjXpXaXeX+XrXe.9.7.4.=.O. . .A n q 6 . { kXyXeXeXQ.Q.9.q   o O o o O + - 4 6 q w [  . . .O.4.6.6.W.W.w.9.9.w.w.w.w.9.5.4.4.;.;.;.;.=.O...O.O.O.O.+.+.O.O.O.O.O.O.O.+.O.O.*.*.+.O. . .O.=.O.O.-.5.O.O.4.=.*.*.=.-.4.4.6.5.5.4.4.5.4.;.-.=.=.*.+.O.X. . . . . . . .} { [ S S [ [ m m S S S n v v w v w 7 0 6 6 6 6 3 3 3 3 % ; % ; % & & % % % $ & & $ % % & 3 % % & % $ $ $ $ $ $ $ + + + + + + + + + + + + $ $ $ $ $ $ $ % % % % % % % % % % % % % % % % $ $ $ # # ~.>XK.K.H.H.K.K.K.K.K.K.K.K.H.H.H.H.H.k.k.k.k.k.k.k.k.k.k.k.k.u.t.t.L L N z l j h 5 ; % % % $ $ + + + + + O O O O ",
"f d u F X.< O O 1 x i a a a a a a a a a a a a a f f f f f f l l l z z z z z M H H T T T Y Y Y Y Y Y Y Y Y D Y D H H D D H D D l l l l l l j j j j j j j j j j j j j l l l l l l l l l l l l l l x x l l l l l l l j j j j j j j j j j j j j 0 0 0 0 8 8 0 8 8 8 8 8 6 6 6 6 6 6 6 6 3 3 3 3 3 3 3 ; - ; % ; ; $ [ kXfXjXkXkXlXlXfXfXhXjXfXjXaXaXrXeXeXe.9.7.5.=... . .[ n w 6 . 5.jXaXaXrXw.rX+.& . O O o O O @ & 4 6 e e {  . . .+.6.4.7.W.W.w.9.w.w.W.e.w.7.5.4.<.-.*.*.*.O.O.O.O.O.+.+.O.O.O.+.+.*.*.=.=.*.O.O.*.+.+.O. . .O.+.O.O.=.5.=.=.5.;.<.;.<.4.6.7.7.6.5.4.4.4.<.=.O.O.O.X... . . . . . . . . . .} { [ [ [ [ S S S S S n v v w v w 7 0 6 6 6 6 3 3 3 3 % ; ; ; % & & % % % % $ $ $ $ $ % % % % $ $ $ $ $ $ $ $ $ + + + + + + + + + + + + $ $ $ $ + $ $ $ % % % % % % % % % % % % % % % $ $ - % = >X>XL.L.K.K.K.K.K.K.K.K.K.K.K.K.H.H.H.H.H.H.H.k.k.k.k.k.k.k.k.h.t.t.L L H z l j h 5 ; % & % $ $ $ + + + + O O O O ",
"f d s W F ; X = u j i a a a a a a a a a a a a a f f f f f f l l z z z z z z M H H T T T Y Y Y Y D D Y D T D D D H D D D D D x l l l l j j j j j j j j j j j j j j j l l l l l l l l l l l k l l l l l l l l l l j j j j j j j j j j j j 0 0 0 0 0 0 8 8 9 8 8 8 8 8 6 6 6 6 6 6 6 6 6 3 3 3 3 3 3 3 % % ; % ; $ 8 jXfXjXfXiXjXjXjXjXhXjXaXhXaXfXyXrXQ.Q.e.9.6.-.O.X...{ [ e 4 . aXjXaXaXQ.Q.aX[ . O O o o O + @ - 4 q e n {  . ...+.6.5.6.w.w.9.w.w.w.w.w.w.7.4.<.;.*.O.O.O.O.O.O.O.O.+.O.O.+.+.+.+.*.*.=.=.O.X.X.O.O.*.*.X...+.=.*.=.=.5.;.;.5.;.5.5.4.6.7.7.7.6.4.<.;.;.-.-.*.O.O.X... . . ..... . . . . . .} [ [ { [ S m n n n n v n w n v 0 w 8 6 6 6 6 3 3 3 & & % % % & & & % % % $ $ $ $ $ % $ $ $ $ $ $ $ $ $ $ $ $ + + + + + + + + + + + + $ $ $ $ $ $ $ $ % % % & % % % % % % % % % % % $ $ $ # Y zX>X/./.P.P.P.P.K.K.K.K.K.K.K.K.K.H.H.H.H.H.H.H.H.k.k.k.k.k.k.h.t.t.L L H z l j h 8 ; % % % $ $ $ + + + + + + + O ",
"d j j $.D - X : h h a a a a a a a a a a a a a a f a a f f l k l l z z z z z M H Y Y Y Y Y Y Y Y D D T H D D D D H H D D D D D Z l l j j j j j j h j j j j j j j j j j j j l l l l l l l l l l l k k l j l j x j j j j j j j c j j j j j 0 0 0 0 9 9 9 9 9 8 8 8 8 8 6 6 6 6 6 6 6 6 3 3 3 3 3 3 3 3 ; % 3 % 3 % % jXfXkXkXjXkXkXhXjXaXfXaXfXaXhXpXyXe.Q.e.9.9.<.+.O.O.{ { n 4 . lXaXpXeX5.iXeXq . @ O o O + + @ @ 4 e e [  . . ...+.6.6.7.7.7.7.w.w.7.7.7.7.7.4.<.<.=.+.+.O.O.=.=.O.O.O.X.O.+.*.+.O.*.O.O.+.O.X.O.O.O.=.=.O.+.-.<.;.;.=.4.4.4.4.-.4.5.4.5.6.7.9.7.4.4.4.<.;.-.-.*.+.O.O.O..... . . . . . . . .{ [ [ [ [ m n n n n v v n w n v 0 w 8 6 6 6 6 3 3 3 % % & & & & & & % % % $ $ $ $ $ $ $ $ $ + + $ $ $ $ $ $ $ + + + + + + + + + + + + $ $ $ $ + $ $ $ % $ % % % % % % % % % % % % % % & % # l.vX>X/././././.P.P.P.P.P.P.P.K.K.K.K.K.H.H.H.H.H.H.k.k.k.k.k.k.u.t.t.L L M z l j h 8 : % % % % $ $ + + + + + + + + ",
"j d j G D $ X : h i a y y y a i i i a a a a a a f f a a f f l l l z l l z z z D T D D D Y D Y D Y D D H D D D D D D D D D D D D l l j j j j j j j j j j j j j j h h j j j j j j j j j j j j l l l l j j j j j j j j j j j j j j 0 0 8 8 0 8 8 8 8 8 8 8 8 8 8 8 6 6 5 5 3 3 3 3 3 3 3 3 3 3 ; ; ; ; % % 3 & ; % o aXkXkXjXjXjXjXpXpXaXaXaXhXfXjXaXyXe.Q.e.9.e.4.O. .O.{ ..A A . lXpXaXQ.5.aX+.@ @ 4 O o O + @ @ & 4 w n [  . ...O.+.7.7.7.7.6.7.w.w.7.7.7.5.5.<.-.;.=.+.+.O.O.O.O.X.O.O...O.*.-.-.-.*.O.O.=.=.O.+.*.=.-.-.*.*.-.;.4.4.=.4.4.;.4.-.5.6.5.4.6.9.9.7.6.4.4.;.-.=.=.+.O.O.O.O.X.X. . . . . . . . .[ S [ [ S n n v n n v v m w n v 0 w 8 6 6 6 6 3 3 3 & % % & & & & & % % % % $ $ $ $ $ $ $ $ $ $ $ $ $ $ $ $ $ + + + + + + + + + + + + $ $ $ $ + + $ $ $ % $ % % % % % % % % % % % % % $ ; # dXxX6X4X/././././.P.P.P.P.P.P.K.K.K.K.H.H.H.H.H.H.H.k.k.k.k.k.k.u.t.t.L L M z l x h 8 = = % % % $ $ $ $ $ $ $ $ + + ",
"d d j D j o o 1 h i a y y y a i i i i a a a a a f f a a f f l k l z l l z z l l l l D D F D D D D D D D D D D D M l l l l l l l l l j j j j j j h h u u s s j j j j j j j j j j j j j j j j j l j j j j h h h h h h j j j j 0 0 0 8 8 8 8 8 8 8 7 7 8 8 8 8 6 5 5 5 3 3 3 3 3 3 3 3 ; & & % % % % % % % % & % ; o Q.fXfXaXaXfXjXjXkXjXjXaXjXjXjXaXaXQ.Q.e.w.w.4.+. .o. . .[ e 4 lXaXpXeXeXaX[ + O O o O + + @ @ 4 6 e n [ {  ...O.=.4.4.4.4.;.7.w.w.w.7.5.5.5.-.=.=.+.+.O. .} { { { *.*.O.*.=.=.-.-.*.O.+.-.-.=.=.-.;.-.-.*.+.=.-.4.5.;.6.4.;.5.;.4.6.4.4.6.6.6.4.4.4.<.-.=.*.+.O.O.X.X.X..... . . . . . . .} m n S [ S n n n n n n v S w n n 0 v 8 6 6 6 6 3 3 3 & & & & & & & & % % % % % $ $ $ $ $ $ $ $ $ $ $ $ $ $ $ $ + + + + + + O O + + + + $ $ $ $ $ + $ $ $ $ $ $ % % % % % % % % % % % % $ = # xXzX6X(./././././.P.P.P.P.P.K.K.K.H.H.H.H.H.k.H.H.H.k.k.k.k.k.u.u.t.t.L L M M l f h 1 : = % % $ $ $ $ $ $ $ $ $ $ $ ",
"d d D S < X # < j y a y y a a i i i i a a a a a f f f f l k k k l l l l z l l l l l Z D D D D D D D D D D l D l x l x l l l l l j j j j j j j j h h u s s s h h j j j j j j j j j j j j j j j j j j j h h h h h h j j 8 j 0 0 8 8 8 7 7 8 8 8 8 8 8 6 8 8 6 5 5 3 3 3 ; ; ; 3 3 3 ; & & & & % % % % % % % & % % o <.aXfXjXkXkXlXjXjXaXaXyXfXaXaXrXeXeXeXQ.e.7.5.=. . ...{ { q e kXfXeXe.aXeXe + O O o O + @ & - 4 q n [ {  ...O.O.=.5.5.5.5.4.w.W.W.7.6.5.4.<.+.+.+.+.+..... . . ...O.O.O.+.+.+.+.*.*.O.+.-.-.=.=.-.;.;.-.*.+.=.-.;.<.;.6.;.-.5.;.5.5.4.4.5.4.4.4.4.4.<.-.=.*.+.O.O.X.X.X..... . . . . . . . .[ m [ } { [ S S S S m n S v m n w v 0 8 6 6 6 3 3 ; % & & & & & & & % % % % % $ $ $ $ $ $ $ $ $ $ $ $ $ $ $ $ + + + + + + O O + + + + $ $ $ $ $ $ $ $ $ $ % $ % % % % % % % % % % % % % # t xX6X6X(.(.P./././.P.P.P.P.P.K.K.H.H.H.H.H.H.k.H.H.k.k.H.k.k.k.u.u.t.t.L L N M l f i 1 : = % % $ $ $ $ $ $ $ $ $ $ $ ",
"d j D A < X - u h y y y y i i i i i i i a a a a a a f f k k k k z l l l z z z z l l Z Z D D D D D D D D D l l l l l l l l l l j j j j j j j h j h s u < h h h h j j j j j j j j j j j j j j j j j j j h h h h h h j j j j 0 0 0 8 8 8 8 8 8 8 8 8 8 6 6 6 5 5 5 3 3 3 3 ; ; 3 ; ; & & % & & % % % % & & % & & % O  .kXjXjXfXjXkXfXjXaXaXpXfXaXfXyXrXeXeXQ.w.6.7.<... .+.[ { 7 o.jXjXe.w.aX+.q O + @ O + + & & 4 7 e n { {  ...O.O.=.7.7.9.9.w.W.W.w.6.5.<.<.-.+.+.+.O.+.O.O.=.-.=.O.O.O. ...O.O.O.*.*.O.+.-.-.=.=.=.-.-.=.+.+.=.-.-.-.-.4.-.-.4.4.4.5.<.<.4.6.6.4.4.<.;.-.=.+.O.+.X... . . . . . . . . . ...O. . . . .} { [ S S S m n S v m n w w 0 8 6 6 6 3 3 ; & & & & & & & & % % $ % % $ $ $ $ $ $ $ $ $ $ $ $ $ $ $ $ + + + + O + + + + + + + $ $ $ $ $ $ $ $ $ $ $ $ % % % % % % % % % % % % % # f xX6X(.(././.P./././.P.P.K.K.K.K.H.H.H.H.H.H.k.k.k.k.k.k.k.k.k.u.t.t.t.L L M M l f h 1 : = % % $ + + $ $ $ $ $ $ $ $ ",
"u D S j o X > j i i y y i i i i a a i a a a a f a a f l k k k l l l z z z z z z l l Z Z Z D D x x x x x x l l x l l x x l l j j j j j j h j h h h h < < u u h h j j h i j j j j j j j j j j j j h h h h h h h h h h j 0 j 0 0 8 8 8 8 8 8 8 8 8 8 8 6 5 5 5 5 3 3 3 ; ; ; ; ; ; ; % % % % % $ % % % % % % % 3 $ $ 0 jXfXfXkXkXjXjXfXaXaXpXaXhXaXrXyXaXeXW.9.7.9.4.O.+.+. .[ q 4.kXaXe.eXrX+.@ O & @ + + @ & 4 4 7 e n { {  .o.+.=.4.6.7.9.w.w.e.w.w.5.<.-.-.-.=.+.O.O.O.O.+.O. . .X.X... . .X.O.*.=.*.O.*.-.-.=.=.-.-.;.;.-.-.-.4.<.;.;.4.-.;.<.6.6.4.<.<.4.6.7.5.4.<.;.=.=.+.O.+... . . . . . ..... ... .X.O.X. . .} } { [ [ S m n n n v n n w w 0 8 6 6 6 3 3 ; ; & & & & & & & % % $ % % $ $ $ $ $ $ $ $ $ $ $ $ + + $ + + + + + + + + + + + + + + + + + $ $ $ $ $ $ $ $ $ $ % $ % % % % % $ % % % # &.xX6X(.(.P.P.P././.P.P.K.K.K.K.K.H.H.H.H.H.k.H.k.H.k.k.k.k.k.u.y.t.t.t.L L N M l f i 1 1 = % % $ + + + $ $ $ $ $ $ $ ",
"j F | S % # 1 h i i y y i i i i a a i i a a a f a a l l k l k l l z z z z z l z l l l Z Z Z Z x l l x x x x x l l l l l l k j j j j j h j h j j h h u u u u u i i i i i h h h h h h h h j j j j j j h h h h h h h h j j 0 0 0 8 8 8 8 8 8 8 6 6 8 6 5 5 5 5 3 ; ; 3 ; ; ; ; ; % % % % % $ % $ $ % $ % % % % 3 $ % 6 kXjXfXjXjXjXhXfXaXhXaXfXaXaXyXaXrXeXQ.w.w.7.4.+.+... .[ q w.kXpXe.yXe. .+ + @ + + O @ & 4 4 7 e n {  . .O.+.<.5.7.9.7.7.7.w.9.9.5.<.-.<.<.4.<.+.O.O.O.O.X. ...X.O.O.O.O.O.O.=.-.*.O.*.-.-.=.-.;.4.4.4.4.5.5.5.5.4.4.<.;.-.=.6.5.4.<.<.4.5.7.5.<.-.-.=.+.O.+.O........... . . . . . . . . .} [ [ S S S S S m n n n n v n n w 0 0 8 6 6 3 3 3 ; ; % % & & & & & % % % % % $ $ $ $ $ $ $ $ $ $ $ $ $ + $ $ + + + + + + + + + + + + + + + + $ $ $ $ $ $ $ $ % % $ $ $ $ $ $ $ $ % % % # l.zX6X(./.P.P.P.P.P.P.K.K.K.K.K.H.H.H.H.H.H.H.H.k.k.k.k.k.k.k.u.t.t.t.t.R L M M l l h 1 : = % % $ + $ $ $ $ $ $ $ $ $ ",
"j $.%.F % # 1 h i i y i i i i i a a i i f a f f l l k k l l l z z z z z z z l l l l l l l l l l l l l l j j j j j j j j j j j j j j j j h h j j j h u u u u u u u u u u i i i i i i h h j j h h h h h h h h h j h j j 0 0 9 0 8 8 8 7 7 7 7 8 6 8 6 5 5 5 5 3 3 ; 3 ; ; ; ; ; % % % % % % $ $ $ % % $ $ & & & $ $ & fXkXfXjXjXjXfXjXjXjXaXjXaXaXyXaXeXeX+XQ.7.4.-.-.+. . .n 7 aXkXyXyXjX5.q . @ + + + + @ & 4 4 7 e {  . .o.+.-.4.5.9.9.7.7.9.9.9.w.7.4.<.4.4.4.<.+.O. . .O.X. ...X.O.O.O.O.O.O.=.-.=.O.*.-.-.=.-.;.;.;.-.=.=.-.;.;.;.;.;.-.-.=.6.5.4.4.4.5.5.7.6.4.;.-.=.+.O.+.O......... . . . . . . . . .} [ S S S S S S S m n n n n n n n w 0 0 8 6 6 3 3 3 ; ; ; ; ; ; & & & % % % % % $ $ $ $ $ $ $ $ $ $ $ $ + + $ $ + + + + + + + + + + + + + + + + $ $ $ $ $ $ $ $ % % $ $ $ $ $ $ $ $ % % % X I.>X/./.P.P.K.K.K.K.K.K.K.K.K.H.H.H.H.H.H.H.H.H.k.k.k.k.k.k.u.u.t.t.t.t.R L M M l l i 1 1 = % $ $ + $ $ $ $ $ $ $ $ $ ",
"S %.*.S $ X 1 h i i y i i i i i i i i i f f f a l l k l l l l z z z z z z z l l l l l l l l l l l j j j j j j j j j j j j j j h j j h h h h j h h h h h u u u u u u u u u u i i i i i i i h h h h h h h h h 8 h 8 8 8 9 9 8 8 8 8 8 7 7 7 7 5 5 6 5 5 5 5 3 3 ; ; ; ; ; ; % % % % % $ $ $ $ $ $ % % $ $ & & & & + o yXlXjXjXjXfXhXjXfXhXaXfXhXaXrXpXrXeX!.e.5.-.=.4.+. .[ n 6 jXkXrXpXhX+.@ O O + + + + @ & 4 4 q e {  .o.O.+.-.4.5.6.7.9.w.e.e.e.w.9.5.4.4.=.-.=.O. . . . . . . . . . . ...O.O.*.-.-.O.*.-.-.=.-.-.-.;.=.=.-.-.-.-.;.-.-.-.-.;.7.6.5.4.4.5.6.7.5.4.;.-.=.+.+.O... . . . . . . . . . . ..... . .{ [ [ [ [ [ [ S S n n n n n n w 0 0 8 6 3 ; 3 3 ; ; - - & % & & & % % % $ $ $ $ $ $ $ $ $ $ $ $ + + $ $ $ $ + + + + + + + + + + + + + + + + $ $ $ $ $ $ $ $ % % % $ $ $ $ $ $ $ % % % X I.^././.P.K.K.K.K.K.K.K.K.K.H.H.H.H.H.H.H.H.k.k.k.k.k.k.k.u.u.y.t.t.t.t.L L M M l f i t 1 = % $ $ $ $ O O $ $ $ $ $ $ ",
"F %.=.S $ X t h i i i i i i i i i a i i f f a a l l l l l l l z l l l l l l l l l l l l k l l j l j j j j j j h s s s s j j h h h h h h h j h h h h h u u u u u u u u u h h i i i i h h h h h h h h h h h 8 8 8 8 8 8 9 9 8 8 8 6 6 7 7 6 6 5 5 5 5 5 3 3 3 3 3 % % ; ; & % % % % % $ $ $ $ % % % % $ & & & + - $ X eXlXkXjXjXfXjXjXhXaXfXfXfXaXaXyXaXrXQ.e.7.<.-.5.+.o. . .e GXaXrXe.rXe . + + + + + + @ - 4 7 w _  . .O.=.;.-.-.4.e.9.w.e.+XQ.w.9.5.4.<.<.+.+.-.-. . . . .}  . .{  . . . .O.O.+.-.=.O.O.-.-.-.-.-.-.;.-.-.-.-.-.4.<.-.-.;.;.<.7.4.5.5.5.5.5.7.6.4.<.;.=.+.+.O... . . . . . . . . . . ..... . .} [ [ { { [ { S n n n n n n n w 0 w 0 6 3 ; ; 3 ; ; ; - % % & % & % % % $ $ $ $ $ $ $ $ $ $ $ $ + + + $ $ $ + + + + + + + + + + + + + + + + $ $ $ $ $ $ $ $ % % % % $ $ $ $ $ $ $ % % X dX^./.P.P.K.K.K.K.K.K.H.K.K.H.H.H.H.H.H.H.H.k.k.k.k.k.k.k.k.u.y.t.t.t.t.L N M M z a i t 1 = % % $ $ $ $ $ $ $ $ $ $ $ ",
"F X.=.0 O # h h i i i i i i i i a a a a f f a a l l l l l l l l l l l Z l l l l l l l l k k k j j j j j j j j i s s s s d j j j j j j j j j j j j j j h u i u u u u h u h h i i i i h h u h h h h h 1 1 8 1 8 8 8 6 8 8 8 8 8 6 6 6 6 6 5 5 5 5 5 5 3 3 3 3 3 % % % % % % % % % % % % $ % % % % % % $ & & & + & % o 6.kXjXfXkXaXjXjXhXaXhXaXpXyXaXyXaXrX+XQ.e.5.=.-.+. . .{  .GXaXrXpX9.7 O + + + + + + & 4 4 7 w [  . .+.-.<.<.6.w.eXw.7.9.Q.e.9.5.<.-.+.+.+.O... . . . .{ }  . .} }  . .X.O.O.O.-.+. .X.=.-.-.;.;.4.4.5.4.;.+.+.;.4.-.-.<.4.4.9.4.5.5.5.5.5.7.6.4.;.-.=.=.+.+.+... . . . . . . . . . . . . . .{ [ [ [ { [ [ S n n n n n n n w 0 w 0 6 3 3 ; 3 ; ; % % % % % % & % % % $ $ $ $ $ $ $ $ $ $ $ $ + + $ $ $ $ + + + + + + + + + + + + + + + + $ $ $ $ $ $ $ $ % % $ $ $ $ % % % % % % % # >X^./.P.P.P.K.K.K.K.K.H.K.H.H.H.H.H.H.H.H.k.k.k.k.k.k.k.k.k.u.y.t.t.t.t.L L M M z a i t 1 = = % % $ $ $ $ $ $ $ $ $ $ ",
"| X.=.< X = h h i i i i i i i i a a a a a f a l l l l l l l l l l l l l l l l l l l l l k k k j j j j j j s i i i i i i j j j j l l x x x x x x x l f h i i i i i u h h h h i i i h u u u u h h h h 1 1 1 1 8 8 8 6 8 8 8 8 6 6 6 6 5 5 5 5 5 5 5 3 3 3 3 3 % % % % % % % % % % % % % $ % % % % % % $ $ & $ + & % o +.jXjXfXjXaXjXjXfXaXhXfXaXpXfXrXaXrX+XQ.e.5.=.-.4. .o.e 5.lXrXeXjX .4 + @ + @ @ + @ - 4 6 q e [ {  .=.4.6.5.6.w.Q.7.5.7.e.w.7.4.-.+.+.+.+... .{  . . . . .O.O. . . . .O.O.O.O.-.-.O.O.-.<.;.4.4.5.6.6.4.5.;.;.5.5.;.;.4.5.4.w.6.4.5.5.4.5.6.7.4.;.=.+.=.+.+.+... . . . . . . . . . . . .} { [ S [ [ { [ [ S n n n n n n n w 0 w w 8 6 3 3 3 ; ; ; & ; % & % & & % % % $ $ $ $ $ $ $ $ $ $ $ $ $ $ $ $ $ + + + + + + + + + + + + + + + + $ $ $ $ $ $ $ $ % % $ $ $ $ % % % % % % O # >X^./.P.P.P.K.K.K.K.K.H.K.H.H.H.H.H.H.H.k.k.k.k.k.k.k.k.k.k.u.y.t.t.t.t.L N M M z a h t 1 = % % $ $ $ $ $ $ $ $ $ O $ ",
"| X.*.%   : h i i i i i i i i i a a a a a f a l l l l l l l l l l l l l l l l l l l l l k k l j j j j j j i i i h h i h j j j l x x l x x x x x x x x j h h i i i i i h h i i i i i h h h h h h h h 1 1 8 < 8 8 6 8 8 8 8 6 6 6 6 6 5 5 5 5 5 3 3 3 3 3 3 % % % % % ; ; % % % % % % $ $ % $ $ $ $ $ $ $ & $ @ & % +  .jXjXfXkXaXjXjXfXaXhXaXjXfXfXrXaXyXQ.Q.7.4.<.5.5. .+.w e.lXeXeXaXq O O + + + + + @ 4 6 q w n  .{ ..-.5.w.6.5.7.w.7.5.7.9.7.5.<.+.+.+.+.+.O. .{  . . . . .O.O. . . . .O.O.O.+.;.4.+.=.4.4.<.4.4.4.5.4.<.-.=.=.;.4.;.;.4.5.4.w.6.6.5.5.5.5.6.6.4.-.+.+.O.O.O..... . . . . .} { } } } } } } [ [ S [ [ { { [ A n v n n n n n w 8 w w 0 6 3 ; 3 ; & & & ; ; % & & & % % % % & $ $ $ $ $ $ $ $ $ $ $ $ $ $ + + + + + + + + + + + + + + + + + $ $ $ $ $ $ $ $ $ $ % % $ $ $ $ % % % % O = :X^./.P.P.P.P.K.K.K.K.H.H.H.H.H.H.H.H.k.k.k.k.k.k.k.k.k.k.k.u.t.t.t.t.t.L N M M z a h t 1 = = % % $ $ $ $ $ $ $ $ O $ ",
"X.*.| o X : h i i a y y i i i i i i a a a f f l l l l l l l l l Z Z Z Z l l l Z Z l k k k k k j f j k k j j i i i i h j k l l l x x M M M M z x z z x x f i a f i i i h i i i i i u u u h h h u 8 1 1 < < < 8 8 8 8 7 7 8 6 6 6 5 5 5 5 5 5 3 3 3 3 3 3 3 % % % % & % % & % & % % % % % % % % % % % % % % $ $ % % $ 3 iXjXfXjXjXfXfXaXaXfXaXaXaXaXtXpXiXqXeX7.6.5.5.;.O.O.w yXjXQ.eX7.4 + 4 + + @ @ @ & 4 6 w n n  . . .=.5.5.6.5.6.7.6.5.7.7.5.4.-.+.+.+.+.+. .{ .... . . . ..... . . ...O.O.+.O.-.;.=.*.<.4.;.;.4.4.4.4.;.=.=.=.-.;.;.<.4.5.5.7.6.4.4.4.4.6.4.4.;.-.O.+. . .O. . . . . . . .[ [ } } } } } } { { [ { [ { [ [ A n n n n n n n w 7 w w 0 8 3 5 3 3 % % & ; 3 % & & & & % % % % % $ $ $ $ $ $ $ $ $ $ $ $ $ $ $ $ $ $ $ $ $ $ $ $ $ $ $ $ $ $ $ $ % % % $ $ $ $ $ % % % % $ $ % % % $ o u >X^./.P.P.P.P.K.K.K.K.H.H.H.H.H.H.H.k.k.H.k.k.k.k.k.k.k.k.u.t.t.t.t.t.r.L N M M z a h t 1 : = % % $ $ $ $ $ $ $ $ O O ",
"$.*.S o X 1 h i i a y y i i i i i i i a a a f l k k l l l l l l l l Z l l l l l l l k k l k k k k k k k l l l f j l l x z z l l M M Y N N N N N M N M x x l x a f a f f h i h h i i u u u h h t 8 1 8 < < 8 6 6 6 6 7 7 6 6 6 6 5 5 5 5 5 5 3 3 3 3 3 3 3 ; % % % & & % % & & % % % % % % % % % % % % % % % $ % % % 6 iXjXaXfXaXaXaXaXaXaXfXaXpXaXfXrXaXeXeXw.9.5.4.5.-.=.[ aXaXyXjX+.4 O + + + @ @ & 4 4 4 w n n  . . .O.<.5.6.6.7.7.5.5.6.6.5.4.-.+.+.+.+...{ { ...... . . . . . . . . ...+.+.+.=.;.-.=.;.<.;.;.4.4.6.6.4.;.;.<.<.<.<.4.5.5.5.6.6.4.4.4.4.4.4.;.-.=.O.O. .}  .[  . .} }  . .[ [  ... . . . . . .{ { [ [ { { S A n n n n n n v 7 v w 0 8 3 5 3 3 ; 3 ; ; ; & & & & & % % % % % % % $ $ $ $ $ $ $ $ $ $ $ $ $ $ $ $ $ $ $ $ $ $ $ $ $ $ $ $ $ $ % % % % $ $ % $ % % % % $ $ $ % % $ # j >X^./.P.P.P.P.K.K.K.K.H.H.H.H.H.H.H.H.k.H.k.k.k.k.k.k.k.u.t.t.t.t.t.t.t.N N M M M a a y 1 > = % % % $ $ $ $ $ $ $ O O ",
"%.X.9 o # h h i i a y y i i i i i i a a i i i l k k l l l l l l l Z Z Z l l l l l l k l l l l z z z z z l l l l l l l z M M M M Y Y Y Y Y Y Y Y R R N N M M l x x x l x l f f h h h u u u u t t 1 1 1 < < 8 6 6 6 6 6 6 6 6 6 3 5 5 5 5 5 3 3 3 3 3 % % % % % % & & & % % % & & & & % % % % % % % % % % % % $ $ % % ; tXfXfXfXiXjXaXfXaXaXfXaXaXaXjXeXfXiXeXw.w.6.;.+. . .n CXaXaXaXe @ O + @ @ @ @ 4 4 6 7 w [ n  .O. .O.4.7.7.7.0.9.6.5.7.5.4.<.;.....o.O. .{ { ...... . . ..... . . . ...+.=.-.-.;.4.;.=.=.<.4.=.-.<.<.=.O.O.O.O.5.5.4.6.6.7.7.7.6.4.4.4.4.;.-.=.+.X.O. .}  .[  . .} }  . .{ {  .O... .} }  . .{ [ [ { { { [ A n n n n n n v 7 v v 0 8 3 5 3 3 3 3 3 3 ; % & & & & & & % % % % % $ $ $ $ $ $ $ $ $ $ $ $ $ $ $ $ $ $ $ $ $ $ + $ $ $ $ $ $ % % % % % $ $ % % % % % % $ $ $ % % % o D >X^./.P.P.P.P.K.K.K.K.H.H.H.H.H.H.H.H.n.H.n.k.k.k.k.k.u.y.t.t.t.t.t.t.L N N M M z a a y t > = % % % $ $ $ $ $ $ $ $ O ",
"%.X.6 X % h h i a a y i i i i i i i i i a a i f l l l l l l l l l l Z Z Z Z l l l z l l l l l l l l z z M M M M M M M M Y Y Y R R R R R R R R R R R R L N M M M x x x x l a i a h h i i u h t t 1 1 1 1 < < < < 3 3 6 6 6 6 6 3 3 3 5 5 5 3 3 3 3 3 % % % % & & % % % % & & & % & & % % % % % % % % % % % % $ $ % % o +XjXjXjXaXkXjXaXfXfXaXaXjXaXaXpXaXiXeXw.w.7.;.-. .+. .CXyXaXeX4 + @ 4 @ @ @ & & 4 6 7 w [ n  .O.O.=.4.7.7.9.w.7.6.5.6.5.4.<.-..... .o... . ....... . . ..... .........+.+.=.=.4.4.<.O.=.4.4.=.4.6.4.<.-.-.;.4.5.6.6.6.7.7.7.7.6.4.;.4.<.-.-.=.+.X.O. . .O. ..... . . . .} {  . . .[ S [  .} { [ [ [ { { [ A n n n n n n v 7 v v 0 7 3 5 3 3 3 ; ; ; % % & % & & & & % % % % % $ $ $ $ $ $ $ $ $ $ $ $ $ $ $ $ $ $ $ $ $ + + $ $ $ $ $ $ % % % $ $ $ $ % % % % % $ $ % % % $ % o @.>X^./.P.P.P.K.K.K.K.K.H.H.H.H.H.H.H.k.k.k.k.k.k.k.k.g.u.t.t.t.t.t.t.L N N M M M z a a i t > = = = # # % $ $ $ $ $ $ $ ",
"=.} O X ; x h i a y i y i i i i i i i i a a i i j l l l l l l l l l l l l l l l l x l l z z z M M M M M M N H H H J N H Y R R R R R R &.&.R &.&.R R R R R N N M M M M M M x x a i i i h h h t t 1 1 1 < < : < ; ; ; 5 5 6 6 3 3 3 3 5 5 3 3 3 % 3 3 % % % % & % % % % % & & & % & & % % % % % % % % % % % % % % % % X 6.kXjXjXfXkXfXfXjXfXfXaXfXaXQ.aXaXyXeXe.9.7.4.-.=.+.=.fXw.jX4.& O @ @ & @ @ @ & 4 6 7 w [ n  .O.+.-.5.7.7.7.7.7.6.5.4.5.4.;.+.O...o.O... . . ... . .{  ..... . .....+.+.+.=.-.5.6.4.O.;.5.5.4.5.4.4.;.-.<.4.5.4.6.6.6.6.7.7.7.6.4.-.4.;.-.-.=.O...*... .O. . . . . . . .} { } } { S S [  . .{ [ [ { { { A A n n n n n n v 7 v v 0 7 5 3 5 3 3 3 3 3 ; ; & ; ; % & & & & % % % $ $ $ $ $ $ $ $ $ $ $ $ $ $ $ $ $ $ $ $ $ $ $ $ $ $ $ $ $ $ $ $ $ $ $ $ % % % % % $ $ % % % % % # A.>X/./.P.P.P.K.K.K.K.K.H.H.H.n.n.n.k.k.k.k.k.k.k.k.k.g.u.t.t.t.t.t.t.L N N M M M z a a i y 1 = = = = = % % % % % % $ % ",
"=.b O X 1 j h i a a y y i i i i i i i i a a i i h j l l l l l l l l x l x x l l l x l z z M M M M N N H L L R R R R R R R R R &.g.t.g.t.h.h.h.h.h.h.h.t.R R R R N N N N M M M l a i a h h i h t 1 1 1 < : : ; ; ; ; ; ; 3 3 3 3 3 3 3 3 3 3 3 % 3 % % % & & % % % % % % & & % % & & % % % % % % % % % % % % % % % % O ;.kXjXjXjXjXjXfXfXaXfXaXyXyXaXaXaXyXeXW.7.7.4.=.O. .Q.aXQ.fX[ @ @ & & & & @ & 4 6 q e e { _  .O.*.-.5.4.4.4.6.6.6.5.5.4.4.-.+.+... .o. . . . . . . . . .o... . .....+.-.<.<.4.5.6.4.+.4.5.5.5.4.-.=.=.-.<.4.4.6.6.6.6.7.7.9.w.7.5.<.4.4.-.=.O... .O. .}  .[ } } { { }  . .{ } } } [ [ }  .{ [ [ [ { { A A n n n n n n n v 7 v v 0 7 5 3 3 3 3 3 3 3 % % & ; ; & & & & & % % $ $ $ $ $ $ $ $ $ $ $ $ $ $ $ $ $ $ $ $ $ $ $ $ $ $ $ $ $ $ $ % % % % $ % % % % % $ $ $ $ % % % % # A.>X^./.P.P.K.K.K.K.K.H.H.H.H.n.n.k.k.k.k.k.k.h.h.g.g.u.t.t.t.t.t.t.t.L N N M M M M a a a y t 1 = = = = = = = % % % % % ",
"*.9 X X 1 h i i a y y y i i i i i i i i a a i i h j l l l l l l l l l x x x x x z z z M H H J L L L R L L R R R R R R R h.h.h.h.h.h.h.h.h.j.j.j.h.h.h.h.y.t.R R L R N N M N M M a a f h h h i t t 1 1 : ; ; ; ; ; ; ; ; ; ; 3 4 3 3 3 3 3 3 3 ; 3 % % & & & % % % % % & & & % % % & % % % % % % % % % % % % % % % % O [ kXjXjXjXjXjXfXaXaXfXfXyXyXaXpXaXaXeXW.7.7.4.+.<.A aXfXkXpXq O & & @ @ - @ & 4 7 e n e { [ o.+.*.-.5.4.4.4.4.6.6.5.5.4.;.-.+... . . . . . . . ..... . .O.O. . ...+.=.<.4.4.4.4.4.5.;.<.6.6.4.5.4.4.;.;.<.4.4.6.6.6.6.6.6.7.7.6.4.-.<.;.=.*.+... .O. . ...{  . .} }  . . .} }  . .} { }  .{ { { { { A A n n n n n n n n v 7 w v 0 7 5 3 3 3 3 3 3 3 % % % ; ; & & & & & % % % $ $ $ $ $ $ $ $ $ $ $ $ $ $ $ $ $ $ $ $ $ $ $ $ $ $ $ $ $ $ % % % % % % % % % % $ $ $ $ % % % % X I.:X/./.P.P.K.K.K.H.H.H.n.n.k.k.k.j.h.h.y.h.y.y.y.t.t.t.t.t.t.t.t.L L L N N M M M M z a a i t t 1 = = = = = = = = = = = ",
"%.< X X h h i i y y y y y y i y i i i i i i i i i h j x l l l l l l l l x l x l z z M M M J L L R R R R R R R R R t.g.h.h.h.h.h.j.j.j.k.k.k.k.k.k.j.j.k.h.h.y.t.t.R R L N N N M M a a f f h h u t 1 1 : ; : ; - - - - - ; ; ; ; 3 3 3 3 3 3 ; ; % % % % & & % % % % & & % % % % & & % % % % % % % % % % % % % % % % O 6 fXfXjXjXfXjXhXfXfXfXjXfXaXrXyXfXaX+Xe.7.9.4.+.0.A yXeXjX+.4 @ @ @ @ @ - & & 4 6 w e v [ [ o.O.O.-.6.7.7.6.6.6.4.4.5.4.-.-.+. . . . . . . . . . .......+.O. . ...+.+.-.;.<.<.4.6.6.4.4.5.4.4.-.+.=.*.;.<.4.4.4.5.6.5.6.4.5.5.4.-.=.-.-.=.=.=.O. .O. . .O. ... . . . . . . .}  . .} } } } { { { [ A A A n n n n n n n v v q w w 0 7 5 3 3 3 3 3 3 3 ; % ; ; ; & & & & & % % % % % $ $ $ $ $ $ $ $ $ $ $ $ $ $ $ $ $ $ $ $ $ $ $ $ $ $ $ $ % % $ $ $ $ % % % % $ $ $ $ % % % % X E.^.^./.P./.L.H.K.n.n.z.z.k.k.j.h.h.h.y.y.y.t.t.t.t.t.t.t.t.t.t.t.L t.N N N M M M M M x a i i y t t 1 1 = = = = = = = = ",
"S % X : j h y i y y y y y y t t i i y i i i i i i i h j l l l l l l l l l x x x z M M M N L L L R R R t.t.t.t.t.t.g.h.h.k.k.k.k.k.z.z.z.n.n.n.k.k.k.k.k.k.k.k.g.y.t.t.t.R L N M M M l a a f h t t 1 1 : : % % - - - - & % % % % % % 3 3 ; ; % % % % % % % % & & & & & & % % % % & & % % % % % % % % % % % % % % % % + o jXfXjXjXfXjXjXfXfXfXjXfXaXkXeXeXeXeX9.9.9.0.+...{ fX7.aX+.& @ @ @ + @ - 4 & 4 6 q w n n S o. .+.;.6.0.0.7.6.6.4.;.O...*.+. . . . . .{ {  ...O. .......+.+. . ...O.+.=.;.;.4.4.6.6.5.4.5.5.<.=.O.=.+.O.-.X.*.6.4.6.4.7.4.6.6.5.<.-.-.-.+.+.=.O. ... . ... ... .}  . . .}  .[ } } } } { } { { { [ A A A n n n n n n n v e q w w w 7 6 3 3 3 3 3 3 ; % % % % % & & & % % $ % % $ $ $ $ $ $ $ $ $ $ $ $ $ $ $ $ $ $ $ $ $ $ $ $ $ $ $ $ $ $ $ $ $ $ $ $ $ $ $ $ $ $ $ $ % % % % # :XS.~.K.L.L.K.n.n.k.j.j.j.h.h.y.y.t.t.t.t.R t.R R t.t.t.t.t.t.t.t.L L N N N M M M M M M x i i y y y t 1 1 > : = : = = = ",
"m % X < h i i i y y y y y y t t i i y y i i i i i i i i j j j j x x l l l l l z z M M M L L L R R R t.h.h.h.h.h.g.g.j.k.k.z.z.z.z.S.S.H.H.H.H.H.H.H.n.n.z.k.k.k.k.g.t.t.t.t.N N M M M z a a i y t 1 > : = % % % % % - & - % & & % % % % % % % % % % % % % % & & & & & & & % & & & & % % % % % % % % % % % % % % % % $ O eXjXjXfXfXjXjXfXjXfXfXpXpXfXaXpXrXeXQ.e.7.5.5.+.+.jXQ.yX{ & @ @ + + @ & 4 4 4 7 w e [ n { O.;.4.<.6.0.7.4.4.4.<.-.O.X.O.+. . . . . .{ {  ...O.........O.O.....O.+.+.=.;.<.4.4.5.5.4.<.4.5.4.;.*.4.;.O.4.;.7.6.4.7.5.w.4.7.7.5.4.;.;.=.O.O.*.O. . . . .} } } [ m } { { S } S [ } } } [ {  . .{ [ A A A n n n n n n n e w w w w w 7 6 3 3 3 3 3 3 % & & % & & & & & % % % % % $ $ $ $ $ $ $ $ $ $ $ $ $ $ $ $ $ $ $ $ $ $ $ $ $ $ $ $ $ $ $ $ $ $ $ $ $ $ $ $ $ $ $ $ $ $ % % = :XI.~.K.S.n.k.k.j.h.h.h.h.t.R R R R R R R R R R L L L L L L L t.t.N N N N N N M M M M M x a i i y y u u t 1 > : 1 1 1 = ",
"v o X 1 h y i i y y y y y y i y i i y y i i i i i i y i i h j i j j l l l l l z M M M Y R R R R R h.h.h.h.h.h.h.k.k.k.k.z.H.H.H.H.H.H.H.H.K.K.K.K.K.K.K.K.n.n.n.z.k.k.g.u.t.R L N N M M x x i h t 1 > : = % % % % % - - - % & & & & % % % % % % % % % % % % & & % & & & & & & & & & % % % % % % % % % % % % % % % % % O *.kXjXfXfXjXfXjXjXfXfXaXyXiXaXaXyXrXeXe.5.<.5.<.5.jXaXQ.6 + @ @ + @ & & 4 4 6 q w n { [ { +.<.<.<.6.6.4.4.<.<.<.=.O.X....... . . . .{ {  . . ......... . .O.+.+.+.+.=.<.4.4.4.5.5.4.<.4.5.<.=.O.;.-.O.;.;.6.7.6.w.6.9.4.6.7.4.;.-.=.O.....O.+. . . .} [ [ [ [ m } } } [ } [ }  . . .{ {  . .{ { [ A A A A A n n n n v e w w w w 7 6 3 3 3 3 3 3 ; % & & & & & & & % % % % % $ $ $ $ $ $ $ $ $ $ $ $ $ $ $ $ $ $ $ $ $ $ $ $ $ $ $ $ $ $ $ $ $ $ $ $ $ $ $ $ $ $ $ $ $ $ % % h ^.S.S.j.h.y.y.y.h.R R R R R R N N N N N N N N N N N N N N N N L L L N N N N N N M M M M x a a i a i i u u 1 1 1 1 t 1 t ",
"w X $ 1 u t i i y y y y y y i i i i y y i i y y i y u u u u u i i i i j j x l l M M H R R R R R h.h.h.h.h.k.k.k.k.k.k.z.H.H.H.H.H.H.K.K.K.K.K.P.L.L.L.L.K.K.K.K.H.S.k.k.k.g.t.R R N M M M x f i t 1 1 : % $ $ % % % % % % % & % & & & & & % % % % % % % % % % % % % & & & & & & & & % % % % % % % % % % % % % % % % & + v lXjXfXfXjXfXkXkXhXhXfXaXyXyXyXrXyX!.e.5.5.<.+.5.aXjX0.+ O @ @ @ & & & & 4 7 w e [  .{  .+. .O.<.6.6.6.<.<.<.<.=.X.O. . .O... . . .{  . . . ..... . .{ { O.+.+.+.+.-.<.4.5.4.6.6.5.4.4.5.4.4.-.6.4.6.9.5.7.w.6.w.6.9.<.6.6.<.-.=.*.O. . .O.O. . . . . .}  . .{  . . .}  .}  . . . .{ {  . .{ { { A A n n n n n n n v e w w w w 7 6 3 4 4 3 3 3 % & & & & % & & & & % % % % $ $ $ $ $ $ $ $ $ $ $ $ $ $ $ $ $ $ $ $ $ $ $ $ $ $ $ $ $ $ $ $ $ $ $ $ $ $ $ $ $ $ $ $ % % % % h S.h.h.h.y.t.R R R H H N N M M M M M M N N N N N N N N N N N N N L L L N N N N N M M M M M M a a a a i i u t t t t h h h ",
"8 X % h i y i i y y y y y y i i y y y y y y y i i y y t t y u u i i i j x x l l M M H R R R R y.h.h.h.h.k.k.n.n.z.n.S.S.H.H.H.H.K.K.K.K.K.L.P.P.L.L.~.L.L.L.K.K.K.H.z.k.k.k.y.t.L L N M M x x i t 1 1 = % $ $ % $ $ $ $ % % & % % % % % % % % % % % % % % % % % % % & % & & & & & & % % % % % % % % % % % % % % % % $ $ % CXkXfXjXkXjXkXjXjXjXjXaXiXpXiXrXeX!.e.5.5.<...+XyXfX... O @ @ & & & & 4 4 7 e n {  .{  .=.<.5.4.7.6.6.<.,.;.<.=.X.O.X. .O.o. . . . . . .{ { .. . . .{ { ..+.+.=.=.;.4.5.5.5.6.6.4.;.4.4.5.O...-.=.=.;.+.-.w.6.9.5.7.;.6.6.4.-.=.O.X.X.X.X.O. . . . . . . . . .O... .}  .} }  . . .{ }  . .{ [ { S A A n n n n n n n v w w w w 7 6 3 4 3 4 3 3 ; % % % % % % % & & & % % % % % $ $ $ $ $ $ $ $ $ $ $ $ $ $ $ $ $ $ $ $ $ $ $ $ $ $ $ $ $ $ $ $ $ $ $ $ $ $ $ $ % % % % % % x l.h.t.t.R L L N N M l x x x x x x x x M M M M N N N N N N N N N N N N N N N N N N M M M M M z a a a a i i t t t t h h a ",
"; X < h i y y y y y y y y y y y y y y y y y y y y y y y y y t u i i i j l x l l M M Y R R R t.h.h.h.j.j.k.S.n.n.S.S.H.K.K.K.K.K.K.K.K.K.K.P.P.P.L.L.L.L./.L.L.L.K.K.S.k.k.h.h.t.R L N M M l x h t 1 1 = % $ % $ $ $ $ $ % % % % % % % % % % % % % % % % % % % % % % % % % % % % & & % % % % % % % % % % % % % % % % + + O fXkXfXjXjXjXjXjXjXjXfXaXiXaXaXeXe.Q.Q.5.7.5.+.aXaXeXA O - & & & - 4 4 4 6 q e A [ { { ..<.-.-.<.4.4.5.4.<.;.-.=.X...X. . . . . . . . . . . . . . .......O.+.=.;.-.4.5.5.6.4.4.6.4.;.4.4.5.5.4.7.6.6.9.5.7.w.6.7.5.7.;.5.4.4.-.=.O.X.X.X.X.O. . . . . . . . .} .. . .}  .} }  . .} { }  . .{ [ [ { S A n n n n n n n v w w w w 7 6 6 4 3 4 3 3 3 % % % % ; & & & & & % $ % % % $ $ $ $ $ $ $ $ $ $ $ $ $ $ $ $ $ $ $ $ $ $ $ $ $ $ $ $ $ $ $ $ $ $ $ $ $ $ % % % % % % % % Y h.h.t.R R N N M M x x x x x x x a a a x x M M M M M M N N M N M M N N N N N N N N N M M M M M a a a i i h i i y i h f a ",
"$ o 1 h i y y y y y y y y y y y y y y y y y y y y y y t t t t t u i i j l x l z M M Y R R R y.h.j.j.k.k.S.S.K.K.K.K.K.K.K.K.K.K.K.K.K.K.P.P.P.P.L.L.L.L.~.L.L.L.K.K.S.z.k.k.h.y.R R L N M l x h t 1 = = % $ % $ $ $ $ $ % % % $ & % % % % % % % % % % % % % % % % % % % % % % % & & % % % % % % % % % % % % % % % % & 3 O eXCXjXkXkXkXfXfXjXjXfXiXyXtXaXrXQ.eX+X9.9.4.+.jXaX<.6 O - & & - - 4 4 4 4 w e n [ { { ..<.-.-.<.4.5.4.4.<.=.=.=.X. . . .{ {  . . . . . . . . . ...+.+.=.+.+.<.4.;.4.5.6.6.4.4.4.4.4.4.4.5.<.-.4.4.5.6.<.6.7.6.7.5.6.;.5.5.4.-.=.O.X.X.X.X.O. . . . .} } } } [  . . . . .} }  . .} { }  . .{ { { { [ A n n n n n n n n e w w w q 7 6 3 3 4 3 3 3 ; % % % % & & & & & % $ % % % $ $ $ $ $ $ $ $ $ $ $ $ $ $ $ $ $ $ $ $ $ $ + $ $ $ $ % % $ $ $ $ $ $ $ $ $ % % % % % $ $ % #.#.&.R N N N M x l f h i i i i i i i i a a x l l l z z M N N N M M M N N N N N N N N N N M M M M x x x x i i f a a x x x ",
"X O 1 h h y y y y y y y y y y y y y y y y y y y y y y t t t t t y u i i h l l l M M L R R R h.j.j.k.S.S.S.K.K.K.K.L.K.K.L.L.K.K.L.L.K.P.P.P.P.P.P.P.L.L.L.L.L.L.K.H.S.z.j.k.h.y.t.R L N M x x h t 1 = = = $ % $ $ $ $ $ % % $ % % % % % % $ $ $ % % % % % % % % % % & & % % % % & & % % % % % % % % % % % % % % % % $ 3 X 5.lXfXfXfXjXfXfXjXfXaXpXtXQ.aXaXeX+X+X9.9.+...kXiXA - . & & & - 4 4 4 6 6 e n n  . .{ ..-.<.4.6.7.7.6.4.-.=.X.O.X. .}  .{ {  . .{ { {  . ..... .O.O.+.=.O.+.4.4.4.4.5.6.7.5.5.4.5.4.4.4.5.4.-.5.5.4.7.4.6.9.7.7.4.6.4.4.5.4.-.=.X...X...X. .}  . .{ [ S [ } [  .}  . . . .}  . .} { }  . .{ { { { [ S A n n n n n n v e w w w 7 6 3 3 3 3 3 3 3 3 ; ; ; % & & & % % % $ $ % % $ $ $ $ $ $ $ $ $ $ $ $ $ $ $ $ $ $ $ $ $ $ $ $ $ $ $ % % $ $ $ $ $ $ $ $ $ % % % % % $ $ % @.R R N M M M a x i y y y y y y y y y y i a f l a f f a f M M M M M M M N N N N N N N N M M N M M x x x x x a a x x x x x ",
"X % u h i y y y y y y y y y y y y y y y y y y y y y t t t t t t t t u h h l l z M N Y R R R h.j.k.S.S.S.K.K.K.K.K.K.L.L.K.K.L.K.L.L.L.L.P.L.L.L.P.P.P.L.L.L.L.L.K.H.n.k.k.k.h.y.t.R L N M l x h t 1 : = = $ $ $ + $ $ $ $ $ $ $ $ % % % $ $ $ $ $ $ % $ % % % % % % % % % % % % % % & % % % % % & & & & & & & & % % $ $ o w kXfXfXjXfXfXjXjXjXjXjXfXfXaXaXeXQ.eXe.9.<.4.lXrXA o o - & & 4 4 4 4 6 q v A n  . . .O.<.4.5.6.9.7.4.4.-.O. .O. . .{ { { {  . . .{ {  . ..... .O.O.+.-.O.+.4.5.4.4.4.6.6.4.5.4.4.4.5.4.4.4.-.4.4.6.6.5.7.9.7.7.4.6.4.4.4.<.=.=.X...X. . . .{  .} [ } n [ } } } }  . . . .}  . .} { }  . .} [ [ { [ S n n n n v v v v v v w w 0 7 5 3 3 3 3 3 3 ; ; ; ; & & & % % % % % % % % $ $ $ $ % $ $ $ $ $ $ $ $ $ $ $ $ $ $ $ $ $ + + $ $ $ % % $ $ % % % $ $ $ $ % % % % % $ $ % @.R R N N M z a i i y t t h y h y y i h i i f f a a a a a f M M M M M N N N N N N N L N M M N M M M M x x a x x x x x x x ",
"X % u i i y y y y y y y y y y y y t y y t t y y y y t t t t t t t t y h h x l z M N L R R t.h.j.k.S.S.S.K.K.K.K.L.L.~.L.L.L.L.L.L.L.L.L.L.L.L.L./.P././.L.~.L.L.K.H.n.k.k.k.h.y.t.R L M M l x h t 1 : = = $ $ $ $ $ $ $ $ $ % $ $ $ % % % % $ $ $ $ $ $ % % % % % % % % % % % % % % & & % % % % & & & & & & & & % % % $ $ w jXfXfXjXfXfXjXjXfXaXyXtXpXyXpXQ.eXrXeXw.4.5.lX+Xe . + 4 & & 4 4 4 4 7 w v { n {  . .+.5.<.5.6.7.7.4.5.-.+. ... .{ { { { {  . . .{ {  . . .O. .O.+.+.;.O.*.4.5.5.5.4.6.6.6.4.4.6.4.5.4.4.;.-.;.4.6.6.4.6.9.7.7.6.6.4.<.<.<.=.=... .X. .X.O. .O. . .X.[ }  . .} }  . . . . . . .} { }  . .} [ [ { [ S n n n v v v v v v v e w 0 7 5 3 3 3 3 3 3 & ; % ; & & & % % % % % % $ $ % % % $ % $ $ $ $ $ $ $ $ $ $ $ $ $ $ $ $ $ $ $ $ $ $ % $ $ $ % % % $ $ $ $ $ % % % % $ $ % #.R R N N M z a i i h y y h y h i h h i f f a a a a a a a a M M M M M N N N N N N N L N M M M M M M x x x x x x x x x x x ",
". . . . . . . . . . . . . . . . . . . . . . . . . . . . . . . . . . . . . . . . . . . . . . . . . . . . . . . . . . . . . . . . . . . . . . . . . . . . . . . . . . . . . . . . . . . . . . . . . . . . . . . . . . . . . . . . . . . . . . . . . . . . . . . . . . . . . . . . . . . . . . . . . . . . . . . . . . . . . . . . . . . . . . . . . . . . . . . . . . . . . . . . . . . . . . . . . . . . . . . . . . . . . . . . . . . . . . . . . . . . . . . . . . . . . . . . . . . . . . . . . . . . . . . . . . . . . . . . . . . . . . . . . . . . . . . . . . . . . . . . . . . . . . . . . . . . . . . . . . . . . . . . . . . . . . . . . . . . . . . . . . . . . . . . . . . . . . . . . . . . . . . . . . . . . . . . . . . . . . . . . . . . . . . . . . . . . . . . . . . . . . . . . . . . . . . . . . . . . . . . . . . . . . . . . . . . . . . . . . . . . . . . . . . . . . . . . . . . . . . . . . . . . . . ",
". . . . . . . . . . . . . . . . . . . . . . . . . . . . . . . . . . . . . . . . . . . . . . . . . . . . . . . . . . . . . . . . . . . . . . . . . . . . . . . . . . . . . . . . . . . . . . . . . . . . . . . . . . . . . . . . . . . . . . . . . . . . . . . . . . . . . . . . . . . . . . . . . . . . . . . . . . . . . . . . . . . . . . . . . . . . . . . . . . . . . . . . . . . . . . . . . . . . . . . . . . . . . . . . . . . . . . . . . . . . . . . . . . . . . . . . . . . . . . . . . . . . . . . . . . . . . . . . . . . . . . . . . . . . . . . . . . . . . . . . . . . . . . . . . . . . . . . . . . . . . . . . . . . . . . . . . . . . . . . . . . . . . . . . . . . . . . . . . . . . . . . . . . . . . . . . . . . . . . . . . . . . . . . . . . . . . . . . . . . . . . . . . . . . . . . . . . . . . . . . . . . . . . . . . . . . . . . . . . . . . . . . . . . . . . . . . . . . . . . . . . . . . . . ",
". . . . . . . . . . . . . . . . . . . . . . . . . . . . . . . . . . . . . . . . . . . . . . . . . . . . . . . . . . . . . . . . . . . . . . . . . . . . . . . . . . . . . . . . . . . . . . . . . . . . . . . . . . . . . . . . . . . . . . . . . . . . . . . . . . . . . . . . . . . . . . . . . . . . . . . . . . . . . . . . . . . . . . . . . . . . . . . . . . . . . . . . . . . . . . . . . . . . . . . . . . . . . . . . . . . . . . . . . . . . . . . . . . . . . . . . . . . . . . . . . . . . . . . . . . . . . . . . . . . . . . . . . . . . . . . . . . . . . . . . . . . . . . . . . . . . . . . . . . . . . . . . . . . . . . . . . . . . . . . . . . . . . . . . . . . . . . . . . . . . . . . . . . . . . . . . . . . . . . . . . . . . . . . . . . . . . . . . . . . . . . . . . . . . . . . . . . . . . . . . . . . . . . . . . . . . . . . . . . . . . . . . . . . . . . . . . . . . . . . . . . . . . . . "
};
